/* XPM */
static char *result[] = {
/* columns rows colors chars-per-pixel */
"459 384 243 2 ",
"   c #010101",
".  c #0A0604",
"X  c #060806",
"o  c #0A0906",
"O  c #060608",
"+  c #090708",
"@  c #070908",
"#  c #0C0C0B",
"$  c #130505",
"%  c #180606",
"&  c #110907",
"*  c #120D0B",
"=  c #1A0D0D",
"-  c #0E100D",
";  c #13110E",
":  c #1A110F",
">  c #0E0E10",
",  c #110F10",
"<  c #1A0F10",
"1  c #0F1110",
"2  c #141412",
"3  c #1B1513",
"4  c #171815",
"5  c #1B1916",
"6  c #161619",
"7  c #1A1719",
"8  c #171918",
"9  c #1C1C1A",
"0  c #250A09",
"q  c #2B0C0C",
"w  c #2D0F0E",
"e  c #27120E",
"r  c #231514",
"t  c #2B1514",
"y  c #221A16",
"u  c #2B1A15",
"i  c #221718",
"p  c #231D1B",
"a  c #2A1D1C",
"s  c #331513",
"d  c #361816",
"f  c #331D1B",
"g  c #3B1C1B",
"h  c #1E201D",
"j  c #24211E",
"k  c #2A211E",
"l  c #34221D",
"z  c #3C211E",
"x  c #1E1E21",
"c  c #221F20",
"v  c #2A1F20",
"b  c #391E22",
"n  c #1F2120",
"m  c #242422",
"M  c #2B2522",
"N  c #272827",
"B  c #2C2926",
"V  c #2A2728",
"C  c #2C2C2A",
"Z  c #322524",
"A  c #3B2523",
"S  c #322A26",
"D  c #3B2B26",
"F  c #332728",
"G  c #332D2A",
"H  c #3A2D2C",
"J  c #2E302E",
"K  c #34312E",
"L  c #3A322E",
"P  c #382F30",
"I  c #2E3030",
"U  c #343332",
"Y  c #3C3432",
"T  c #393737",
"R  c #3C3936",
"E  c #3C3B3A",
"W  c #431D1D",
"Q  c #491E1E",
"!  c #43211F",
"~  c #471F21",
"^  c #432423",
"/  c #4B2424",
"(  c #442A26",
")  c #492827",
"_  c #432C2B",
"`  c #4C2C2B",
"'  c #542828",
"]  c #542C2D",
"[  c #47322D",
"{  c #54312E",
"}  c #482E31",
"|  c #542E30",
" . c #423534",
".. c #4B3434",
"X. c #433935",
"o. c #4B3A35",
"O. c #443738",
"+. c #443C3A",
"@. c #4A3D3C",
"#. c #543433",
"$. c #5B3433",
"%. c #573837",
"&. c #533C3B",
"*. c #5B3C3B",
"=. c #663939",
"-. c #633C3C",
";. c #3F403C",
":. c #4A4037",
">. c #44413E",
",. c #4B413E",
"<. c #53433E",
"1. c #5C423D",
"2. c #52483F",
"3. c #65413F",
"4. c #3F3E40",
"5. c #453F41",
"6. c #593E42",
"7. c #673F41",
"8. c #3F4140",
"9. c #444342",
"0. c #4C4442",
"q. c #4C4946",
"w. c #494748",
"e. c #4D4C4A",
"r. c #524543",
"t. c #5C4443",
"y. c #534946",
"u. c #5B4B45",
"i. c #574648",
"p. c #544C4A",
"a. c #5A4D4B",
"s. c #595047",
"d. c #53514E",
"f. c #5B514E",
"g. c #524F50",
"h. c #545453",
"j. c #5C5452",
"k. c #5C5956",
"l. c #595758",
"z. c #5D5C5A",
"x. c #644443",
"c. c #6C4444",
"v. c #644A45",
"b. c #674748",
"n. c #634D4B",
"m. c #6B4C4B",
"M. c #734B4B",
"N. c #764848",
"B. c #63524D",
"V. c #6B524E",
"C. c #61584F",
"Z. c #704F50",
"A. c #635553",
"S. c #6C5553",
"D. c #635956",
"F. c #6B5B56",
"G. c #685759",
"H. c #645C5A",
"J. c #6A5D5B",
"K. c #745453",
"L. c #775755",
"P. c #745D5B",
"I. c #7C5C5B",
"U. c #5E605F",
"Y. c #63615E",
"T. c #6B615D",
"R. c #73625C",
"E. c #7B625D",
"W. c #6C5F60",
"Q. c #646462",
"!. c #6C6462",
"~. c #6B6965",
"^. c #686866",
"/. c #6C6B6B",
"(. c #736563",
"). c #7B6563",
"_. c #736965",
"`. c #7C6A65",
"'. c #7B6768",
"]. c #746C6A",
"[. c #726F6E",
"{. c #7B6D6B",
"}. c #75716E",
"|. c #7B716E",
" X c #757473",
".X c #7C7472",
"XX c #7B7976",
"oX c #7C7B7A",
"OX c #845A5A",
"+X c #83625E",
"@X c #895F62",
"#X c #826562",
"$X c #866A67",
"%X c #956A6A",
"&X c #83726D",
"*X c #8B736D",
"=X c #8E726F",
"-X c #837573",
";X c #887974",
":X c #847C7B",
">X c #8B7D7B",
",X c #977976",
"<X c #A57D7C",
"1X c #7F817C",
"2X c #87817E",
"3X c #95837B",
"4X c #9B837D",
"5X c #A1867F",
"6X c #858483",
"7X c #8C8483",
"8X c #8A8986",
"9X c #8C8B8A",
"0X c #978986",
"qX c #938F8F",
"wX c #96928E",
"eX c #999795",
"rX c #A58B86",
"tX c #B18F8C",
"yX c #A8948C",
"uX c #A79A95",
"iX c #B49B96",
"pX c #A7A29C",
"aX c #B8A49C",
"sX c #B49EA0",
"dX c #AAA9A6",
"fX c #B5AAA6",
"gX c #BCACA2",
"hX c #B8B2AB",
"jX c #BAB9B6",
"kX c #C19E9C",
"lX c #C1A69E",
"zX c #C3ADA5",
"xX c #C4B3A5",
"cX c #C4B4AA",
"vX c #CAB7AB",
"bX c #C8BAB3",
"nX c #D4BDB5",
"mX c #C9C2BA",
"MX c #D6C4B9",
"NX c #C7C6C3",
"BX c #D9CCC5",
"VX c #D9D9D7",
"CX c #E3D9D2",
/* pixels */
"                                                                                                                    X             X                   X                               X                                           X                             X                             X                               X                       X                                       X               X                                                                                                                                           X               X                       X                                     X                           X                                                                                                       X               X                                     X                       X                                   X   X           X                           X           ",
"                                                                                                                                                            X                                                               X                                         X                       X                                                                         X                 X   X   X                           X                                                                               X                                                                             X             X                 X                                                               X       X                                                                                         X X                                                   X         X                                                                                       ",
"                                                                                                                                                                                                                                                              X                                                         X                                   X       X                                                                                                                                                                                                                       X                                                                 X     X     X         X                                                                                                       X                                                                                                                               X     X                 X ",
"                                                                                                      X                                                                                           X                                                                                                                   X                                                                                                 X             X                                                                                                                       X       X           X           X                   X       X         X X                                                           X                                                                                                   X                 X   X         X                     X         X   X                           X                                         X     ",
"                                                                                                                                                                                  X                                                                                                                 X                               X                       X                                         X                                                       X                                         X                                                                             X     X   X                                                                                             X                             X                                             X                     X                           X                                                           X       X                                     X               ",
"                                                                                                                                                                                                                                                                            X                                                                                                               X                               X                                                                                                                                         X                                                                                                                                                                                                                                                                                                                                                 X X     X   X   X             ",
"                                                                                                                                                                                            X                                                                                           X                                 X                                                                 X                                                                                                                       X                                                                       X     X       O       X       X X                 X     X       X                                                                                                 X                   X               X                                                           X                   X               X   X                     X       X                 ",
"                                                                X                                                                                                                                                     X                                                                       X               X                                                                                   X                                                                                                                                                       X                         X   X X                                         X                           X                   X X       X                         X                                               X                                     X       X         X                                                           X                         X                               ",
"                        X                                                                                                     X                                                                                                                           X                                                   X             X               X                                                                 O       X                                                                                                                                       X                       X   X       X                                                     X                         X                                                                         X               X                 X                             X                           X                                               X                                             ",
"                                                                                                                    X                               X                                                                         X                                                                                                                                                                                                                                             X                               X   X                                 X                                                                           X                   X                                   X                                                                                                                                                         X                               X                                                 X       X           ",
"                                                                                                                                                          X                                                   X                                                                               X                         X                                                                                                                                                                                                   X                                                                       X                                                                                 X                             X                                                                                                                                                       X                                         X                           O   ",
"                                                                                                                                                                              X                                                                                               X                                                                 X   X                         X                                                                                                                               X                                                                       X                     X   X                                                                   X                                         X                                                                     X                                                                                                       X                                 X       ",
"                                                                                                                                        X                                                                                                   X                                                                                                                                                 X                         X                                                                                   X                                                                                 X                 X                                                               X       X     X               X                                                                       X                                                                                                                     X                                   X     ",
"                                                                                                                                                                                                                                                                                          X                   X                                     X   X                                                                                     X                                                                                                                             X                                                               X                                 X                                                   X                                                                         X                                       X                                                                   X                   X         ",
"                                                                                                                                                                                                              X                                                                                                                                                                                 O                 X                             X                           X                                                                                                     X                                                                                                               X                                                                                                   X                                                                       X                                 X                     X               ",
"                                                                                                                                                                                                                                                                                      X                           X     X       X     X                         X               X                                                                                                                                             O O                                           X                                                                                                           X                   X X       X                       X                   X                                                     .       X                                                     X                                       X X                     ",
"                                                                                                                                                                                                                                                                                                                                                                                                                                                                X                                                                     X                                                                                                                                                                                                       X                                                                                                                                                                                 X                     ",
"                                                                                                                                                                                                                                                                                                                                      X                                                                                                                                   X                                         X                                                                           X                                                                                                                                                       X                                                                                                                                                                                             ",
"                                                                                                                                                                                                                                                                X                                                                                                                                                                                                                         X                         X                                                                                                                                                                           X                                                                                         X                                                                                                                                                 X         ",
"                                                                                                X                                                                                                                                                                                                                                                       X                                                                                                 X     X                   X       X X                                                         X                                                                                                                                                             O                                   X         X                                 X                                                                                                                               X               ",
"                                                                                                                                                                                                                                                                                                                                                                                                                                                              X                       X - - X X X         X     X           X                           X                                                                                                       X                                                     O       O                 X               O                         X                                                                                                                                                         X ",
"                                                                      X                                                                                                                                                                                                                                                                                                                                                                                                         X   X   - 4 X X               X             X                                                                                                               X                                                                       O         X   X X # X           X                                                                                                                                                                                                 ",
"                                                                                                                                                                                                                                                                                                                                                                                                                                                            O       X     X X         ; R 2.C.~.H.d.q.R 9 o X X X   X X                       X                                                                                                                                             X                           O       X 7 C U Y m               X                                                                                                                                                             X                             ",
"                                                                                                                                                                                                                                                          X                                                                                 X   X                                                                                                       X       X         X   X X J XXpXhXpXpXpXpXdXhXhXdXeXXX;.#       X                                                                                                                               X                                                                 O     @ T U E e.h.2 X             X                                                                                                                           X                                                             ",
"                                                                                                                                                                                                                                                                  X                                                                                                                                                                                                 O   X X   E wXmXhXpXwXwXwXwX5XpXpXhXpXgXhXhXuXq.o o o             .                                         X                                                                                                                                         O   X C 6XE 7 Y j.>.o X                                                                                           X                                                                                                         ",
"                                                                                                                                                                                                                                            X                                       X                                                                                                                                                                                     G dXNXhXhXwXwXwXwXyXyXpX5XpX5XpXpXhXxXfXcXpX;.X X   X                                                                                                                                             X                                                   e.9Xv p G O.p.3       X                   O                                                                                                         X                                                           X     ",
"                                                                                                                                                                                                                                                                                                                                                                                                                                        X                         O . O l.NXNXdXwXwXpX3XwXyXpXpXpXpXpXxXxXxXxXxXgXgXhXjX].;   .   X                                                                                                                                                                                       X     E :XF c 3 = +.2               X + X C l.8.#                                                             X                         X                                                                                   ",
"                                                                                                                                                                                                                                                                                                                                                X                                                                                                     X   X         + 9XVXhXdXpXpXpX3XwXwXwXyXaXxXxXgXxXxXxXvXvXvXhXgXhXmXuXy                                                                                                                                                                                                 + + 9.i % 3 r Y Y                 * ^.^.Q.l.z.2                                                                                                                                                                         ",
"                                                                                                                                                                                                                                                        X                                                                                                                                                                                           X           X 8 eXVXjXhXdXqXwX3X3XwX5XpX5XaXgXxXxXxXxXvXvXxXxXxXgXgXhXmXpX5   X                                                                                                                                                                                           X   < p = = r v Y .           X X T 9Xp.g.2 9.E   O                                                                                                                                                           X         ",
"                                                                                                                                                                                                                                                                                                                                                                                                                                                                X eXVXhXdXdXwX6X3X&X2X3X3X5XaXaXaXxXaXxXxXxXvXMXMXxXxXxXxXcXmXyX&                                                                                                                                                                                                 . T i < = p f.m .           @ [.w.l. XT T U @                                                                                                         X                                                             ",
"                                                                                                                                                                                                                                                                                                                                                                                                                                                            X X 8XVXjXhXpXwXXXXX1X3X2X3X3XpXxXaXaXxXxXxXvXMXvXvXvXvXxXxXxXxXhXmX2X.                                                                                                                                                                                       X       > r.i < < v A.y.      X   X 8 ^.m ^.oXV N V   X                                                                                       X                                                                             ",
"                                                                                                                                                                                                                                                                      X                                                                                                                                                                                       ^.VXdXdXdXpX2X.X_.&X&X2X3X5XyX5XaXxXxXxXxXvXMXMXMXMXMXMXxXvXxXmXxXmXj.                                                                                                                                                                    X                   X     > /.v < v F a.p.+   .       4.^.c D.Y.M +.8 O                                                                                                                                                                       ",
"                                                                                                                                                                                                                                          X                                                                                                                                                                                                             X X h VXNXjXpXeX2X_.R.T.3XE.3X3X3X5XaXaXxXxXxXxXvXMXMXMXMXMXvXxXxXxXxXvXhXmXy                                                                                                                                                                                           X # H.v i a b Y Y X   X       9.Y y m k B +.,                                                                                                                                                                         ",
"                                                                                                                                                                                                                                                                                                                                                                                                                  X                 X   X         X       X 8XVXjXeXeXXX}.T.C.R.R.3X2X3X5X5XyXaXxXxXxXMXMXMXMXMXMXMXMXvXxXxXvXvXxXmX3XX                                                                                                   X                                                               X                       # l.p = v a H Y   . X X   # h.5 3 3 = p C O .   .                                                                                                                 X                               X                 ",
"                                                                                                                                                                                                                                                                                                                                                                                                                                            X           X j VXNXeX6X1X~._.C.R.R.E.E.E.3X5X5XyXaXlXxXxXMXvXvXvXCXCXCXMXxXxXxXvXvXxXhXmXj X                                                                                                                                                                                       O 6 z.c < Z F 6.Y . . O O X c E = * r : G 9                                                                                                                                                                           ",
"                                                                                                                                                                                                                                                                                                                                                                                                                                                      X    XVXjXeX1X2XY.C.R.R.C.R.R.E.3X5X5X3XyXlXlXxXxXvXxXvXMXMXMXvXlXiXxXvXvXmXhXcX|.                                                                                                      X                                                                           .     O , XXT a i H 5.F     O + # 0.c < 3 r G O.o                                                                                                   X                                                                     X ",
"                                                                                                                                                                                                                                                                                                                                                                                                                                                      X 4 NXVXjXdX2X_.C.2.s.R.C.E.E.2X3X3X3X3X5XtXlXlXxXxXlXvXMXMXMXxXlXiXxXxXxXxXxXxXaX: .                                                                                                                             X                                               X     O O O ^.P 3 r b H M . .   + C 5.: = r 3 G m .               O                                     X                                                                                                                     ",
"                                                                                                                                                                                                                                                                                                                                                                                                                            X   O   X       O     X     U VXNXjXeXXXT.s.s.C.F.C.C.+XE.L.OX%X3X4XtXtXlXxXlXlXMXMXMXxXvXaX5XlXlXxXxXaXgXmXL .     X                                                                                                                                                                           O   .   w.G i P D  .F $ O . + p.L a a = = M &   X                                                                                                                                                                         ",
"                                                                                                                                                                                                                                                                                                                                                                                                                                      X X         X   + U.VXdXhX2XY.&Xs.s.2X3.2.2.V.E.V.L.3X4X4X5X5X5XtX5XlXMXMXvXxXxX5X5XyXyXxXxXaXpXbXF.. . X                                                                                                                                                                             O O   + !.H b  .L H p . .   3 +.5 a m i F M         O o C G * O                                                                                                                                                           ",
"                                                                                                                                                                                                                                                                                                                                                                                                                          O       X                   X eXVXjXeX2XC.R.F.C.E.F.V.1.V.V.V.V.L.*X3X5X5X5X5X,XlXMXvXMXxXxXxXyXyXyXlXyXyXpXcX&X.         X                                                                                                         X                                                         O       O < :XV p b b L p $ . 6 0.u 3 3 u H y.3   .       p.:X X Xw.+                                 X                                                                                                                       ",
"                                                                                                                                                                                                                                                                                                                                                                                                                                                  X X # jXVXjX8X}.k.C.2.2.C.4XS.R.E.V.1.v.S.#X#X$X,X$X,XtXkXnXnXxX5XxXaX4X5X5XxX0X4XyXgX3Xo X X X                                                                                                                                                                         X     O p W.p r e t f e & & Y +.b r a H O.G *         V r.j.f.!.pX0.+   .                                                                                                                                                   ",
"                                                                                                                                                                                                                                                                                                                                                                                                                                              X       9 VXNX9X9XeXC.C.>.D <.`.F.V.*XC.v.u.V.E.S.+XL.+XtXtXtXvXzXlXxXnX5X5XgXaXaX3X3X3XaXpX5   X       X                                                                                                                                                                       O   p..XM v F Z F } v a Z v a Z a b 5.3         9 E p +.J.l.].].2                                                                                                                                                 X     ",
"                                                                                                                                                                                                                                                                                                                                                                                                                                          X     X X X C NXjX^.wXgXT.>.>.:.:.F.R.F.3X5XV.V.E.=XP.$XV.K.5X4X,XtX5X5XMXvX5XyXMXxXuX3XyX0XhXfXk . X                                                                                                                                                                   X               |.j.v P @.D ..i.r.F a a v Z e t Z $ .     o K 7 3 O.:X5.6.H.#                                                                                                                                                       ",
"                                                                                                                                                                                                                                                                                                                                                                                                                                                X X X ;.VXpXl.}.pXC.;.;.[ o.<.&.V.*XyX3XK.Z.'.=XK.E.4X4XE.K.,X$X5XMXlXlXMXxXmXaX0X4XrXcXhXL . .   X                                                                                                                                                           X               . . XXH a Z b Z H F } f i a _  .@.i.@.H     = R * & i P j.9.r.F .                                                                                                                                                       ",
"                                                                                                                                                                                                                                                      X                                                                                                                                                                                   X     X X X U BX9X>.d.dX}.L :.X.u.<.D ..$X#XrXiX$XP.$XV.R.tX5X$XL.=X=X5XzXyXrXMXbXMXmX,X>X3XaXfX_.,.*   X                                                                                                                                                 X   X   X     X       X   + m 8XZ a r t b b b _ A v t v 6.6.} A.G.m = O.c # . P F W.i.c #                                                       X                                                                                             X   ",
"                                                                                                                                                                                                                                                                                                                                                                                                                                                  X   N NX8X>.z.mX2XL :.Y 2.<.D ..F.*XrXbX,Xm.G.V.tXzXMXaX#XL.yXiX0X,X0XaXMXbXMX3X;X4X0XiXgXmX.X.     X X                                                                                                                                                     X           X O   Y XXp u a v Z H F F b e t A G.a. .i.D.O.C 5 * < v F -X[.v &                                                                                                                                                           ",
"                                                                                                                                                                                                                                                                                                                                                                                                                                          X X   X 1 e.^.dX[.K Y.jX}.:.S H D [ o.1.F.1.;XfXrXK.b.v.rXzXMXgXL.m.4XtX,X0X,XgXCXvXcX;X;X*X0XuXiX-XT..   X                                                   X                           X                                     X                   X                       X     +   9.d.2 5 i v v b F a i r i b i.G.i.r.H r y O . v V 6.qXj.+             X                                                                                                                                               ",
"                                                                                                                                                                                                                                                                                                                                                                                                                                                @ 1XdX XqXXXk ~.dXD.K y 3 H L _ <.$XC.P.yXsX(.&.&.I.=XaXiX;XK.#XwXyX$X$X0XnXhXaXyX*X*XiXiX>XV.r.* X       X                                     X                                                                                                   X                       X 2 :X0.3 * & r = i i t b f i t H &.O...u r = . < 7 I :X Xc   X             O                                                                                                                               X             ",
"                                                                                                                                                                                                                                                                                                                                                                                                                      O         X     X         - oXC B z.Y.>.2X.XL y * 5 M  .S H a.a.S.&X_.a.f V.n.v.;XrX-XS.`.&XA.o.o.t.$X0XyXuX3X,XyXtXS.B._                     X                   X                 X             X                                                                                     X             # C 9XU o . = : : = = u M p p b F A H ..b i = = = 2 9.!.p           O   O           X                                                                                                   X                                 ",
"    X                                                                                                                                                                                                                                                                                                                                                                             X       X                   X                             X   # w.N 4 h.0.d.eXq.; : * o * y u i Z o.&.6.6.&...n.t.V.S.F.u.o.r.O.b u r S o.F.uXgX,X,X&X,XE.>XL .                                                         X                                                                                                         O O O O 2 9XY.3 ; . . & * & & * r u y F Z v P A i a v < 3 +.H.i   X . . . O X X X                                                                                                                             X               .   ",
"                                                                                                                                                                                                                                                                                                                                                                                                              X                           X     X h.9 G _.d.p.1XC . . X & # . * = i H @.H  ..._ v...<.V._ r.o.M F Z e r l l o.3XaX,X,XE.;X*X&Xy     X                                                                                                             X                                     .       O     + O m z.8XE * * X . . * = * & & = < u p F v < = i v < i k.E     O   . . . + + #                                                                                                                                               O ",
"                                                                                                                                                                                                                                                                                                                                                                                                                X                                 J +.B ~.f.XX2Xj ; . X   X . . . * 3 v r a r.$XrXF.u.<.&.Z a l r : y a l l o.&XyXyXyX&XR.&XD.: .       X X     O                   X                                                                                                               X             O     2 w.z.N 4 * * . + o o o * & & : * . < 3 r < < i i v h.+.& . $ = a a S q.T 2 O                                                                                                                                                 ",
"      X                                                                                                                                                                                                                                                                                                                                                                                               O                                           2 Y m 0.p.2X/.p ;   . X . O O . o ; p i D P.0XfXzX,XO.H r : : : * ; u k k [ #X5XaXiX$Xn.a.r .           X   o +   X         X                                                       X                                                               O   .     + + # N d.C 9 . o o o ; . = # . o # o . o o o : 7 < * < < i j.h.p.i.O.i.A.i.H.0XuXe.X                                                                 X                                                         X                     ",
"                                                                                                                                                                                                                                                                                                      X                                                                                             O                                         X     m m p.].uXf.5 *       o o o O . & : r v -X>X0XhX0X6.a b M F y : : : y e :.3XtXiXrX$XP.t..             O # X X                                                                         X                                                 . O +   . .       # I g.5.I N 5 ; o o o o & * . * O o o - o & & * ; % = 3 < r 6.a.A.(.a.F F } 5.(.J.wXXX<       O                                                                                                                 X                       ",
"                                                                                                                                                                                                                                                                                                                                                                                    X                                   O                           9 >.oX6XdXk.* o & .   + X o o o & : < H G.'.uXbX-XG.@.b P Y l 3 y k S ( F.5XkXkXtX*X0Xr..           o p m @ 2 @   X     X               X                 X   O           X                       X                     X         6 p V U h.l.5.T c c T 5.0.h.w.N * o O o O   o o . o o o X X - # o . & ; o & < r 3 7 6...P @.Z f i a &.W.(.uXwXF O                                                                                                                             X       X         ",
"                                                                                                                                                                      X X                             X                                                                                                                                                                                   X   O   X X   O               X                 X           w.:X7XdXj.5 ; = # o o . # # 3 ; : Z @.O.H m.sXuXG.P.'.5.b l l k l :.E.#X5XkXtXtX,X0X&.&         O 2 N 9 6 9 >   O X 7 7 + X # 2 + X                 X                                                                     O   > T H.U 5.H.{.H.G.p.l.H.h.P F v 5 r . * ; o . . o o   X   - # # ; ; & ; : * * = % i v v f i u i A i b H r.(.qXqXV                 O                                                                                                                               ",
"                                                                                                                                                                                                                                                                                                                                                X                 X                 X   X               X X     X                                   > w.l.eXfXp.a 5 # * o * & * & < = v +.O.r e b W.rXW.I.7XG.6.k D r f 6.$X).,X5X<X5XlXtX3..         2 N N n 4 8 2 8 N J 9 4   X 4 j 4 h 4 X X                               O                                                     9 w.T P P @.i.O.5.6.O.5.P F F v i % . & * = & : ; o o . o X o o # 4 : * - * = = ; u p r u a r i i u a F  .<.T.].y                                                                                                                         X                       ",
"                                                                                                                                                    X                       X                                       X                                                                                                                                     X                 X               X         X             X                               O T w.dXhXd.L M = o ; : 5 5 3 p p M p. .< = i 6.0XrX$X,X$XW.`.S.m.A.Z.$X<XkXtX%X5XkXtX:.. X . # 2 n 9 2 n C I 8 9 C 9 X # 4 - @ @ - 4 4 X           X                                                                       X   # V G G p.F V P O.P P v 7 v v i i < = = < = : : ; $ o o X X X . X o - * * : 2 = = ; = a a : 3 = * a a @.T.O.y.Y.h                                                                                                                                         X   X   ",
"                                                                                                                                                                                                                                                                                                                                                                                                                    X     X                         O 4.6XjXuXw.H S p r y G L k H G i M 0.v = i t F P.sXtX$X'.'.yX=X'.$Xb.=XkXnXiX<X%X5X,X .* ; o B B m m n J K I 9 8 ; j h j 9 # X X   @ #     X     X     O                                                                   X   X 6 U P S a i F V F H p i a i i V a a a 3 : * % = & o & o o X o o - - o - : 5 4 * * = : r p 3 * * r p j.!.+.k.0.#                                                                                                                                                 ",
"                    X                                                                                                                                                           X                                                                                                                                                                                                                                                     X             O g.dXjX^.O.M 0.L k M H L G Y H a Y r.< = r b t 6.qX<XW.,X).=XP.6.I.7.OXtXiX5X%X%X+X#X1.2.l B C j h I N j h 6 m h U >.;.0.d.s.>.>.j ;   X     O           O     +                                                               X   2 9 p r 7 r c i i 3 < 3 i i a a i a a r : : : & & o o o o o - * - * - : : 3 : & ; 3 ; ; o o o & : +.j.].^.j + X                       X                                                                                                                       ",
"                                                                                                                                                                                X                                                               X                                                                                                                                     O                       X                                       E dXeX9.O.H y.@.m v v O.G H v v y.i.i % 3 v i ..,X#X6.#X=X,X6.b _ 6.b.@X,XtX%X<XL.V.<.F.T.T.d.R K J j B j j R R >.f.>.>.j.j.!.[.k.k.,.C # X O X   X   X     O                                                                   X       O $ < 9 6 = < * % * = * * < i r : r r 3 : = . # .   o ; - ; : ; * ; * ; ; & & ; o X O # o % O.j.z.E #                                                                                                                                         X         ",
"                                                                                                                                                                                                                                                                                                                                                                    O                                                           X           X X O X > w.jX].O.w.Y O.B 3 5 v M i 3 3 Z r.@.r * = < t 6.uXrX6.7.6.Z.&.f b f 6.Z.K.tX5X,XM.K.`.F.T.R.f.q.K j K >.J K R >.K e.h.Y.k.C.k.Y.Y.Y.j.Y.Y.T * . o + 2 #             +                 X                                         X               o # 3 ; * * < = & & % % r y : = 3 3 * & . o # o 5 y & * : # & & ; ; 9 j o X . # X R .XQ.m 2 # +       X                                                                                                                                         ",
"                                                                                                                                                  X                   X                                                                                                                                                                               X           X           X                           .                 X X # X X # > # X @ O # 2 K ].Y Y p.5.B u = i Z i < = r r _  .v < < % t 5.,XrX7.6.^ } G.F t e ( t.I.*XL.c.<.S.3XT.F.T.!.~.f.d.o.>.>.R R K 0.f.p.Y.D.y.d.T./.|.k.D.Y.T.d.R ; # 9 m 9 # X       X X                                                           X   X X O         # 2 = & < * 3 * * = 3 r r : ; = o . o & o - y j 3 & * ; : : ; ; m y     X o ; z. XJ o *                                                                                                                                                     ",
"                                                                                                                                                                                                                                                                                                                  X                                                               X         X         .       O           X     + 2 # 7 N 6 # O , 9 N U 9.>.M Y H y 5 7 * 7 7 % = 3 3 a 5.} 6.i < t } I.$X).I.%.A 6.} b i t _ P.L.*.( { V.$XE.;X&X;X2X|._.D.f.f.j.,.,.,.y.2.,.f.C.j.D.s.T._.H.^.D.k.k.9.C ; 2 C x 1 2                                                                                         ; 3 < % * * = = 3 = : : : * # ; o & o & * * : y 3 ; & : 3 y C # X X . X q.z.m ; o                   O                                                     X                                                             X               ",
"                                                                                                                  X                                                                                       X                                                                                     X       X     X   X     X                                               X                                     O       O     X X o 4 ; h N J N 4 ; B K N j C y j k : o : 3 9 3 : r k u  .L D a...A S.t.1.%.v.P.P.G.6.r.i % = e A ( ( d :.3.+X3X3X#X&X2X2X{..X.Xj.y.f.H.p.D.a.y.H.(.-X|.R.}.k.y.p.p.+.q.>.0.K N m j m 2 1 @ @   O             X                                                           X       3 p y ; & * ; 3 : * : ; ; ; - - O * ; = : : 5 y : ; * ; j y X   X X N T h 2 + X       O                                                                                                                                   X           ",
"                                                                                                                                          X                                                                                                                                                                                       X                             O                     O                               X X   o X o - j j ; N C N ;.>.;.C B L +.R K ; : : o ; B k i M i S A 5.O.H  .P.v.v.m.*Xn.F.'.i.A.b = 0 0 u ( 1.1.3.E.4X5X5X5X2X2X`._._.{.J.j.a.J.!.a.f.j.a.n.|.&X_.!.(.J.j.j.0.0.+.+.R 9.J 9 h # 1 x > O                                                                       X X       X   ; 5 : j j : ; = = ; o o & * & & 4 5 2 3 : * : 3 3 : ; 9     O   N T 2 2 O             O                                                                                                                                             ",
"                                                                                                                                                                                                                                                                                                                                                X                                                 X       O       X     X X X - - 9 5 C U h.d.2.h.;.U C J 9.Y.d.Y j ; ; # 5 K C 3 5 3 = v 6.i.i. .@.F t.t.).a.t.i.} 6.F < * i A 1.*XOX+X,X*X5XaXaX0X3X0X-X2X2X}.!.-X!.W.A.a.r.n.B.R.R.G.T.-X].A.0.j.j.0.+.U >.U K m 4 1 8 n x X                                                                                 X X X o : j ; 3 * 3 : & & & ; & & : * 4 p 3 : 3 3 * # 9 ;       # V 7 # X                                                                                                                                                             ",
"                                                                                                                                                                                                                                                                                                                                                              X                       O                           O # O   o - 5 5 j K k.z.k.h.;.K B U ;.h.d.f.,.k.L ; # # m h K v N r * < a S  .F ..a Z Z @. . ._ i H 5.Z e u *.3.+XL.5X4X%X4X5XaXuX3X3X3X7X-X-XwX0X7X|.-Xa.r.a.J.F.{.0X:XwX0X X!.T.T.j.y.0.>.>.>.K C 2 # 9 8 @ X                                                       X                           X X X k R ; : ; : & ; ; - & ; * = * * = * 3 * # ; 4       > 6 # +                                                                                                                                                                 ",
"                                                                                                                                                                                                                                                                                                                                                                                          X   X X     - 2 # > # X @ @ @ X - # - 9.2X6XY.R >.;.k N J J >.d.;.K R !.Y 3 ; ; 9 B K 7 w.9 * 3 r M Y = = = a F F ,.O.Z Z L r._ a b b.V.L.L.%X+X%X4X3XyX0X4X`.|.R.D.T.0X0X-X8X-XJ.n.A.$X{.|.0X7X7XeX9X0XqX(.p.0.>.0.E 9.;.q.C 6 9 n X X                                                                                     X # z.2XK k 3 3 : & ; o & 3 3 = * ; : # * # 4 4       X # O                                                                                                                                                                     ",
"                                                                                                                                      X                               X                                                                                                                                                         O           X                   X                           O + # 2 4 1 2 7 2 9 8 1 1 1 1 1 8 w.6XoX>.;.k.>.N j G h K ;.J k R k f.Y 9 y # 2 m E > 4.p * G 5 B 9 * i * E +.: ,.L < O.F &.H t D K.K.$X3.3.K.OX*X*X$X3X`.V.T.R.u.f.!.7XXX-X{.j.i.(.(.'.7X>X-XsXfXuXXX:X(.j.j.y.d.p.9.;.q.;.N 9 # 8 4                                                                                 X X X ; wX].2. .: * 4 3 * * y 3 = = * : 3 o ; ; 5 +         X                                                                                                                                                             X         ",
"                                                                                                                                                                                                                                                                                                  X                               O                   X       X       X               O @ # X X O 1 n 9 2 2 9 9 9 2 > 6 > E oX/.e.9.R Y.9.C j K B B K B L B k B  X>.6 i # # 2 m 2 m 3 o R 3 C 5   E 7 0.+.* L M < S M O.f t ( m.K.+X3.{ 3.+XE.$X&X$XF.2.,.y.u.F.'.0X>X-XG.r.0.n.A.t.i.6.6.W.:X0X7X X_.].H.q.e.9.q.;.9.;.T h - 4 4 X                                                                                   X N wX>.X.X.5 : : : ; ; 5 r * : y & : * 4 # O   X     X         X     X                                                                                                                           X                         X   ",
"                                                                                                                                                                                                                                                                                                                                                                                    O     # X X X # 1 6 2 2 3 9 9 6 6 8 U z.z.T e.z.^.R B j C j k K k ;.K h j L wX+.v 6 & # 6 1   7 2 O C 2 K 7 o Y 2 +.Y * 9.j   < v @.u f | 6.%X+X{ ( { L.K.F.R.P.R.B.s.B.s.R.{.-X-XR.j.y.0.t.n.a.G.G.j.6.6.5.H y.y.!.H.q.+.G ;.w.h.q.h.;.5 ; #                                                                     O           X + # 6XT.0.k.S 5 5 ; * * * ; & & : : : 5 ; #                                                       X                                                                                                                               ",
"                                                                                                                                                                                                                                                X                                                                                                                 X             X # 2 # ; 2 2 - 4 h J j J ;.B B I T 9 E w.8.I e.oXl.4.m N m h 3 y 9 m T B 2 < +.0X+.M j & * 5 ;   2 7 2 9 X U 6 * N   C C . B ;   * v 6._ _ } c.,X%X' W ! #.m.1.<.V.R.C.P.V.A.R.G.R.F.<.u.r.a.S.{.$XA._.eX>XG.5.Y B j K Y R >.T R ;.e.Y.j.q.>.N 2 X   X                                                                           @ 1 E eX>.U q.: - : - : : - * * & 3 5 ; 5 #         O                                                                                                                                                                               ",
"                                                                                                                                                                                                                                                                                                                                  X               X X                             @ @ ; 7 7 9 U C U d.q.R 9.;.B U C B J C U T z.g.N 9 n B 5 5 9 5 9 C B 7 2 #  X0XS k L 5 3 j * . ; - 7 7 O m 2   9 o U p   5 O   . a J.i.| m.Z.%X$X^ s s d z %.1.1.1.1.<.B.R.R.G.F.B.,.a.A.u.(.-X{.-X3X0X-X(.'.G.,.G y ; 9 K L K >.X.k.j.>.d.;.1                                                     X                       X # @ 2 1XQ.S f.X.4 : * ; : - o o & ; 3 ; j ;                                                                                                                                                                                         X ",
"                                                                                                                                                                                                                                                                                                                                                                                      X 7 2 2 N ;.E R N j h m h h m m h C T w.E m 2 3 N 5 5 h 5 4 j N m 2 < , -X2XB p Y a p B # . * + 4 > + 2 + X , # V <   O . & $ f S.Z.7.,XM.+X3.#.W s e d ! ( 1.#._ ( u.F.E.`.V.2.<.r.B.n.R.&X-X0XuXsX{.a.'.!.J.T.+.K B B j k :.s.h.k.e.q.;.N 2   O           X                                                           X 4 # ;.XXU S H.B : ; - 5 : - & o o : 3 j j o                     X                                                                                     X                                             X                                 ",
"                                                                                                                                                                                                                                                                                                                    X                           X             X             X   X X X 4 h m T l.^.e.J j 9 m j 9 4 4 9 C U m m N 8 2 9 4 h h 4 4 5 h 7 2 # + # +.(.S F F B r S = o * o 2 # + # + # 2 + 6 #   . O < = ..m.6.M.<XL.M.-.3.! ! d d z s d l ( A &.u.F.F.<.u. ...<.a.i.G.-X&X0X7X-X{.-X7X(.^.p.:.y.:.B B K U Y.f.z.z.k.h.C ;         X                                                             O 2 - >.eXh.B G 9.5 4 : : : : o ; ; ; : 5 C 5 X                                                                                                                                                                                           ",
"                                                                                      X                                                                                                                                                                                                               X                                                                       X @ X 1 8 J 1X X>.;.K j 5 3 j 5 4 4 4 j C C 8 8 8 7 h 2 p h 4 4 4 2 5 4   +     y T i.l v a 3 F p : y + p < > # # # 2 , 6 # . . < < P 7.7.7.OX,X@XOX$.] ! d ! { ! l s e l ( o.v.G.F.v.r.o.&.&.r.i.i.'.>X$X7XuX7X-X-X'.i.w.Y 0.9.>.:.C B R h.Y.Y.z.Q.d.E j o X                                       X             X     X X # c U z.9XXXY j L k - ; 5 ; : - o ; ; * = 9 C #                                                                                                                                                                                             ",
"                                                                                                                                                                                                                                                                                                                                                                              X @ @ # h.oXU.;.B J K J N M m h 9 5 5 5 h 8 2 2 x N 9 h h ; 4 ; 5 4 7 # o +   + * . P M i D a F H r m M G > # 2 # # , + 2 < . b Z b n.7.%X%XK.%X@XN.' $./ ! ` 3.1.z w u z _ n.S.t.n.t.@.6.t.@.6...@.6.A.A.G.&X&Xj.D.Y.p.y.j.,.0.R >.E Y B R z.Y.d.d.k.^.k.p.y .                       X         X                       X , 2 j oXdXY.q.B B ,.5 ; : 3 ; o o o o - ; ; B N o                                                                                                                                                                                             ",
"                                                                                                                  X                                                                                                                                                                                                                                                 X X X     X 4 h /.6Xh.;.J J U R K K G j p p p j 9 9 5 2 7 m c 2 5 4 4 ; 4 4 ; # # o     o .   * r i 6.b a M = a H Y i * p , # 2 3 3 V v i.6.) 7.OX<X%XOX@X7.=.{ c.c.] { $.) %.( d s _ V.n.t.j.@.} ....o...D b b F F b P ..5.a.!.H.j.H.q.R B K E d.L U q.Y.Y.H.H.!.D.k.k.d.5 O   X     O                                 X     @ # h N 9 k.jX2XR G j J K ; ; ; * ; * o * o - * 9 C 2                                                                                     X                                                                                                         ",
"                                                                                                                                                                                                                                                                                                                      X                                                     X @ h /.eXw.R ;.;.k K C B J C M m 5 y p 9 2 3 ; 6 9 2 4 ; 4 5 4 ; ; ; ; # o # o o . . = 3 v  .F D H i = i +.F < c * + < * p 6.v 5.} ^ Z.N.OX<X<XOX7.=.=.$.N.c.N.c.*.1.&.( z &.a.n.t.o.@.5.....o.5...} L } O.P A v b Y O.,.h.q.>.O.Y R R e.e.+.L y.k.h.~.H.XXT.].oX~.+.#   X   X X                                     X 9 I m z.dX9X:.5 4 - K j : 3 * - : - o o o - - m U 2 X                                                                                                                                                               X                             ",
"                                                                                                                                                                                                                                                                                                                                                    X   X     X     + O     1 6 U.oXg.8.d.z.R K K B B G G K C j p y 9 9 7 9 2 2 2 2 2 7 4 2 # - ; o o @ O +     . + 3 i v b P i.i < r L F 5 S 3 p V * Z 5.a } 7.*.c.OX<X<XOXN.=.=.=.N.@X%X%X=.' { ^ g ..6.t.r.f i a G D Y .._ H } @.Y f.A.A.y.y.0.S 5 M j y L C G ;.>.>.>.q.d.j.q.q.s.f.^.|.^.T.T.d.m - X X X         X                       X O x I I l.pX6Xh.7 * * i 0.B ; - * ; : * # o ; - ; m h o X                                                                                                                                                                                             ",
"                                                                                                                                                                                                                                                                        X                                                                       X                     + > 6 4 h.8X9.9.z.e.U J J G C L K L C C k j j j 9 9 2 2 - # , 1 2 2 - - # . O X X X X X O   . & i r = v 6.Z 3 u a 3 < y p l.P P i F H 6.Z.7.L.%X<X<X7.=.N.%XN.OX%X<X@XQ W s d ^ t.n.P.r.r r u : 3 u Y +.Y F Z F H } y.p.0.j.j.>.K M j j 5 h B K j K q.2.k.Y.T.Y.q.d._.}.}.Y.k.U.q.U - @ X X           X             O   # x V l.oX6X9Xe.x c O 7 0.+.5 ; # : ; * o ; # * ; y J - o X                                                               X                                           X                                                                                 ",
"                                                                                                                                                                                                                                                                                                                                                        O O     O   # # 7 9 n ^.9.I w.h.U J k J K K Y R K K G B B j j 3 7 7 5 ; > 2 2 2 1 1 1 @ o X O     X   + . & & 7 < = i } F e i F = * . i r.P F = r } 6.6.7.OX%X%XN.' ' N.OX=.' =.=.Q Q q g b g t.n.a.} < & = * . = 5 u p B Z u y y H X.i.Y +.+.G G Y L j 4 j j B k L >.f.2X].R.,.0.d.Y.wX2XY.Y.h.d.9.J - @ @ X           X             7 x l.eXqX6Xg.v v 7 + 9 h.j . o o 3 ; * o - # & * N B # #                                                                     X                                                 X                                                                       ",
"                                                                                                                                                                                                                                                                  X                                                                                               O O   # 2 z.l.T ;.;.J B j J B B L K K K R K B C B h 9 9 p 9 2 4 * * 1 # - # @ X . o O X O   , * * > # % i < v H F r u : . < = v i i = e b b 7.L.<X<X7.=.=.' ' =.N.=.=.=.Q Q W s f m.m.6.r.u r 3 y 5 = * = * o o < r 5 a m p k V F B y 9 M B C R R G j K R G d._.k.}..X_.D.T.}.}.XX1XU.e.e.k.d.C >   X     X       X       > > 5.qX6Xl.l.V c x * p h.C * . o * ; o o * ; o * ; B 5 X                                                                                                                                                                                               X ",
"                                                                                                                                                                                                                                                                                                                                                                X O X # 4 J  Xe.>.e.J B j J B N C J G K K K B B N 9 9 9 m 7 p 7 2 ; - ; > # # O X O O     + X * < # + & $ % > r Z 6.H v i % % O < & < t t b 6.%X%X<XOX=.=.' =.=.@X7.OX%X<XOX7.7.` %.L.n.K.u.v r = y k p 5 5 3 o * * 2 = 3 p j y j : * 4 2 < 3 9 B L B j y S L L ].J.D.oXwX.X}.T.!.~.].^.~.XX~.d.w.U - o X X   X           # 7 E oXqX^./.O.3 9 o * C 9.o O . o 2 ; o o - & o * 5 U 2                                                                                                                                                                                   X               ",
"                                                                                                                                                                                                                                                                                                                                                    O       X         + h Q.g.T d.C m h j h m B B C C B J J K N 2 2 ; 7 7 7 7 8 7 2 ; # # O X X X + O X # # # * # O O > + < < % e 5...r i < $ % a < r b b %.M.,X<X@X' 7.N.' =.' 7.7.7.OX@XOXI.@X{ b.m.P.$X .D H a ; * * O = ; 5 p 7 y 2 ; ; y ; ; 3 5 4 6 * = ; ; B K K N G +.j.{.XX'.].-X].T.oXeX-X:X7XXXXX2XY.z.U.k.;.-     X           2 m oX6Xl.g.e.2 c B * 2 Y 3 = o * 3 2 o X X o o o # y I *                                                                                                                                                                                                   ",
"                                                                                                                                                                                                                                                                                                                                                              X O # 6 @ N ^.w.l.8.J j N j N m j n N N N N C N 5 ; - ; 4 5 7 9 c 9 7 ; # , # X     O O > 6 < * + . . $ # , < < % < }  .a < < < i _ Z t s d 7.@X%X%X' ' OX' $.7.Q ' OXOXOX,XM.' | { %.x.n.r.t = r 3 * . o .   # 2 ; 9 2 2 3 j 9 : 3 4 9 2 * # o y B M E +.p.,. .a.H.!.-X0X7X|.-X-XwXqX7XpXeX}.T.Y.Y.d.T.z.q.j - X         O , 4.6X^.V P p 9 T 9 # 5 y O . + 7 5 # o o o o & ; ; m m     X                                                                                             X                                                                                                 ",
"                                                                                                                                                                                                                                                                                                                                                      X       O @ > 1 n  Xh.E 9.N N m 9 5 9 9 5 9 7 h n m j j 4 3 * 2 4 - 4 m 9 n m 7 2 # + O X X X + , , > + . & . . . < < < $ < v O.A } A f t D b b } K.%X<X<X' q Q 7.' Q OX7.' =.7.7.7.7.W g { K.$Xu.t t e r = & & . * * & o o # # o - ; ; - * o ; # 7 2 4 5 y 5 3 y Z m p G L Y f..X>X.X2XeXqX7X:X8X8X2X8XoX2X}.}.z.d.d.Y.;.4       O I oX/.T 7 p 7 w.T 2 7 C * o * = 3 * + o ; - o & ; ; T C * X                                                                                                                                                                                                 ",
"                                                                                                                                                                                                                                                                                                                                                          X X # 2 > # T  XE U V 9 m 8 2 6 1 2 2 2 6 2 x m 9 7 9 4 9 2 4 4 4 j 7 7 m x 2 + O X X   o o o   + # # # + + . r : = $ % = S _ r.@.A H } ) } I.%XtXkXL.q q W OX%.d c.$X| W / / ' / W 6.$.).@X} t } n.J.W.L p * = * * = ; ; * o . o ; # o 4 4 * - 2 ; 2 j 2 5 5 3 y 3 y v i a L r.,.D. XuXwXuX>X0XqXwX2X2X7X7X}.Y.k.Q.z.e.w.N - ; k.XXz.U V p P g.7 * 9 7 * + = 3 2 & o o * & o o - 4 K p 2 X                                                                                                                                                                                                 ",
"                                                                                                                                                                                                                                                                                                                                                        O + > X O , 4 w.e.I V m C 9 6 2 # > 2 2 2 2 8 8 7 9 B N B 9 9 5 ; ; 4 3 2 7 8 7 2 + X   X o X + # * , + O + + # 3 3 < % $ & a D _ _ ..H } 6.K.I.@XtX,X~ q q ..I.` z g 3.M.' | 7.L.| / } I.4XZ.6.'.F.;X0X'.W.(.G.Y i ; = : - & o * * X # ; ; ; O # + @ + 2 9 5 m L S L O.5.@.0.B.H.j.j.y.g.J.[..X:XuXuXeX-X{.oX:X:X/.k.f.w.d.q.U e.k.>.U 9.7 7 h.V * , 3 6 * 3 7 3 * & o o ; & & # @ j R 7 8 5 +                                                                                                                                                                                               ",
"                                                                                                                                                                                                                                                                                                                                                        X 1 # O   8 2 E U x I V I 6 1 # # > 1 2 6 6 x 6 7 h C B C j h 5 ; ; 5 4 2 # 2 8 7 ; + X o + # # , o X   . .   = 3 + < < . % r F P F _ t b } 6.m.L.%X6.0 w w | b.g q q w 7.@X6.7.M.6.~ | @X'.6.K.K.....&.}  .G.j.6.5.H G L l * 3 * # ; h y ; # o + + @ # 2 ; r 5 k B S  .X.+.r.a.p.].0X:X.XG.A.5.y.J. X-X0X2X0XwX2X~.Y.}.d.9.>.U p.p.U q.N y E j.3 * * y r = u 5 : o & ; ; : ; o o o B J 8 6 7 o                                                                                     X                                                                                                         ",
"                                                                                                                                                                                                                                                                                                                                                          O #   + 2 N e.T V V N n 8 - + 2 > - 6 7 6 6 6 4 N 9 m N B m j 9 ; 2 - o , 2 7 2 5 2 o + o # > # + X X .   o 7 * + < , . % $ a F b a f b b b %.Z.L.s 0 s s b 7.d q d 0 / ,XOX$.6.' | I.,XL.6.#.^ ....P.{.$X(.@. .o.Y F L k 3 * ; y 3 ; - o X o # @ # # + O ; 5 5 y p k Z Y 0. .O.0.J.!.{..X>X'._.].G.j.Y.H._.8X2X-X.Xh.j.h.U j m C p C m Y XXY 6 = 9 5 * 5 5 = = * = 3 : r : o & ; B j # * #                                                                                                                                                                                                 ",
"                                                                                                                                                                                                                                                                                                                                                        O 6 , # > O I l.4.V m 6 n 6 > # 1 > > 7 , > > 6 6 8 V m j j j N 5 ; - # # 2 # - 4 3 9 2 # # O + X X + + + X # 9 , . 7 * . & % : 3 = % = < % % s ^ _ 0 0 s t s b.b 0 d d w m.<Xb./ ~ 6.%X$X6.~ 6.#.L.`.*X0X0X'.r.} a.@.Z k u k M M C 5 o X X + X   @ O @ o # # 4 5 y 5 y u B Y X. . .0.0.i.!.a.H.D.(.7X-X:XT.j.j.H.A.j.!.9.Y m 2 2 7 2 2 c 9.k.9 ; p p p 3 y 5 = = : : 3 : : : * 2 9 B ; 2 * #                                                                                                                                                                                             O   ",
"                                                                                                                                                                                                                                                                                                                            X                           6 8 * + , 7 +.E I m 9 I n # 1 2 2 # # > # > 6 > 1 2 x 8 h j B J h - - - , # - # o 4 7 9 5 # + O O   X # O > 9 , + + 2 < . . 3 = e % % = r % % < = b t = e t t ` g 0 s s s s 7.#XZ.7.@X,XZ.6.7.@XE.#Xm.P.$X'.n.t.a.+.L Z K D S Y j 9 - o + o @ @ o - # @ + # # - ; ; ; 3 y a k M S F H 5.0.i.d.O.O.0.j.J.!.2X7X!.!.H.p.0.Y p 9 4 7 , 7 o 9 j.B = 3 p 9 y u 5 : = 3 = = : : y : ; 2 C C ; 4 o   X                                                                                                                                                                                               ",
"                                                                                                                                                                                                                                                                                                                                                    X X m C 9 ; 2 m h.C U c c C 6 # > * # # 2 1 > , 2 > 1 6 6 8 4 h B B 4 - - - # 2 + + # > 2 8 9 3 # # # + # X X 2 4 . O + < ,   & = * = * r = * $ $ $ < A r e t } 0 ( ( s _ 0 q s ^ @X,XOXI.K.b.6.$X=X*XI.'.=X&XA.A.(.(.i.H  .,.G M k y - + + # 2 # @ # # # @ # @ # > - ; # ; 2 y j a B p M V G F S H Y L @.+.5.D.H.D.H.|.p.0.+.m 3 2 - # ; 4 p U 9 ; 3 3 : j y = = 5 r = 3 y y p ; * 2 K m #   +                                                                                                                     X                                                                             ",
"                                                                                                                                                                                                                                                                                                                                                  X O O > C 2 m 7 U 4.E U 7 8 2 2 > > # # # > # # > 2 1 1 2 6 1 3 h h 9 4 ; 4 @ # > # @ # # * 3 5 m 9 2 * + o - # 3 =   . + * 2 * o ; . = = u r $ $ . % % v t f A A 0 d x.A _ ^ s / b m.%XOX#Xb.b.@XL.G.m.b.x.).'.b.r.i.6.H P L R D S L j ; 4 2 # 1 - # - @ > # > # @ # # # # = ; = 5 5 9 a M u p V S G Y G Y R H  .O.+.0.q.0.R P c 7 2 - # + * y j 5 ; 3 ; 3 9 3 = = < : 3 r r k y : ; 9 C h , # X X                                                                                                                                                                                                 ",
"                                                                                                                                                                                                                                                                                                                                                  X X X 8 6 h C 6 N T I 8 2 6 > 2 > # > 2 > # # - 1 4 2 - - 2 9 9 m 9 4 2 1 ; ; 1 - o o o o o - ; h m 5 6 2 * 3 6 3 * . * . < 9 , . . & * = v F = $ . $ $ = 0 f } t 0 0 6.m.b b ! $.c.#.x.*.1.) ` *.1.V.F.1.m.B.@._ A H ..5.a.@.Y R :.K 5 ; ; # O   X + 1 # # @ # 1 - # # # o # # # ; ; ; : 9 y j N k p j M k m p B Y  .0.o.K B 5 : 5 2 # o X o - 2 ; 3 ; ; 5 5 3 : : 3 r = 3 r G p 3 5 y N V > >                                                                                                             X                                                                                       ",
"                                                                                                                                                                                                                                                                                                                                                  O   * h - 2 8 x T 5.8 x 2 > > > # # 6 2 O # 1 2 1 - - 4 4 4 9 6 j ; 2 4 ; - ; 1 # # o o o o o - 4 5 j p 9 3 5 7 % . * * O + p < . . % = $ r O.= . . $ . . % b 6.b 0 % } @X7.$.3.=.*.$.x.^ g z z z z { { o.z [  .F O.A.H.p.p.@.X.L K j o o   X         X > 1 @ @ # # # # ; # # - o - o o o o - ; y y j j j M y m a a G M G K p 3 6 4 o * o o o ; ; ; ; = y y = 3 : : : r = = y B y 3 B 9 p > 6 6 O O                                                                                                                                                                                                 ",
"                                                                                                                                                                                                                                                                                                              X   X                                 X 2 h 8 2 9 x 4.V c V > # 6 # # # 6 # X + 1 1 # # ; - 5 9 4 9 1 1 2 8 - - - - # @ @ X o - o o - 3 9 y y y 5 3 = . * & . . m c % > < a % f n.a . . % . $ $ b #.^ q 0 W L.M.M.L.$.3.) g g ( ^ A z ( &.v.1.3.R.S.(.`.T.G.y.y.A. .k k - X                 X X @ @ > X X @ # # ; ; # o X X X X X X o o ; 3 3 9 5 7 p c j p y 9 3 3 2 * o X o o - 2 ; * ; ; 5 5 ; ; ; 3 y 3 = 3 M M 5 5 B 9 # > # > 1                                                                                                                                                           X                                       ",
"                                                                                                                                                                                                                                                                                                                                                O O   @ 2 # n 9 I T x V x 2 # # # 1 9 1 X   # # # # # # 2 2 ; 6 2 # - - ; # # - O # - X o # o o * - ; 3 9 m j 9 i 3 3 * = & * a c $ < b t a b G.} $ . $ . % % s } ) 7.~ g | 7.| 3.L.-.! d ! 3.u.E.L.$XP.E.E.;X&X`.&XR.A.f.(.~.:.S B k # X         X         X     @ - X # # o o - o # + X o o X o . . X O o o # = * * * 4 3 2 # * * # o ; o # 5 2 # ; - * : ; ; ; & * r = < r B y 3 N 7 9 , # > O O                                                                                                                                                                         X                         ",
"                                                                                                                                                                                                                                                                                                                                                    X O # 1 m n 8.9.C I 6 > 1 1 > 2 6 + X + X + > # # > 8 2 2 1 # 1 # 1 4 # # X # # # @ o ; ; - ; ; 4 : 5 y p y a a v 3 = * & r x i i 6.} b b 6.&.r = % % $ % b ~ ] @X7.] =.7.7.3.=.) ) { B.L.+X*X,X$XR.#XR.R.F.R.}.`.R.|.2X2.S k G j #   X   X                 X   @ 1 # @ X o o X o o X + # #   X   o X   X o   X X X O o o o o o # ; # o * 4 7 2 # ; ; = 6 = ; ; 2 = : = 3 m p 5 F j 7 >   O                                                                                               X                                                                                 X                     ",
"                                                                                                                                                                                                                                                                                                                                                      O # # - m Q.w.E m 2 2 6 # @ 1 # O @ # + # # # > , 1 # # - 2 1 # 1 ; # X X @ - > 2 4 ; 3 h 5 3 5 3 * 3 : y u M v v p = a a 6.} } 6.7.b t ) t.` ( % = e e d | ] 7.7.$.| $.$.! / { I.L.3.3.K.L.#XE.4X4XE.R.$X&XR.R.|.|.C.:.S L B 5 X X X       X                   O @ 1 # X X o . X   X   X ; - o X X o o o o X o . . O o o o o o * ; ; 4 5 3 ; - ; 2 # # * ; * * = * = j 9 9 j 7 9 m O                                                                                                                                                                                                           ",
"                                                                                                                                                                                                                                                                                                                            X                           2 , 2 T z.I E 8 # 1 2 1 1 1 # X # # + o O # > > # # > 1 - # - 2 # # @ + o # 1 2 3 4 4 5 j 5 4 : = : 3 = < y i a u Z v A 6.6.} 7.>X6.d 6.K.6.b.b % < 0 w | 7.M.7.M.7.Q ~ s ' 3.+X+XF.V.E.V.V.*XrX4X&XR.&X`.F.D.R.:.[ R L k j #   X                                 o + 2 # o X   X   X + > 2 o o X X X o o o X X . # o o X o - ; 9 4 ; 4 2 # * 3 2 * * < < * * + * 3 j y 4 3 2 2 2 @                                         X                                                                                               X                                                                 ",
"        X                                                                                                                                                                                                                                                                                                                                             > , 2 T 8XU.I 8.6 > 1 - 1 2 # # O X @ + X # > O O > # # # @ @ + # X # # + 2 - ; 9 y j 5 5 3 y j 5 3 3 5 5 3 3 5 i u a Z } } 6.6.6.'.7.} | Z.6.m.} w q 0 q ' | 7.$.7.7.' $.{ 3.3.V.3.M.K.V.V.$XS.*X&XV.E.T.C.s.2.:.:.;.:.j 5 4 o X   X X                                 X   # # X @ X @ + X # # X # # + X o * # o # # # # - - # ; 4 ; - 4 # # * 3 = # , 2 , = < * * 9 9 2 7 7 2 2     X                                                                                                     X                                                                                                   ",
"                                                                                                                                                                                                                                                                                                                                                      X 1 U oX6Xd.R T ; # 2 2 2 # X # # # # 1 # # + 1 # 1 2 # @ O o X . o O # > 2 - 5 5 h m 9 j m m a 3 u y y y r r a r e < t a ( x.Z.b.I.@XG.6.*.' | #.%.g w W | | =.] ' s s | 3.3.{ 1.$.{ 1.{ V.V.E.3XR.E.R.C.F.C.:.:.2.2.;.B h X X X   X                   X                     X # # # @ > > @ @ X X + # # o o o o + + + # - # # ; ; ; : - # * 2 ; ; ; # ; * o & * - 2 j 2 7 4 @ X     X                                                                                                                                                                                                         ",
"                                                                                                                                                                                    X                               X                                                                                                                       X         X 1 8X^.e.k.J m 4 x 2 2 # + 2 ; # > - # # + > # # # 1 @ X X     X X X # 2 2 2 4 4 5 9 h j y m j 5 5 y u a a a Z u a u b f t } *.&.#.I.I.7.7.c.6.#.7.^ w / | | Q q d s q W ! 3.3.V.M.1.1.E.+Xv.V.2.R.C.s.R.C.:.:.s.s.X.R S ; o   X X                                     X         X # 1 1 @ # # - # X +   X O o o # @ # + # X # # o * 4 - ; ; 4 # o # o o # ; - ; 4 5 5 9 m 2   X X                   X                                                                                                                                                                                         ",
"                                                                                                                                                                                                                                                                                                              X X                                   # 1 U./.;.Q.XXC n C C , 1 @ 1 2 > # - # @ O # - # # 1 # @ @ X X + X O # * 2 6 9 9 9 9 5 5 j p 9 p p v u p a a v a t u u t u t d s s b ' ] | I.%XM.-.&.b 0 w W ' | W d s 0 q s 1.*X+XL.1.1.E.+XC.s.E.2.s.s.s.:.:.:.C.:.R K 3 ; X X X X                         X               X           X X X @ 1 1 > # @ + # # + @ @   # @ # - ; - - - - ; 4 2 # o o o o o # o 2 7 > 4 4 2 2               O                                         X                                                                                                                                                         ",
"                                                                                                                                                                                                                                                                                                                                                X O 1 /. XN ;.;.;.m 7 m 9 > 2 @ # # # > + o + @ + + # - # + # X @ # X # ; # - 2 4 4 2 9 4 h 9 9 p m y y a i 5 i i t r b z f A f b s b s W ' ] Q 7.I.7.| / q 0 w W 6.7.$.=.M.| s 0 ! K.L.1.` { 3.V.s.1.2.v.s.[ D :.:.2.:.X.:.S ; &   X                                     X         X           X     X X X @ X @ + 2 + @ - - + # # X # - o - - # ; - o o X # - # # # 4 2 2 2 o X - #                                                             X             X                                 X                                                                                                   ",
"                X                                                                                                                                                                                       X                                                                                                                                     X X X V eXT h C m I C 2 1 1 8 2 # > # # # # # # @ O # # + X + o X @ @ + 2 2 2 8 6 9 6 4 2 5 5 2 2 2 2 3 6 3 3 e i f b u f _ ^ ` z w s d d s w Q Q 7.7.7.7.] W s ~ d ] $.$.| 7.m.7.3.[ 3.3.V.1.3.3.V.1.F.F.:.L D :.2.1.2.s.2.L k 4 o                                                             X X                       O O + # # 1 # > + + o - 2 # ; - o # - # # + # 4 2 n 6 @ 2 O       O                                                                                                                                                                                                           ",
"                                                                                                                                                                                                                                                                                                                                                O o /.^.C N ;.- n x 8 8 n 6 # 1 > # O @ @ @ # O + X X o @ @ O @ + O + # 1 1 1 2 2 2 - # # - ; ; * 2 2 p a i y m F a l ( ^ A ( z b b ) ' W Q ' 7.@X%XOX$.%.| d ~ W ~ ~ ] =.] ] #.3.3.1.( 1.3.C.:.:.C.3.2.D k D s.2.2.j.C.2.B k 4 X   X                                                   X                 X       X             X # # # + # o - o # - o # - - o - ; 2 7 6 2 + X   X                                                     X                                                                                                                                                             ",
"          X                                                                                                                                                                                                       X                                                                                                                           X - T 1XJ N 8.U n I x 8 8 9 1 # 1 2 > @ @ @ @ # # @ @ X X # # X X @ @ X @ # @ X # # > - - - 2 3 2 2 y 9 M v b a H H D _ ..&.( ! g d ~ / | ] 7.N.OX%X%XN.' ' ] W d W ] ] Q Q d q s d z ! u ! :.s.:.[ :.D D k :.:.2.2.:.s.2.R B j X     X X           X X             X                             X                           X           + # X # # 1 # # @ # # X # 1 9 7 #                                             X     X                                 X   O     X                     X                                                                                             X         ",
"                                                                                                                                        X               X       X                 X                                                                                                                                                       X   X ; 9X~.J N h w.w.N 1 1 x 1 1 - - # @ # @ @ # O O @ + o X X # X # + @ @ @ # # # # 1 2 2 1 4 5 9 m v c c p a m k k F _ D [ #.` { ` W W ' %.7.N.N.=.N.OXN.7.=.| s q s ^ / W ' / ~ d ! u z ! z [ D l :.D D D :.:.:.s.2.:.X.L k K j   X       X   X                 X         O       X         X                                           O   X   @ - 6 2 - - - - 2 1 1 1 O O   X         X                                                         X                                         X                                                                                                           ",
"X   X                                                                                                                                     X                         X                                                                     X                                                         X                               X       X # E qX;.n 4 9.h.N 9 - 1 4 h 1 - - @ @ # + X # # @ # + @ # + + # n 8 @ X + - - 2 1 1 2 1 - 2 4 5 h h 9 m B L D B Z u Z f A t.x.c.x.{ $.' ' ' ' N.N.OX%XOX7.-.^ w q q s ! / 3.N.#.$.1.{ ( l l z ( 2.2.:.:.s.2.:.s.2.:.D R Y y T m X   X           X               X                                                                                 X 1 # @ + + # # X                         X                                                                                                                                                                                                           ",
"                                                                                                                                                                                                                                                                                X                                                     X X X   @ /.Q.I 8 J k.J 4 1 8 1 - - - - X # @ @ # # # @ X @ + X X +   X N m # # X X - > 2 2 2 2 4 2 2 4 4 5 m B k B L S k Z A Z ..%.} *.c.$.$.Q Q Q ' =.=.=.OXOXOXL.` d g s g { ) / ] ! 1.V.( ( u l :.:.v.1.2.2.2.2.2.s.:.L G R m N B ;         X   X                                                                       X         X                                                                 X                   X                                                                                                                                                                                   ",
"                                                                                                                                                  X                                                                                                                                                                           .       X X   X 5 /.J N 9.e.h - 2 8 # 4 8 - # - - X @ + o > # X X @ @ X X O   O N N # # + # # # # - 2 ; ; 6 2 9 4 9 9 M M k B k k Z a l _ &.` z ) Q ! $.' ' ' =.' ' $.=.=.3.( s s d g { { $.{ ! ! ! z l l l 2.1.:.:.:.V.s.s.2.:.L L :.B L C h             X           X         X                 X                                                                                                                                                                                                                                                                                                                     ",
"                                                                                                                                X                                                                                                                                                                                               X   X       X z.Q.h U./.h - - 8 1 8 8 1 - 4 5 - - - # @ > @ # X X   X X       1 N 2 1 X @ - # + X X X o - 2 2 4 9 y 9 j B B S l S k u Z A A ^ z / ! ' ' ' ' 3.3.N.=.OX=.3.3.z s d ! ! d ! d d ! ( ( 1.! ( D 2.2.[ 2.C.2.:.:.:.D >.B j L 9 4                   X                                                                                             X       X                         X                                                                               O                                                                                                                                       ",
"                                                                                                                                O                                                                                                                                                                                         X     X     X @ X 1 U.8.U.oXU 1 - 2 1 8 h 1 1 h j 4 - 4 # # ; ; - - X X X X         O n n 9 X @ # 2 O X o o X # o o - ; ; - : 5 3 j j k a a D .._ [ 1.-.{ { 3.=.$.=.3.OXOXN.=.' =.z u s s s s q s s s ( { 1.1.{ :.R.2.:.[ 2.X.D :.:.D L S j h 5                                                                                   X                                             X                                                   X                                 X                                                                                                                                                     ",
"                                                                                                                                                                      O   X                                                                                                                                         .               X   X @ l.U.w.6X8.1 8 8 6 n n 8 4 h J 5 - 5 ; - ; 3 ; - - X X X @           n h j - O X + # o o - - - o # ; ; # - - ; * 3 5 3 r u i Z l f _ [ { ) #.$.{ { $.N.=.N.3.3.! z 0 u e e z z ! ! ! 1.[ [ v.:.:.s.:.D D L L :.L S ;. .k j j 5       X     X X                 O                                                           O                                                                             X               X                                                                                                                                                                             X   ",
"                                                                                                                                                                  X                                                                                         X                                                                           X h 9X/.6X X8 6 h 4 n m h h h C j - 4 ; - - ; 4 4 o # X X     X   O     n N C # X o X 4 4 o X X o - - - - ; 4 4 3 : 3 : 5 r 3 u r e r t e s q s g ! $.c.=.=.OXOXM.%.{ z l s l ! ( d d ` 1.{ 1.v.2.( D B u L :.K L L S :.L k j j ; X           X X   X                                                                                                                                                                                                                       X                                                                                                                                 ",
"                                                                                                  X                                     X                                                                                                                                                                                   X   X     X X  X6XU.6XI 6 h 2 4 n n h h h h ; 5 : - - - - 4 - - # o @ X           O # m C 2 # o o ; h 4 - o X # 2 3 3 ; ; 4 3 5 j 5 m 5 a m B u l _ A l l 0 e e d $.=.$.' =.3.#.[ z s l d u ! ( ! ! [ [ { s.[ l l l X.:.L D D K L S k k K k                                         O                                       X               X                                             O         O                                           X               X                                                                                                                                                         ",
"                                                                                                                                                                                                                                                                                      X                                   X   X X X X X e.2Xh.oX Xh 4 h h h h h h h 4 4 5 5 * * - - - - - - X # #               1 6 U 9 > 2 + 4 9 9 j - # 2 ; 4 5 ; - - ; 4 y j p y y k p u a D _ f u s e 0 s g { 3.1.1.{ z ! e s _ z D ( ` ( [ D l l l u l l :.:.:.X.;. .S G k j j K B X     X     O                                                                                                                                                                                                                                                                                                                                                                 ",
"                                                                                                                                                X                                                                                                               X                                                               X X X ;.dX9.^.dXJ h h N J h h B h - ; j 5 * * o - 4 - o - X @ # O               O @ C j # 9 9 B 9 # h 4 2 5 ; ; ; ; 5 ; 4 4 ; y y M L G D y a r u A D l l u e e e { 3.{ #.#.z l u l l z ( l d l l l u u L K K :.S D D :.[ k k B B j B 5               X                                                         X                                                                                                                               X                                                                                                                                                                     ",
"                                                                                                                                                                                                                                                                                                                              X X X h 8Xl.N /.U.h h h J J h j B ; - 5 j * * o 4 ; ; o - X # o X                 X X 6 x # 5 N J m + # > 2 7 5 - 5 ; 4 : 4 5 5 4 3 y S >.@.,.Z a k D Z f u l A e 0 ! E.3.` { t 0 e e e u e e e u l l l D :.D K K D B L L l j k ,.k k ;.4                                                                                                       X                                                                                                                                                                                                                                                                       ",
"                                                                                                                                                                                                                                                                                                      X             X   X     X X N eXw.T ;.8XN h h J J B B B 5 ; 5 h ; - - ; - ; ; o o o o X                       + N 4 4 j 5 h # 2 # + 2 2 ; 4 h 4 4 4 y 5 j 9 5 : y p L  .S Y &.@. .[ S <...u u 1.v.1.{ l 0 u e 0 u l e l z D l D L D D D D j D L k j u S :.L k L -     X           X                                                                                                                       X                                                                                                                                                                                                                                     ",
"                                                                                                                                            X       X                                                                                                                           X                     X     X X X         X X X 8 6Xz.h h 8.e.n h I J J K j y 5 y j 5 ; : ; ; 5 ; - X o X X                         X N N h j 4 C 7 # < ; 4 ; ; - 4 5 : : 4 5 5 j j h y : 3 : y u M Y H L O.,.:.l e [ 1.1.A l u l e u l l u l l l D S S :.D :.k l l k l k l X.s.Y L L                   X                                                                                                                   X   O                               X             X       X             X   X                                                                                                                                                             ",
"                                                                                                                                                                                                                                                                                                    X     X       X X     +   E eXh.J h n h.N n N I N J B h 4 j k : * ; : ; 4 4 ; o X X                             X 9 B h q.J m 9 # , 4 5 h - - - ; : 4 ; ; 5 y y h j k j p : : = * : = k l o._ D u l <.l e e p r u u : y y k l k j S K K k u j y y j S ,.:.s.X.>.G X       X                                                                                                                                                                                                                                                                                                                                                                       ",
"                                                                                                        X                                                                                                                                                                                                     X   @ 1 @ # # e.eX/.U N h h n h 8 J N N N j 4 5 B j 4 : 4 ; : ; ; o & X                                 X h j d.K N # # # # 2 h : 4 ; ; 5 5 ; ; 5 4 4 5 j k k l y 3 3 : * . . * % : l u l u._ l : r y y : e k y l D k l S K u y y 5 y y u X.y.,.>.R :.M                                                                                                 X                   X                                                                                                                                                                                                                                                           ",
"                                                        X                         X                               X       X                                                                                                                                                                     X       X @     @ 8 1 @ @ /.dXg.8.N N 1 n 8 1 h h h J N 5 h j u 5 ; : ; 5 ; - - # # X                                 X h U ;.>.p m # ; # ; ; ; 4 4 ; ; 4 : ; : 4 4 5 h 5 5 h j p M k y y 3 * & & * e k [ o.L u : = 3 : : y k j j k k S j 5 y 5 y y k D 2.y.,.s.2.2.5                                                                                                                                                                 X                                                                                                                                                                                                               ",
"                                                                                                                                                                                                                                                                                                    X   1 6 @ @ @ h 1 1 ^.9Xl.;.I m 6 8 8 1 8 8 n n N h h h j 5 5 4 ; 5 ; - - - # X                                   X > U C C - E 5 2 ; 4 ; - 4 h 3 ; ; ; - - ; ; ; 5 h ; 5 y 3 j k k 4 3 j : = & = = F D Y 5 = r M 3 e : y y y : y y y 5 y 5 k k l :.a.L ,.].p.p.&                                                                                                                                             X                                                                                                                                                                                                                 X                 ",
"                                                                                                                                                                                                                                                                                                      @ 1 1 @ 8 4 h N 6X/.U ;.U I 6 8 9 6 1 1 2 8 n 5 h j 3 ; : 5 ; 4 4 ; - - - o                                   X X   C 9.N ; e.T - ; ; 3 ; - : 5 5 3 ; ; ; - ; ; o - - ; ; 4 : ; j k j L k y k : = a 5 F u u p k y : u l p 3 : : y j j k S L S :.Y.,. .a.T.d.:.O                                                                                                                                                                                                                                                                                                                                                                                 ",
"                                                                                                                                                                                                                                                                      O                   X           1 x 1 1 N N T  XQ.8.I I T I x 8 6 8 1 1 2 h ; 4 h 5 4 ; ; * ; : - - - - X                                       X X 7 U m 5 9.f.; o ; 9 : : - : h j - - ; - - - ; ; ; - ; - ; ; 3 3 k k 3 & : : k G u M D : u M e & l X.k : k 3 m k K L L K o.:.2. .L A.p.,.B                                                                                                                         O                                                                                                                                                                                                                                                         ",
"                                                                                                                                                                                                                                                                X             X                       1 h 6 x N I /.oX;.8.U I U C n x > - - 1 8 ; ; ; 4 4 ; ; - ; - - - - - X             X                               O C J N N ;.9 4 - 5 5 5 * & 4 5 ; ; - ; o o - - ; - - ; - - ; o * 5 : : : & S S H : p : k H i l  .Y k k j L L L ,.X.R O.f.2.Y Y p.f.,.0.; X                                                                                                                           X                                                                                                                                                                                                                                                     ",
"                                                                                                                                                                                                                                                                                                  X + 2 9 6 8 N 8.U.e.J I N I I V x 6 > > > > , - - - ; ; - ; ; # o - ; - X     O                                         O 6 V m N e.9 4 3 o ; 3 y ; o 5 j 4 - - 4 - - o o o o o * o o o o o ; l L y k D G & ; 3 k l r l 2.:.y.+.L ,.Y +.+.:.d.d.,.D G >.J.y.,.R O                                                                                                                                                                                                                                                                                                                                                                                   ",
"                                                                                                                                                                                                                                                                                                X   > 9 2 2 N g.8.U ;.;.I J I N m 6 6 > O # # # o - ; # ; o - - - ; - #                                                 O O X x B N h.9 ; h ; o & j j ; ; 5 h 4 - ; ; - - - o - * o o ; * * : k X.B k y y k % : l k k u H s.,.H.+.O.Y :.y.,.y.H.s. .D 2.f.0.R y.G                                                                                                                                                                                                                                                                                                                                                                                     ",
"                                                                                                                                                                                                                                                                                          X   X     , 9 n n V l.;.N 9.T I T I N x x x > O > #   @ - - - # # o o # ; ; X                                                       # C n R N - 3 h h - 4 5 j 5 ; 4 h y 4 : 4 - - - ; * o o ; 3 y j B :.Y k k p S : : K j y 3 l X.O.+.Y F y.a.j.0.r.,._ 2.f.T.0.L L X.5                                                                                                                                                                                                                                                                                                                                                                                     ",
"                                                                                                                                                                                                                                                                                                  O # x I m I E N x I T N T U N c 7 x , O O . O X o # ; ; # o & ; o                                                     X     O C U j T 4 ; 4 B j 5 4 ; h 5 ; ; 5 h 5 4 y 3 3 4 j y 5 j k G l k k L G H S S : ; 3 k y y B S k M M G @.0.y.X.Y o.D.D.u.p.H G +.Y y                             X                                                                                                                                                                                                                                                                                                                                                       ",
"                                                                                                                                                                                                                                                                                              X   2 2 n I I 9.U N I I U I J C C m 7 7 > O   .   @ + + + X + o # o                     O                             X       O + x 9.9 4.h 8 - h B y k 4 ; h 5 - - : 5 4 5 y y j y h j j B S S k l S S R G k & o ; 3 3 5 y : e h j k k G G H f.j.(.y.Y G S +.Y :.2     O             X               X                                                                                                                                                                                                                                                                                                                                                 ",
"                                                                                                                                                                                                                                                                      X                         - 8 6 2 n T e.m x N n N N E E N P 7 6 #   + O . X @ # O X # #                                                             X   X @ I w.E e.- - ; j 4 5 h j 5 5 5 4 - - ; ; 5 5 k j j B j j k B j j k j G k 5 o o o : ; : ; * : - * : : : y G i.,.L D F D 0.O.>.>.o                                                                                                                                                                                                                                                                                                                                                                                     ",
"                                                                  X                                                                                                                                                                                                                   X X     X 6 n 9 1 6 N I x 8 8 n 8 j R 9.L I c 6 # . O       X   # X + X                                                               X   X 2 l.J ;.N 5 4 j j ; ; 4 5 j h 5 ; ; ; - ; 4 5 y B k k j y 3 5 j ; ; ; ; o o X o o o & o & o o . & * 2 3 p F B k  .Y ,.0.Y +.M     X   X                                                                                                               X                                                                                                                                                                                                                                                             ",
"                                                                                                                                                                                                                                                                                                8 m 8 6 9 V n x x 8 N N 9 U E +.I c 7 # O . O   O   # # # + O                                                           X     O X # U T 9 N B 2 4 y 5 ; - 5 5 5 4 y y 4 5 ; : 5 5 5 5 j j : 5 : ; ; o o o o # X o o o - ; * & o O O o + o * 3 u p a Y Y F  .Y &   X                                                                                                                   X                                                                                                                                                                                                         X                                                     ",
"                                                                                                                                                                                                                                                                                                2 8 > x 6 I N 6 6 x T c p N 5.0.G c 2 # + X X X   X o + #                               X                                       X X 4 U j ; h 5 4 y j 5 4 : ; ; ; 4 5 y 5 j 5 h 5 5 y 5 4 : : o o o o o - o X X # - - ; : : ; - o + # X X . & 5 5 p V M Y H 2                                                                                                             X                         X                                                                                                                                                                                                                                                 ",
"                                                                                                                                                                                                                                                                                            X   2 N 8 x I w.I x 6 x I U m G P 5.G 7 2 # # .   X + # o X +                           O                                           X X   N ;.4 4 5 j 4 h j j y 5 4 5 y j 5 4 j h 5 4 ; - ; : ; & - * & ; : ; # o o # ; 3 h j 5 5 5 2 # # +   X o . & = . y 5 3                                                                                 X                                           O                                                                                                                                                                                                                                                             ",
"                                                                                                                                                                                                                                                                                      X         6 I n 1 8.h.N n 9 n U T V C +.O.G c 3 # + X # # # - X X X                                                           O               X - h h y 5 J 5 4 h j j k j 5 h j y y j j ; - X - : 4 ; ; ; * - - 4 4 - o o & ; 3 h y 5 y 5 9 2 ; o O . o . o o & 2 3           . X                                                                                                                                                                                                                                                                                                                                                                               ",
"                                                                                                                                                                                                                                                                                          X     6 I n N w.T 8 m 9 C m E Y P 5.5.G S ; + o X + 1 2 # o   X     X                                 X                       O     +     X X N ;.4 4 5 j 4 4 5 4 j 5 5 h 4 5 4 ; - - - - - - : 4 5 : : 3 4 : ; o o o - : : j j j y k 3 9 5 * O O X . o o 5 j *                                                                                                                                                                                                                                                                                                                                                                                             ",
"                                                                                                                                                                                                                                                                                            X @ 9 T C U T 8 8 8 n N N U G Y O.E B F 3 o + + + # - # # # @                                                                               * 9.8 2 - 5 9 9 5 3 - - - 4 5 ; o o o ; - 4 4 4 3 ; 3 5 y k j 5 3 + ; 2 ; 2 3 y M M y 9 ; 4 ; o X X   o - ; J k O     X                                                                                                               X                                                                                                                                                                                                                                                                       ",
"                                                                                                                                                                                                                                                                                            X 6 m C I T N 6 n 1 h N C C E 0.O.G F m 2 o * , * # # + @ # @                                                                             X V  XJ 2 X - ; ; ; 4 - - - - - - ; o o 4 5 h 5 5 3 3 k y k k k 5 ; ; 2 - * 4 5 5 j j 5 3 : - - o o o X o o h B -   .                                                                                                         X                                                                                                                                                                                                                                                                                 ",
"                                                                                                                                                                                                                                                                                      O X   O 8 I N T C C 8 8 8 8 I N T O.r.+.Y G y = * + 2 * * 2 # @ X                                                                             X @  XqXI 9 2 - 2 ; o o o # - X X o o X X o 4 5 h ; 4 3 k j j j j - # # ; ; * ; 5 y j h h j 4 - ; - o X X ; 4 J j X                                                                                                                                                                                                                                                                                                                                                                                               ",
"                                                                                                                                                                                                                                                                                    O     O X 9 N U g.N N 1 8 8 N C U E Y 5.Y O.M p 3 . # o # 4 1 @ @ X X                                                                             7 dX9X[.9 # # # o o o o X X X X o - o o # # - ; 3 5 3 j 5 y h y - # o o # # ; ; 5 3 3 3 5 4 - ; 4 o X ; - j U 3 X                                                                                                                                                                                                                                                                                                                                                                                               ",
"                                                                                                                                                                                                                                                                                    X     O O 8 I 8.4.x x 6 8 n m V T O.T O.P F p u 2 o * * ; ; - # @ X                                 X                                           X  XeX X1XN 2 # # + X o X   X   X o * # # # - o - ; 4 ; 9 9 ; 5 * - o o o # - - - : : 4 ; ; - ; j h - - - 4 j J o                                                                                                                                                                                                                                                                                                                                                                                                 ",
"                                                                                                                                                                                                                                                                                          O @ 6 I h.N n N 1 1 n c I 5.O.5. .Y v = 3 ; 3 * ; 3 4 + # # X                                                                             n NXqXg.Q.8.2 ; - + # o o   X X o - - ; 4 ; - o o - 4 ; : 3 5 : - - ; ; ; ; ; 4 3 3 j 3 5 5 h j j h - ; ; B K K o   X                                                                                                                                                                         X                                                                                                                                                                 X                                                 ",
"                                                                                                                                                                                                                                                                                    X   O   1 8 4.e.N n x 6 6 8 c U E 5.5.Y F i r 3 = + o 5 y 4 2 # @ X     X                         X                                             1XjXoXw./.z.# o 4 ; * 2 + X   X - # ; ; - - ; ; - ; 4 : : y k y ; - ; 3 4 ; 3 y 5 j y 5 y k G B B 5 o * 3 L ;.;.- X                           O                                                                 X                                                                                                                                                                                                                                                                                                 ",
"                                                                                                                                                                                                                                                                                      O O O # n Q.I n x 6 6 1 8 V T P +.O.F M a 5 * 2 = 3 3 3 # # X X                                           X                                 x NXjX1X9.8.e.4 + ; 2 + # # O o X   # # # # - ; ; ; 4 y 5 j j j j ; - * 3 5 j k j S S S S B K k K k ; o ; h B S 2.B                                                           X                                                                                                                                                                                                                                                                                                                                     ",
"                                                                                                                                                                                                                                                                                    X X X X 1 C z.m 6 9 x 8 2 n M U P P L V F p 3 * 5 3 5 5 4 o @ X X                                                             X               h.jXeX/.m ; 9 9 4 - 2 , # # # - @ O # > # 1 ; ; 2 4 5 3 9 j k S B : - : 5 4 j k B S L  .L L L D G j - : k h L Y d.0..                                                                                                                                                                                                                                                                                                                                                                                               ",
"                                                                                                                                                                                                                                                                                      O O   @ E q.9 m m 1 x 9 m m P P Z F H V i y a 3 3 p p # o X X                                 X       O                                   X wXNX6X9.j X 2 2 2 4 + # # + # + @ @ @ + # + # 2 ; * 3 5 j S k k l ; - ; 5 5 j k k K R L L S D K j 4 y j j K :.L 0.^.;                                                                                                                                                                                                                                                                                                                                                                                               ",
"                                                                                                                                                                                                                                                                                      X O # # h.T 5 N h 8 x 9 B G Y T F H v 6 < m p : : 5 = +   X                                                         X                     N dXeX/.I h 1 + + # 1 + @ # # O # # # O # # - # - ; 4 5 j k G k j j * - : 5 y j B k L :.:.L K :.l j y j : j :.K G >.Y.B                           X X                                                                                                                                                                                                                                                           X                                                                                                     ",
"                                                                                                                                                                                                                                                                                      @ O O x oXN n J N h 6 7 J U O.P L V r * 7 u ; : 5 5 & #                                     X                 X     O     X +             g.jXeX/.[.C 2 - o # 2 2 ; # > # @ 1 2 # # # - # # ; ; 5 y j j S k 3 ; ; ; 4 5 y j K R :.:.;.:.L S k k 5 ; B B K R ,._.i.                                                                                    X                                                                                                                                                                                                                                                                                                         ",
"                X                               X                                                                                                                                                                                                                                   O O O @ I  Xm V N U N x j C P Y +.M i * < c 6 = 5 m 3 - o       X                               O                       X                   g.jX6X1X[.;.- # # * 2 2 6 # + # # # # 2 2 # # > ; & - ; 3 4 j y y ; - - ; - ; 5 5 l K D D L L S k S K j j B R :.,.s.k.k.o                               O                                                                                                                                                                                                                                                                                                                                                             ",
"                                                                                                                                                                                                                                                                                        O @ z.U.x C C 9.Y 9 m L C Y P u 6 i p 6 * 9 y 9 ; # X                             X                                                     l.6X^.U.h.J 2 - # o # 2 2 # @ X # + o ; > + + # o - ; ; 4 : ; 5 y : ; o - - 4 4 5 j S K ;.l D S >.X.Y B k :.Y  .j.s.f.~.R                                                                                                                                                                                                                                                                                                                                                                                             ",
"            X                                                                                                                                                                                           X                                                           X             X     O > oX8.m C T w.T m m P Y  .F 5 5 G 5 = 2 p 3 ; #                                                                                       l.oXQ.l.T m m ; 4 # # 2 6 2 # # # > - # 1 1 + # # # ; ; 4 u j k B j 3 ; ; h j j k K K D K D S :.d.X.C j L  .B L ,.>.2.k.j.+                                                                                 X                                                                                                                                                                                                                                                                                                         ",
"                                                                                                                                                                                                                                                                                        O 8 9XI V E C 9.+.G B P O. .m r v c 3 5 3 5 - # X                                   X                                                 O ;.U.T ;.J J N 4 2 4 2 1 + , 2 > + O # + # 1 ; + - o - - 3 j j S B k y 5 5 k S B K :.L l S S K :.:.L B U D L :.s.,.:.y.0.k.K   X                                           X       X     X                                                                                                                                                                                                                                                                                                                             ",
"              X                                                                                                                                   O                               X                                                                                                     @ C oXm m I U K >.C V V  .P v B M y m N 9 * ; X                                       X                                               X B U U E U N h 2 6 4 2 ; @ X - - 1 2 * + - 6 7 4 - ; ; h h : 5 j 5 3 4 5 9 p B B G L  . .L ,.r.o.:.:.;.J ;.2.Y.R.2.:.>.>.e.;.                                                                                                                                                                                                                                                                                                                                                                                          ",
"                      X                                                                                                                       X                                                               X                                                                       X   T U.n N R K N R L M H @.Z M H 9 G B j 2 ; O                                   X                         X                 O         6 J d.R h h C 4 1 1 4 J m ; # o X 2 2 2 * > 2 9 4 h 4 j k B k B N k 3 * 4 3 y p L O.,.0.+.,.y.X.K :.:.j :._.2.T.T.:.K j.:.s.;.                                                  O                                                   X                                                                                                                             X                                                                                                                                                     ",
"                                                                                                                                                                                                                                    X                                                 X   T U.I J U J N E E S O.@.G m M M B j 3 5 X                                                                                       X   6 J 6Xe.m m m 9 2 2 4 J U N 5 - X > 7 4 2 2 2 4 4 j h j k R ,.Y.2.K j 5 y 3 5 y E d.H.a.f.k.y.o.X.2.B j :.C.R s.X.:.q.j.>.0.;.                                                    O                                                                                                                                                                                                                                                                                                                                     ",
"                                                                                                                                                                                                                                              X                                       @ @ g.Q.U U K B J p.U P 0.Y G a H M j y 3 o                         X                                                               X > 1 [.eX/.C 2 4 6 2 2 2 j C C U 4 -   2 2 o # 2 4 ; 5 k B ;.K q.Y.}.}.d.k j N M R p.f.k.j.,. .X.o.R K S B K S :.G X.Y.,.s.q.q.U                                                                                                                                                                                                                                                                                                                                                                                           ",
"X                                                                                                                                                                                                                                         X     X                                     @ 4 /.h.U ;.T U T w.U  .5. .Z H L y 9 y o       X                               O               O                               X   O # N dXjXU.N 9 # 1 1 4 - N m N ;.j - 2 > 2 # + 2 2 2 j j j B R R k.}.}.!.Y C L C +.j.].-X(.+.L G  .j y y B j y S L C.2XC.:.;.;.5                                                                                                                                                                                                                                     X                                                                                                                                       X             ",
"                                                                                                                                                                                                                                              X                                       X 8  X9.;.f.C J >.0. .0.0.F F O.S p M 4 .   X           X O         X       O               X                   X                     2 g.eXqXl.I I 2 2 @ # - 2 B j N B h 5 * + , ; ; 2 ; : j k K Y >.s.Y.p.d.L G G R 0.D.!.].p.+.Y r.Y k 5 B S j j B :.XX_.j.;.>.G o   X   X   X                               X                               X     X                                                                                                                         X                                   X               X                                                                                                                           ",
"                                                                                                                                                                                                  X                                                                                   X 4 1X9.;.e.G G j.p.H r.o.F S Y k k j o                                           X                                             X   @ m /.eX~.w.z.E 4 - # # X # h j N N 4 2 9 6 # 2 2 2 # ; h B G K >.C.h.p.L C j B X.y.j.j.D.q. .,.>.G y j K K B y k :.T.T.S L K j X X                             O X                         X                                                                                                                                                                                                                                                                                                                               ",
"                                                                                                                                                                                                                                                                                      X U eX;.U E U E k.@.Y 5.F k S Z S M ; X X     X                 X   X                                                         X   X # I XX Xq.;.h.I 2 X @ - X + 2 h C C j 5 C m 2 > 2 4 4 ; j J B J :.:.:.Y G B M M G L y.@.+.0.:.:.:.S y 5 j B j K L S L S ;.l K L -                                                             O                                   X                                                                                                           X                           X                                                                                                                             X X                 ",
"    O                                                                                                                                           X         X                                                                                                                           # l.6XE C T C +.D.O.O.+.F Z H S G y +                                             X                                           X X   2 N  X X;.;.;.N - - - # 2 + + # h j j h j T 9 - - - 4 5 j K K D K ;.D G k k p k k G X.5.5.,.L K B B k J j 5 B :.B j y k k j >.q.5 o   X X                                         +                                                                                                                                   X                                                     X                                                                                                                       X                   X   ",
"                                                                                                                                                                                                                                                                                      - 1XQ.C ;.T P 5.w.H 5. .Z H M S S & .         X .     X           O                                                             X # 6 9.9Xh.U N N h h 4 - - 4 - 2 2 ; ; h j 5 N C - - - - ; 5 B B B ;.L S F M k j k S B L  .@.R G k k G :.j h B J B B S k j j R >.e.K X                       O                                                                                                                                                                                                                                                                                                                                                                 ",
"                X                                                                                                                                                                                                                   X                                               o ; 1XU B 9.Y U 5.0.Y y.Y Z S k S : .   X                                                                                           > , h. XT T h N h ; 4 - # - - h h 4 ; h j j B d.h ; ; 4 ; 5 4 y B D K S p M k p j k L K  .+.O.G L J J B J C.:.B :.S B y : l ;.s.:.R -                                                                                                                                                                                         X                                                                 X                                                                                                                             ",
"                                                                                                                                                                                                                                                                                    X U 2XJ B C P G A.@.@.0.H H k F k .   . .             O     +                                     O                               X + 2 w.Q.9.U U ;.h ; 4 - ; 2 4 j R N ; ; 5 j B h.q.4 ; 4 ; ; 4 4 j S K S S Z B k M D G L Y Y D X.;.k k ,.C.2.;.j ;.S y j K >.l >.>.0.4 X X               X         X                                                                                                                                   X                                                                                                                                                                                                       X               ",
"                                                                                                                                        X                                           X                                 X                                                               U.Q.B j C M T G.+.r.+.Z S a S 3 X   X     X             X               X                 X                                     X @ h l.l.U J  Xe.h h n h ; h 4 j >.K 5 ; ; : j ;.2.N - - - ; ; 4 y k J K K S B k B G K S L D L Y K k K |.C.:.K K L k 3 k T.Y.L R ;.2.h X   O                     X                         X                     X                                                                                                         X                   X               X X                                                                                                                                                             ",
"                                                                                                                          X                           X                   X                                                                                                         X 9X>.J k K V +.0.5.f. .Z k k M o X .             X                                 O                                             X X n ^.h.;.U./.J m n C m K j 5 9 U R K * ; - 5 j N J J - - ; - - 4 h y S G k k M k J S S G K  .L L R e.s.;.D :.J j 3 k :.3XT.S S q.>.U X X         X                                                                                                                                                                 O                                                                           X                                                                                         X                                   ",
"                                                                                                                                                                                                                                                                  X                 4 XXB B B >.P +.y.y.f.H k k p 3 .   .         X                       X     X                                 O               X   X # N z.g. XqXe.j J m h C U j y j L 0.+.j j - 4 j 5 B 2.j - 4 5 ; 4 y h S L G G B k k k S L K G B k y.X.L k S D j j y j :.`.T.L R Y.2.J X O X                                                                                                                                                                                                     X                                                                                                                                                                             ",
"                                                                                                                                                                  X                                                                                   X                             f./.m C q.L P g.a.,.p.L k k y .         X         X O                                                                                 J U.h.qX/.J B U m h U R K 3 B J f.d.C j ; ; : j 5 ;.;.5 5 4 4 y 4 5 B B K D Z C G D B G C J K 0.s.R S ;.D S B L * j s.2.C.:.:.d.2.K -   X                                 X                                                                                                               X                   X                                                                                                                                                                                                     X       ",
"                                                                                                                                                                                                                                                                          +     X   XXh.K R l.P O.j.r.i.j.H y p *                                                                                                     O X V w.Q. X4.N N m 9 9 R 9.J 5 p B y.k.R j j 4 - ; j h B j h - 4 h j j B C K L G M L B j j j M +.X.Y  .u.:.;.j ;.D - u 2.2.T.s.;.2.U B - X X                                                                                                                                                                                                                                                                                                                                                                                   ",
"                                                                                                                                                                                                                                                    X                 .           h eX8.U l.0.Y r.Y.5.g.i.F p y . .               X X                               X               O                                 @ O n I /.^.U I 8 n 8 m U Y K k p j ,.d.:.5 j j ; - - h X ; j - o ; B k j K B G Y Y L S u y y B G L G R ,.:.l D C.D 4 S s.C.k.2.L R k ;.4         X                                                                                                                                                                                                                                                                                                                                                                             ",
"                                                                                                                                                                                                                                                                          X       ^.XXN K k.G U w.G.r.i.+.a S 5     .             X                           X           X           O                               O O n g.Q.qXl.U 9 V m V U G B j k k p.f.0.j j K h - 4 5 - - h 5 - ; j G G K K R >.0.G B k m k G  .@. .X.X.B l ;.2.j y l 2.C.s.:.K U J K h                                                                                                                                                                               X                                                                                                                                                                                                       ",
"                                                                                                      X                                 X                                                                                                                                       1 dXz.I Y.>.S E H.p.5.i.Y m G *           X                   X     X               X                                                 # > N 4.6XeXh.C N N I w.E J K k k m :.e.,.B B :.G : - 5 ; - - 4 - ; 4 B j K U :.R ,.Y L k Z Z G ,.:.,.S S S l k K y k ;.2.2.2.:.R ,.G ;.U .                                                                                                                                             X                                                 X                                                                                                                               X                               X                     ",
"                                                                                                              X                                                                                                                                                           X O X g.dXU z.[.C K +.H.p.5.j.+.m B .                 X                       X                         O                                   X > V E qXqXh.8.N m Y p.R K R Y k S  .,.0.G k ;.L D - 4 L 5 X h h ; 5 M C j K R K X.:.O.G k k S L Y M L S k u S D r j L y.,.C.y. .>.>.d.>.2                                                                                                                                                                         O                             X                                                                                                                                                                             ",
"                                                                                                                                                                                                                                                                            X 2 dXqX^. X>.R E ,.j.a.A.J.L a M             O   X                                                                   X                     6 m ^.NX6X9.;.I +.Y.0.L :.L X.L S G 0.k.Y k L L ;.y - B 2.h 4 j 5 5 y M Y K R y.].p.K Y K R X.G p G Y u y  .2.S : 5 l s.f.a.r.A.k.:.q.>.j                                                                                                                                                                                                                                                                                                                                                                                     ",
"                                                                                                                                                                                                                                                                      O O O O U hX1XeXf.K X.>.q.a.0.J.j.M a k .       X                                                                                   X           X x N 6XjX/.I G G ^.Q.+.R s.>.X.L S D >.T.:.B L L S y - - j h - ; m 5 j C R K G ,.j.q.Y :.:.:.D S S k j y 3 2.f.k : y G s.a.d.X.j.j.+.>.R C o                                                                                                                                                               X                                                                                                                                                                                                                   ",
"                                                                                                      X                               X                                                                                                                                   O > 6XwX XY.K R R G ,.p.0.f.y.a M B .           O                                                               X       O           X       @ 6 4.hXeX4.U I e./.9.U  .q.,.,.Y X. .O.f.X.l B :.:.;.S - ; - X X 2 5 5 J R R R G >.O.,.o.X.L S S k k k : 3 L q.l : : K 2.D.D.@.X.>.+.R >.E 4                                                                                                                                                   X                                                                                                                                                                                                                               ",
"                                                                                                                                                                                                                                                                        O O m eX XU.T V +.R G >.y.j.i.,.y M S .                                                                       O                               2 V U.dXU.U C E  X/.O.Y O.:.O.@.L +.@.0.y.X.k k  .s.+.>.3 o   o # * 5 y M H G L L L :.:.L S k S :.L p k k k l s.L ; 5 Y o.i.a.@. .p.Y B E E C X   X                                                                                                                                                                                                                                                                                                                                                                             ",
"                                                                                                                                                                                                                                                                      O   O U U.4.g.I I C ,.K G Y j.y.Y S Z B .                                                                                         O           + 8 C :XqXE E T w./.e.U Y y.+.@.:.r.,.o.y.a.o.k k R f.:.>.C j . X # o 3 y j k S L S L K K S S k G :.G y u :.H y L K ; y X.L P D.f.Y O.q.L K T E 1 X       O                                                                                                                                                                                                                                                                                                                                                                       ",
"                                                                                                                                                                                                                                                                        X @ E I I I I m j R j.B G y.j. .Y F L *                           X                                                       X X   X   X       + 6 m oXQ.>.h.E l.d.P C  .+.y.O.@.y.<.@.:.0.2.L G X.f.0.:.K j - o - ; 5 9 m k K L H l L L S k k k L k = : L s.k S B * ; L G Y A.j.X.+.D.R L K E m @ O                                                                                                                                                                                                                                                                                                                                                                   X         ",
"                                                                                                                                                                                                                                                                          O T U V U 5.V j B +.y.F P 0.a.a.H B y o                                                                           +             X         > m 9.6Xh.h.9.l.[.0.Y L G O.r.O._ ,.a.r.p.y.f.:.L ,.,.+.D.>.j y 5 - * 9 5 y k G K S K L L k S k j k S G r y :.S y y * : L L L 0.A.r.Y q.Y.>.U >.;.8       O                                                                                                                     X                                                                                                                                                                                                                                                 ",
"                                                                                    X                                                                                                                                                                                 O   # N N c I T U G C S Y j.H H 5.P.r.F y 3                                                                                             O O O 6 x oX9Xw.9.9./.Q.R +.U Y ,.a.+.L o.@.a.j.A.D.y.L @.r.a.H.p.j y j ; - 4 h 5 k G S K S S k k k 9 5 k M +.G 3 H y.k 3 * u G 0.O.5.A.a.@.@.].p.R R 9.U O X                                                                                                                               X                                                                                                                                                                                                                                           ",
"                                                                                                                                                                                                                                                                        O # I I I I V V Y N B 5 Y f.O.G 5.a.r.+.i .                                                               O                     O     # > 6 I I 6X/.8.g./.oXq.G E B :.O.@.O. .L Y <.y.A.G.J.&.@.D.D.H.r.k J :.j - ; 4 h j j k S K k k j 9 : y M u L Y r 3 ,.L 3 ; m G j.i. .r.A.,.+.D.].d.G ;.w.6                                                                                                                                                                                                                                                                                                                                                                             ",
"                                                                                                                                                                                                                                                                          X V U I E I m C Y U m c  .i.O.D o.p.W.+.m .                                                                               X   O   O O > I I 4.oXw.w.U.XX/.>.K C Y  .,.Y  .,. . .<.u.G.A.G.r.@.P.H.T.,.B L 2.J : ; ; 5 B k B B S k k j y 3 5 p 5 m  .H y S Y ; * 5 P i.p. .6.j.@. .y.XX].+.E 9.U #                                                                                                                                                                                                                                                                                                                                                                           ",
"                                                                                                                                                                                                                                                                      O X X C I C 5.U m 9 U Y G F m P  . . . .a.i.p.V                                                           O     X O         O   X     O O O I I  X6Xw.w.6X1Xe.d.C C >.+.R k R 2.,.r.,.r.f.J.'.A.@.p.].J.@.>.:.2.D u - ; 4 h j j B B k j 5 5 j j : 3 y L O.G : k ; * r +.y.@.Y O.i.r.0.,.D.:XH.O.e.e.V   O                                                                                                                                                                                                                                                                                                                                                       X               ",
"                                                                                                                                                                                                                                                                          X I 9.U U V c m m G G H a m c F H P } 5.j.5.6                                                                               O X   O X 9 U U oX^.;.9.U.h.9.+.M K X.:.G G o.,.f.G.u.a.G.(.-XG.X.a.J.A.y.B.f.0.G l 5 ; ; 5 4 5 j j h j 5 5 S j : - y k :.:.j 3 ; * y >.C.:.m Z y.r.p.5.r.].W.0.p.p.0.2                                                                                                       X                                                                                                                                                                                                                                                                 ",
"                                                                                                                                                                                                                                                                O         X V g.U V U V p m p H B Z G u p F O.F ..6.o.L 3 .                                                                                 . 3 V I h.oXl.9.T T Y k.U j C f.p.M F @.,.f.G.r.a.]._.{.A.@.@.S.F.R.-Xu.:.S L h - ; ; 3 ; h 3 h 5 4 5 S S 4 ; : : S :.S h - - j >.T.p.k y S  .j.A.O.p.y.r.w.0.h.C O                                                                                                                                                                                                                                                                                                                                                                       ",
"                                                                                                                                                                                                                                                                            n w.I I +.c 9 F F Y H Z H v u k ..F } @.O.P F .                                                             O             .   X X m 7 N ^.XXE E N U >.p.C y S f.f.L G r.a.R.T.y.a.'.|.].j.O.0.J.A.{.;Xa.,.L S 9 - # o ; ; 4 5 5 4 ; ; j K j ; 3 5 k L ;.k ; * S :.D.j.F 5 a L J.!.i.y.y.a.D.@.q.Y o X                                                                                                                                                                                                                                                                                                                                                                     ",
"                                                                                                                                                                                                                                                                            8 E c m 0.G V M P @.i.L D p u k Z Z Z O.A.@. .a                                                         O     O                 # 7 2 N Y.z.w.;.J e.}.H.G p j ,.d.L H +.A.].T.i.j.].(.(.A.O.i.a.A.-X_.u.,.D k 3 o X X o - ; ; # # + o - G B ; ; 3 l L >.L ; * k >.T. X+.r M v j.!.a.T i.i.j.+.Y 0.m                                                                                                                                                                                                                                                                                                                                                                       ",
"                                                                                                                                                                                                                                        X                                   2 I m m w.9.M F 5.O.5...L a u m H a a } i.A.@.P * O   +                                                                         X # N U h.Q.z.R R ~.6Xh.B j m +.p. .H @.D.|._.a.A._.J.].G.+.0.A.{.-X{.r.L Z M ; . X X o # > > # O X o - S L j * ; y M O.R 3 ; Z +.T.-Xj.a y u Y D.D.0.a.a.0.0.:.e.;.2 #   X X                                                                                                                                                                                                                                                                                                                                                             ",
"                                                                                                                                                                                                                                                                            V U x m T T p v @. .} L L a u a M a a Z } j.f.D.Y X                                                         O                   2 2 N ;. Xz.e.E z.oXY.U E B C +.+.Y  .a.!.-XJ.,.j.{._._.J.O.5.{.'.-XA. .O.L M & . .   X   O O X O   o - h ;.G ; 4 y j K R 5 y Y +.j.].G.Z m a V r.].y.+.0.L Y p.9.h.m > -                                                                                 X                                                                                                                                                                                                                                                                               ",
"                                                                                                                                                                                                                                                                          O T 4.V U 5.H y M Y +.H } F a m i i = a Z H 0.r.D.D.N                                                         O   O             + 9 3 h q.}.e.U ;.Y.^.0.B O.m B Y >.L O.H.!. XT.@.d..X_.H.j. .i.{.>X.XX. .,.X.S :         X X O O O     X - j G j 3 u m G G 5 5 +.@.j.!.D.S M a H i.>XD.Y +. .H +.O.0.C 2 2 X X                                                                                                                                                                                                                                                                                                                                                             ",
"                                                                                                                                                                                                                                                                          # z.V I E E S y k Z Y A F F a b 5 r 3 3 v V S P 5.j.k.Y +                                                                       7 2 * J  XXXq.>.J q.d.R G C j m F Y R y.!._.-XH.@.r.!.!.H.D.O.5.(.&Xj.o.@.,.G S 5 O     X X   O   X   X   - : j S j y y S S 5 a  .>.i.a.a.5. .v B 0.7X]. .q.i.+.0.Y U ;.m > O   X                                                                                                                                                                                                                                                                                                                                                           ",
"                                                                                                                                                                                                                                                                        O m h.x 9 B Y m M S F H Z Z Z i r < * * * = : S p a 5.p.Q.U                                                                       2 2 y q.1X XU ;.j 9.~.>.k B k B K G O.i.W.-X:Xj.@.y.H.!.A.j.,.r.{.(.0. .r.@.Y L 9 X X   X X O       X   X o ; 5 S L a 5 k B h k X.@.p.G.a.@.5.G v  ..X!.G +.D.+.0.H G +.C 2 X @ @                                                                                                                                                                                                                                                                                                                                                           ",
"                                                                                                                                                                                                                                                                          I U 9 k Y S y u S Z H } Z f i < = = . & . * 3 9 y G C 4.z.m X                                                                 + x < N ;.1Xd.w.J R z.z.U k K K ,.Y L o.O.{.0XqXa.+.y.y.a.J._.0.r.{.A.6.G.A.,. .L k ; # 2 + O       O       o : 5 k +.B j j k 5 j X.O.a.J.a.+.r.y.F S z.{.Y L f.T.,.O.I 5.E 9 O X X                                                                                                                                                                                                                                                                                                                                                           ",
"                                                                                                                                                                                                                                                                          m 9 2 p P Z p y c M  .O.D f r r = < o $ * * ; 5 3 j 7 7 9.h.#                                                     X           2 n 3 9 ;.h.h.9.N >.^.>.j j j >.q.:.G  .+.{.0X:X0. .0.0.r.H._.r.0.A.@.j.-XB.@. .F j 3 ; m 2 #   X O       X   # 3 : G L k k k j k L Y a.G.j.Y y.y.H S H T.0.D D.XXi.p.R E T m +                                                                                                                                                                                                                                                                                                                                                               ",
"                                                                                                                                                                                                                                                                    O     7 C 9 m Y Y v p u M H H F H a a m a 5 5 5 * . O : 5 y 9 N ;.m           X                                                   O 6 2 * m C 9.e.m h ;.k.J j k B X.,.,.+.@.j.|.:X(.@.X.y.@.0.j.W.r.t.r.a.R.(.y.@.O.S M o O # ; #     O       X o # ; 5 j Y >.k k h j R  .0.a.i.P O.y.0.Y H f.!.H q.{.D.0.>.R w.T - X                                                                                                                                                                                                                                                                                                                                                             ",
"                                                                                                                                                                                                                                                                    X     n E m B G Y v a F _ P H H } a u u 7 4 ; ; & . o # ; # 7 9 N 9.2 O                                   X         O             # 6 1 - J T l.w.N h h e.J j C L Y a.5.5.i.A.|.:XH.O.@.y.@.a.G.{.j.r.a._.{.(.<.r.@.M y X     # 7 +   X X   X @ # ; * 3 5 L +.G j 3 j O.O.5.a.j.H G O.i. .S Y j.Y F G.H.0.>.E 0.>.h X                                                                                                                                                                                                                                                                                                                                                             ",
"                                                                                                                                                                                                                                                  O                       m U j G a.L H  .H  .H H b M M 7 *   X           o o # # p 9 E C                                                         O + 8 h 4 m U l. XE N h J >.N j U G Y 0.0.O.A.W.-X>Xa.y.0.0.y.G.j._.D.5.J.&XS.C.u.,.o.M 9 .       1 #     X   X @ - 2 ; : 3 k  .R k 3 j  .X.O.0.i.F F @.@.j.H B +.0.B +.J.!.,.q.R q.C - X X                                                           X                                                                                                                                                                                                                                                                                             ",
"                  X                                                                                                                                                                                                                                     X           X   O 8 I 7 0.j.P } @.H H } ..H Z r =               X   @ 2 ; ; # 2 C ,   X                                     O               1 7 1 j U K Y.^.K h j J J h 9 C G Y +.Y Y j.H..X[.6.@.+.0.0.D.j.W.i.r.-X{.J.A.o.X.X.S j         @ # X   O     @ # 2 ; 5 : y L U y 4 k Y Y O. .5.F a 5.@.A.r.H T j.H  .J..Xj.j.9.9.K # o                                                       X                                                                                                                                                                                           X                                                                                                       ",
"                                                                                                                                                                                                                                      X               X       O X     O   T T y O.5.P F _ H P ..} H a a O                     # 5 + # 7 m g.2                                               X     X X # # N C 9./.h.R j B U J j p j B +.T P +.i.(.:XW.5.+.i.j.0.y.j.'.j.6.G.'.A.o.@.<.L S M           2 #   X O O # + ; 9 y y j k Y j 3 y S G Y O.r.B r  .a.a.j.O.H 0.5.H j. X!.f.9.q.;.h X X                                                                                                                                                                                                                                                                                                                                                         ",
"                                                                                                                                                                                                                                                                  O X X X 9.I G p.a. .6.P v f O...f V a .           .         X 2 # X * 7 g.w.  X                     X           X     O           X 1 6 C U ^.6Xh.;.;.K U J h h j j K K G K 2.>X7Xa.P P p.a.+.O.y.'.i.Y i.a.@. ...<.Y Y M           2 6 X o   o + + ; h m y j j B k 3 y B K L Y ,.M 3 H T.G.T.W.@.+. .O.,.!.D.k.:.q.>.C 2 @                                                                                                                                                                                                                                                                                                                                                         ",
"                                                                                                                                                                                                                                        X                           X   n U.C 0.j.@.@.O. ._ %.O.P H Z <                         X 4 # + + 7 E p     X                     X                   O     @ 1 4 C ;. X XT ;.;.K U m h j j j j j B R >.[.:X6.P  .j.j.O.Y 0.!.i.O.i.6.6.@.a.r. .Y p     X     O 6 @ - X X # o # 4 j B M k k j ; 3 j j O.+.@.G = F A.].T.-Xa.O.L  .j.H.f.>.>.R >.T 6 1 X X                                                                                                                                                                                                                                                                                                                                                     ",
"                                                                                                                                                                                                          X                                                             w.h.U f.W.5.F 5.n.W.>XW...Z k $                           4 4   O   2 C X                                                   X 2 6 T w.Q.k.;.U C m N B j J j h h p U Y +.|.{.@.O.5.G.a.P Y 5.(.i...5.o.a.u.F.<.Y L *   X   X X   # 2 - + X # # # - k B S k k j ; 4 9 j Y 0.,.S = a 0.J.D.!.a.+.L Y p.T.d.K :.>.q.R h 2 -                                                                                                                                                                                                                                                                                                                                                       ",
"                                                                                                                                                                                                                                                            X   O O X 6 U.m B 0.j.Y  .6.P G.>X3X@.B u               O             X # o * + # 9 >                   X                       X   X O @ n I U 9.oXXX;.J N h h j h h j j j N Y +.y.H.G.@.5.5.J.j. .@.5.(.j.L 6.n.(.n.u.+.H B X             @ h 5 # o # 2 # & 5 S k S k y 3 5 j j K O.T k r p Y y.y.y.p.D.O.Y +.k.0.f.X.;.>.>.B ; X                                                                                                                                                                                                                                                                                                                                                       ",
"                                                                                                                                                                                                                                                                    X 8.z.6 m ,.j.O.H L } O.G.G.} k o                                 # O +   + +                                       X     X X X X C T J h.eX^.J N N m j j h 9 h M M M P 0.p.J.j.+.r.O.D.a. .@.@.G.i.H r.P.(.j.o. .G y     X       O X 2 6 # o - 4 ; - 3 k k k k j : 4 j j j G 5.S = p O.0.@.f.a.J.@.L Y 0.:.k.0.>.>.>.;.; X +   X                                                                                                                                                                                                                           X                                                                                                                     ",
"                                                                                                                                                                                                                                                                O O X e.9.h B X. . ...o.G.6.6...H a .                                     X o O 7 X                       X                   X X X h N C ;.6X1X;.U R j h j j 4 5 5 j j P 0.p.p.H.r.O.,.y..Xi.O.5.&.J.r. .A.G.S.<.O.L L =             O   > 9 6 4 o 4 ; - * h k k k j - ; 4 j j m +.V < y Y 0.Y 5.j.J.j.+.o.H.,.y.0.K s.d.>.J X O X                                         X                                                                                                                                                                                                                                                                                                         ",
"                                                                                                                                                                                                                    X                       X               X X O X # e.K 4 B K  .Y 5.A.A. .5.P H 3                                         X + 4 O                                             X 4 N h J 9.9Xh.R U J J N m N h h j N N Y h.p.@.a.@.P 0.Y.2Xj. .O.O.J.i._ S.F.t.r.G H B X   X     O   X   > 2 N 4 - ; ; ; ; : j k j 5 ; - h j j p M c < 5 F +.@.0.H.T.j.D.,.k.2.,.R K >.h.d.R 4 # + X                                                         X                                                                                                                                                                                                                                                                                       ",
"                                                                                                                                                                                                                                                        X     X @ @ X m B N k o.y. .6.).i.i... .f . .                                         X 4 o                     X                   X   X 8 h 4 J d.z.w.q.U >.C h N h m j j B U 0.j.p.a.a.+.Y 6.H.:XD.@.@.O._.a. .r.t.<.L M S y                   # 2 N 5 o o ; - o ; ; h h 5 ; 4 5 J B 9 p 3 = 3 p  .@.0.j.!.(.-Xp.0.q.,.>.S U ;.d.J 9 2                     X                                                                                                                                                                                                                                                                                                                               ",
"                                                                                                                                                                                                                              X                                 @ X   2 m m G  X0.L i.i.n.6.F G 3 .                                             o +                             X             X X n ; h N ;.e.;.;.h.h.I m 9 h m N j N ;.0.j.D.j.i.H 0.r.J.0XH.@.X.r.-XA.O.<.S.+.S k F o                     8 N h # - - ; # o ; 4 y 5 ; : h B K k p 5 : 4 k S ,.+.y.H._.-XG.p.0.q.9.R J K ;.j - > X                                                                                                                                                                                                 X                                                                                                                                                 ",
"                                                                                                                                                                                                                                X                           X   X   X ; B y !.~.O.i.W.G.F.o.H v & .                                             # +                                             X 1 - h h e.h.;.l.8.;.N h 9 7 6 j h j :.z.y.f.H.0.P r.a.(.wXD.5.X.r.&XJ.<.r.<.L M B M X                   X > N 4 4 o - ; - # * - 4 4 - ; j B S y 5 j ; * j k R +.0.D.H..X].p.0.Y.:.0.K B K N # 2                 X               O                                                                                                                                                                                                                                                                                                                   ",
"                                X                                                                                                                                                                                                                                   X ; j d.0XO.O.-X{.G.t.@.B *                                                 # #                                             X - 4 h N e.h.^.^.;.I N N 6 9 h j j B >.D.y.a.A.@. .y.0.(.>Xf.y.6.y.{.S.:.u.@.M k B 3                     X @ 9 ; 4 - o ; * # # - o - - 4 j S K B y j j 3 3 k Y  .i.H.D.(.H.0.0.D.p.>.B B K B 4 2 @                                                                                                                                                                                                                                                                                                                                                   ",
"                                                                                                                                                X                                                                                                               X       N pXY.5.{.{.(.6.@.+.r                                                   + >               X                               - - h J 8.h. Xw.I U I m n h m j j J >.a.0.p.5.S X.,.O.G._.@.a.0.a._.r.o.,.S k a B o                         - 4 4 4 X o - ; o o o - - ; j J K C j j B j 5 k Y  .0.D.A.f.j.0.,.D.d.y.G j C R 4 + # X                                                                                                                                                                                                                                                                                                                                                 ",
"                X                                                                                                                                                                                                   X                                               X   Q..XY H.'.(.y...O.Z .                                               X O X #                     X     X             X X X # @ h J e.oX/.;.n J h h h h h j N K :.y.p.j.O.L  .i.5.'.W.r.r.@.a.T.a.O.R k y j 5                           X - j 4 o - ; - - o o - - 4 5 j ;.B h 5 k j 5 5 G O.@.p.i.0.D.p.5.d.,.y.R G K >.j 2 2 # X                                 X                                                                                                                                   X   X             X                                                       X                                                                                               ",
"                        X                                                                                                                                 X                         X                                                                                 +.qXO.D.(.A.r...@.G & .                           X                       O + X           X         X       X       X       @ - h m h.1Xd.J I ;.N h h 5 h 5 J Y ,.D.p.f.O.F @.j.n.0X&Xi.r.@.a.&X<.R D k k k                           X   - 4 h - o ; ; & - - o - ; y h J G j 5 B G B y y B @.y.0.0.i.0.+.,.d.0.>.K K ;.U 2 # 2 #                                                                                                                                                                                                                   X                                                                                                                           ",
"                                                                                                                                                                              X                                                                                     # 6Xf.y.{.(.i.O. .H : .                                       X         X               X                                   X @ - 8 n d.l.J N U T N h h 4 h h j K d.!.p.r.P G @.a.J.>XW.n.a.@.B.R.2.L S k j 5 X                             X - h - - - ; ; - - - - - 4 5 B B j h N C G j u M O.r.@.a.0.+. .2.H.:.>.J B ;.q.n 2 m 1                                                                                                                                                                                                                                                                                                                                               ",
"                                                                                                                                        X         O                                                                                                               O Q.j.T D.!.y.} 0. .Z . .                                                       X                 X     X   X   X           X   @ 8 # N g.g.I N N J h h 5 4 4 9 C R a.H.i.f. . .@.a.>X0XA.A.G.&.f.D.<. .L k k +                             X X - h 5 - - ; ; - X - - - 4 h h B 5 5 B B Y R m a H @.+.0.+.@.Y 2.k.q.:.L J K 2.N 4 n 6 @                                                                                                     X                                         X                                                                                                                                                                                             ",
"                                                                                                                                              X                                                                                       X                           C Y.V F 0.r. .H Y H p   .   .                                                     X       X                           O       @ # 2 4 N l.e.C j J C N B m p 4 y C +.y.A.A.a.O. .r.D.3X>XC.s.T.,.r.f.@.o.L k j X         X                   X # @ - 4 - - 4 ; - # # # - 9 h 5 N h 4 j k ;.:.G l Y Y O.r.@.+.+.0.y.p.0.,.K K ;.N 1 2 - 2 X                                                                                                                                                                                                                                                                                                                                           ",
"                                                                                                                                X                                                                                                                               7 4.N y S Y  .H F a S Y *                                         X             O                         X                     X - @ 5 N h.T N J U B N C m 9 7 m R 0.0.5.H.r.Y r.D.P.>X&Xf.R.R.r.@.B.,.o.K Z ;               X X               X @ - 9 4 - ; ; 4 # - - 2 h j 4 9 9 h j J K R L S L O.P ,.+.O.0.q.,.f.q.q.K J K B 2 1 # 2 +                                                                                                                                       X                                               X                                                                                                                             X                     ",
"                                                                                                                                                  X                                                                                                 X       X   C N 9 9 i Y 5.H H 5 K q.;     .       X                                           O       X                           O           O @ 4 h 9.T N B U N C V n 2 9 c +.y.+.r.A.@.H r.n.`.7X-XB.|._.y.,.C.+.O.D k X                                     @ h - - ; 4 2 - # # 1 h h 4 5 4 4 j S L Y Y L D R Y Y L L X.,.:.,.:.0.R J R U ; 2 X O                                                                                                                                                       X                                                                                                                                                                                     ",
"                                                                                                                                                                  X                                                                                             - 4 j 9 9 H +.+.S p k R j         X                             O                               O                         O         X 1 n ;.T n h j m m m 6 2 3 m Y 0.+.0.0.O.+.i.r.&X7X`.G.R.`.J.r.u.@.K G 3 X     X                                 4 h o - ; 4 - # + # 9 j 4 ; 5 4 j k R L R D k S L G C L L :.>.>.;.q.0.K ;.9.4 X O                                                                                                                                                                       X                                                                                                                                                                       ",
"                                                                                                                                                                                                                                                                  2 6 2 m Y  .Y a p y U 0.#     X                                                                         X                           - N h.T N h n J N m 8 7 x m U w.r.y.Y H @.r.A.-X>XT.Y.R.|.J.y.u.X.G M o     O                                   ; h - - - 4 # # # - ; j h ; h 4 5 B D D :.Y k M D G S H G R :.R >.q.q.L K ;.j X X                                                                                                                         X                                                                                                                                                                                                                     ",
"                                                                                                      X                                                                                                                                                         . m p 3 u Y Y +.3 * * y >.j             X                   X         X                                                     O         X N l.I x h h I h x 8 7 c M E +.j.0.H +.a.y.A.>X{.j.`.R.|.T.2.,.X.L 5 . X O                                     X h 3 - - # o # 2 - h j ; 4 ; 4 y j K ;.L Y G y j M F G G L R :.,.;.2.L ;.9.J                                                                                                                                                                                                                                                                                                                                                   ",
"                                                                                                                                                                                                                                            X                     Y p 3 r M @.r.p : 3 y j U X                     O                     X                                                               x h.E m n h n n 9 8 2 4 m T T 9.H M y.A.<.C.{.'.T._.R.|.D.,.,.X.K & . X X   X                                 X 4 h o o # - X - - 5 h 3 4 5 ; y 5 K :.L L L u ; j C M k k K :.,.>.:.K >.q.L #                     X                                                                                                                                                                                                                                                                                                                           ",
"                                                                                                                                                                                                                                                        X       . E R p y H y.@.S ; o ; 3 R >.-               X             X                                                                           6 h.8.N N h N N I m 3 ; h R E G p F 5.a.a.G.-X(.&Xf._.R.D.u.:. .y . .     X   O     X                           X h - X # - o X # 5 h 4 ; 5 ; 4 j B K K +.,.K ; : y y j j j U ;.;.R J ;.9.>.;                                                                                                                                                                                                                                                                                                                                                 ",
"                                                                                                                                                                                                                                                                * 5.E j v @.@.0.+.:   X o j ;.;.B #                   X               X                                                                 9 g.T n n x x N C N 4 4 j 9.E m p P @.G.A._.G.|.;XT.`._.f.y. .G & o X   X       X                               X 7 2 X X # X o o 3 j ; - ; - - h k S K O.0.0.M : 5 ; 3 j j L :.:.U k K ;.R ; X       X                                                                                                                                                                                                                                                                                                                                       ",
"                                                                                                                    X                       X   X                                                                                                               + 5.B B +.y.r.@.+.3 . o ; ; 5 N U C C N x @               +   X                                                                         > 9.4.n n x C N C N 5 5 N R C p B @.5.D.A.(.-X3X&XC.|.R.u.y. .9 . . X X   X .         O           X         X     # 2 # o + # X o 4 h ; - 4 5 ; 4 k K K :.>.>.R j ; ; : 5 j S :.>.S K B R >.h                                                                                                                                           X                                                                                                                                                                                                     ",
"                                                                                                                                                                                                                                                                @ C p y O.r.a.O.Y r   * O 3 9 5 9 ; m B Y C h # O X                               X       X X                                           O 4.g.4.V n T I N N 7 9 j B y 9 V 0.5.a.j.'.3X2XT.p._.F.f.p.L - . X X X . X X       X                               # 4 1 o # o o ; h - - 4 ; 4 ; j S ;.>.s.:.U j 3 j 5 : y k L G j B B >.e.j                                                                                                                                                                                                                                                                                                                                                 ",
"                                                                                                                                                                                                                                                                X 3 o y p @.@...H S *     X X 4 o 4 4 1 4 7 m 2 6 9 8 , # X X     X                                                                     O T h.T x x I C m h j 4 4 h m 3 v O.@.r.r.|.0X-XC.B.F.C.p.s.G o . .   X X   X   X       X   X                         2 # X # o o # 9 # - 4 h 4 y j k R >.d.0.R K 9 j j j K K K L L B 9.y.0.B X                                                                                                             X                                                                                                                                                                                                                                 ",
"                                                                                      X                                                                                                                                                                 X         5 * 6 r F H P G O.V +           o # 5 9 4 2 # # 7 m 9 7 # O   X                                                                         N E N 6 m V N N N j 4 5 j m m m Y y.5.t.(.-XB.B.J.P.a.y.,.j X o X   X       . X                     X X             # 1 + o   - - h ; - ; 4 4 j j j L Y >.>.R R j 5 p S ;.J G R L K s.h.e.C #                                                                                                     X                                                                   X                                                                                                                                                                     ",
"                                                                                                                                                                                                                                                                  4 , + 2 k Y Z Z Y O.#               O # # ; 3 # O                                                                   X                 O x N 1 x 2 n m J j j 5 j j O.L M D @.5.C.C.D.G.-Xa.F.a.y.,.5 X o     X       X     X             X                     X # @ # - - N ; - ; j 5 j B y k Y L >.R R M 3 9 k S K 2.2.:.>.d.,.0.U #                                                                                                         X                                                                       X                                                                                                                                                             ",
"                                                                                                                                                                                                                                                                X o o + * u H Z b v Y G O           X     X + + X X     O                                                                                 N N 6 2 x 9 C B h 5 3 3 j L H Z v D  .p.y.].;X{.A.A.f.,.:.2     X       X       X         X                             # o X - X h - - - 5 5 ; j J k K :.9.E G B p y B K J q.q.>.>.s.>.+.G #                                                                                             X                               X                                                                                                                                             X                                                                   ",
"                                                                                                                                                                                                                                                                  X # + 6 = p m v F Y e.p     . X     X     X         O                                                                                 O V V 6 6 m m C m j j h B G G +.G G  .Y @.J.>X'.!.i.H.0.@.X.+                                   X                         X 4 X # o h h - - 5 5 3 j X.j j Y :.+.X.G L p j k k L R R K X.>.>.O.o .                                                                                                                                                                                                                                                                                                                                             ",
"                                                                                                X                                                                                                                                                                   @ > 4 : ; : a G F +.T & O   O X   X X X   X               O               X                                                           6 m 6 2 x N n 6 9 c N +.Y y G H L @.H +.J.{.G.D.y.f.>.Y G         X               X         X   .           X             - # # X 9 B - - 7 h y 3 K U p Y Y Y +.X.+.B j j J K >.:.X.R >.,.>.# X                                                                                                                       X                                                                                                                                                                                                     X               ",
"                                                                                                                                                                                                                                                                    1 # # & o & * v V M P T # O O X   X O   X                     X                                                       X         X O O > m 6 2 6 m N 9 m y C E Y y 5 u F  .L  .@.G.T.D.y.,.:.Y M             O X             X               X   X               # # 1 + 6 B 2 2 9 4 5 3 9 >.V U Y 9.,.Y R L j j G k ;.>.L G q.>.R ;                                                                                                                                   X                                                                                                                                                                                                           ",
"                                                                                                                                                                                                                                                                  X - 2 o 3 * & & = p S H 5.T # X O @ X X X O     X                                                                                   O O x I x m 2 h.g.c m y m 0.D.S y 3 a v i a S A.A.y.0.,.X.R 9                                       .   O   X       X   X X     2 4 # 4 N 4 ; 5 ; y 5 ; M +.m +.0.0.+.Y K S k S K Y >.Y K >.,.>.;                                                                                                                                                                                                                                                                                                                                               ",
"                                                                                                                                                                                                                                                                    X ; # 4 B o O . = v c G E 4.2 O X X O X O                                                                                   X X   X O x 4.5.8 x  Xg.C j p U O.z.p.S p p u p S +.f.y.:.0.X.L K &             O             X X X             X                     2 h # 2 C 4 ; : : 6 9 y 2 9.+.Y +.+.R R >.L j k R R ,.G S R >.K -                                                                                                                                                                                                                                                                                                                                               ",
"                                                                                                X                                                                                                                                                                     1 ; ; C m & * o 6 2 = N Y 9.# # O O X   X                                                                                   O   X O > 9.U.T E 9Xz.U U B Y a.,.j.@. . .X.X.r.j.a.r.,.:.Y Y B X                               X     X                             # 9 # 2 T y 4 5 2 2 y p 9 F j.P Y L F Y O.L k j S L R L K ,.U U ; X                                                       X                                                                                                                                                                                                                                                                                     ",
"                                                                                                                                                                                                                                                                      # # # y T * # # * 5 5 9 = C 9.#       X     X                                                                         X   O   X   X + U.qXU.qX6X9.Y 9.G Y @.O.H G L 0.u.+.0.a.,.@.@.Y H G 9                                   X             O                   X 5 2 4 K m ; 2 2 3 y m p 3 P 5.a G L >.L K G j B j K K C K >.K 3 X                                                                                                                                                                                                                                                                                                                                             ",
"                                                                                                                                                                                                                                                                  X   X o o ; m ; X O X * 9 N 2 > V V O X X   O   O X                                                                             O     X 2 /.oXQ.dXz.C Y O.Y G Y Y B u M S H L S Y <.:.+.Y G B #             X                     X             O       O             - 6 5 J c * 2 2 4 3 5 p u i 0.@.M  .O.H Z Z M M M Y S j B R C ;                                                                                                                                                                                                                                                                                                                                               ",
"                                                                                                                                                                                                                                                                        X # ; 5 j .       + 3 C V 6 I V + X                                                                               X           X   c  Xg.U.6Xw.C C +.@.O.0.H.y.S k M k a F L X.Y Y G S B O                                             . X                       X 7 2 m 7 2 # 7 ; y 5 a M p v O.S G G F H Y Z k M K G p B G B -                                                                                                                                                                                                                                                                                                                                               ",
"                                                                                                                                                                                                                                                                        X # ; 7 B -   X   X X 2 9 7 8 9 n 2 # @                                                                                         O x ^.h./.6XT U E 0.p.+.p.!.!.p.L m a y a S L S S j G B                                         X               O               O 3 6 m 9 2 2 2 : 3 5 a M M p i Z  .F F H @.F p y B M p j C C -                                                                                                                                                                                                                                                                                                                                               ",
"                                                                                                                                                                                                                                                  X                 X     O X 2 N n X     X     X O # X 1 n C 4 2 5 +     X                                                                           X O I g.w.eX6XV 4.E +.0.p.T.j.J.j.Y H k k u k S S k u R G .                         X                           O               O   > h 7 m 2 2 ; ; 3 3 p p Z M < < v M  .H ..H k k B L p K X.C ;                                                                                                                                                                                                                                                                                                                                               ",
"                                                                                                                                                                                                                                                                            X X 7 m +     X   X       O X > 6 @ X # O                                                                                 O   V 8.E qXU.I I U R O.d.a.{.:X{.+.@.@.G S S S y y B >.B                                                                           + 9 5 m 3 4 ; : 5 y p p v Z p < 7 r Z A G D m k B G B :.q.G o                                                                                                                                                                                                                                                                                                                                               ",
"                                                                                                                                                                                                                                                X             X               @ + 9 h X                   X #                                                                                             m 9.w.9X4.x c B Y Y :.0.!.:X7X-Xr.0.O.H Y k y k L R M   X                                                 O         O     X X X   2 3 N 7 9 ; 3 5 y k a F P F F y a a k O.+.L k j M B >.q.G O X                                                                                                                                                                                                                                                                                                                                             ",
"                                                                                                                                                                                                                                                                      X         # > m 2                   O + O                                                                                     X   X C 9.Q.2XU h j N U E ,.@.i.].:X_.p.@.H S G y r +. .R j                                                                 .       X   1 9 j 7 5 4 5 5 y k p F H Y H a i u F L 5.r. .M K k L >.U #                                                                                                                                                                                                                                                                                                                                               ",
"                                                                                                                                                                                                                                                            X           .     O O O > 9 2                                                                                                                 I C h.h.J m j j B G O.O. .i.!.A.@.o. .o.Z : S 0.X.o.j                                                                       O     # 9 C m 9 5 3 p y j M v Z G P F F P L S D 5.:.M G C U 0.U o                                                                                                                                                                                                                                                                                                                                               ",
"                                                                                                                                                                                                                                                            X   O   O   O       X     6 m #                                                                                                             X m N T C n j h 9 p m S L Y @.j.r.L D o.o.S k  .:.L O.:                                                                       X X   @ 2 C N 4 ; 2 5 p M Z Z D H _ Z F  .O.G S G R Y G K E q.U o                                                                                                                                                                                                                                                                                                                                               ",
"                                                                                                                                                                                                                                                                  X                   O # c ,   X                                                                     X                                 @ N m I n j j 3 9 y k B F Y i.j.y._ L o. .S [ @. .L R *                                                         O     O .   O     X   2 Y C 9 2 2 7 y M F M D L  .Z Z k H F B S Y p.X.B K 0.G o                                                                                                                                                                                                                                                                                                                                 X             ",
"                                                                                                                                                                                                                                                                      X                   + 2 X                                                                 .                                   X   > V 9 N h h j h ; j G k S G o.,... ._  .l Z  .@. .Y Y o                                                                 O   X   O X U 7XeX9.6 4 4 5 5 p S Z Z F D F F k M a S 5 k y.d.G G R m                                                                                                                                                                                                                                                                                                                                                 ",
"                                                                                                                                                                                                                                                    X                 X                     X                                                                           O       O     O                 O n 8 9 m 4 j j N B C k p Z m L H @.r. .l L <.+.,.L B X                                                                   O O   + Y.hXjXdXl.4 2 2 3 3 y u m Z a Z a a y u a B y y R d.K B U j                                                                                                                                                                                                                                                                                                                                                 ",
"                                                                                                                                                                                                                                                                                        X                                                                                                             X X 1 8 N j 9 7 9 B N j B M y a F H X.,.H Z L 0.@. . .G o   .                                                             O O     E dXqXeX9Xz.N 5 2 2 ; ; 3 y k Z M a a a m G j 5 5 C q.+.L >.j                                                                                                                                                                                                                                                                                                                                                 ",
"                                                                                                                                                                                                                                              X   X X                               X                 X X                                               X                                       X       X 8 h N m 7 4 4 5 4 9 j 5 : 3 k F G H a k D Y O. .X.B o   X                                 X                       O         V 9X6XoX1X2X/.K 9 2 # # ; # = 3 k a 5 y a m S G y y C ,.D.G +.B O                                                                                                                                                                                                                                                                                                                                               ",
"                                                                                                                                                                                                                                                                                                                                                                  X                       O           X @ 8 n C I n 2 4 3 ; 2 ; o * % : : M M j l S S  .H K p . o X                                                       X     O   2 /.eXoXoX9XQ.h.G 9 ; ; ; # ; * = 3 y p 3 3 3 a k y r j L s.L G B                                                                                                                                                                                                                                                                                                                                                 ",
"                                                                                                                                                                                                                                          X X                                                                                                                                                           @ U T 9 C 9 2 2 # # # * ; & * * = : u k M p k S M L k o   . X                                                             6 h./.[.l.Q.^.e.G m m ; # 2 X # # o + = p y 3 3 y k M u G X.<.Y Y U +                                                                                                                                                                                                                                                                                                                                               ",
"                                                                                                                                                                                                                                                X                                                                                                             O                                         # w.;.m I 7 2 - 2 # # ; j M p : : = : : 5 5 y p S  .k #   O                                                       O @ @ 7 T ^.w.E I T 5.E N m m ; - ; o + ; ; * ; 5 S u r : u Y L u.X.<.H +.e.#                                                                                                                                                                                                                                                                                                                                               ",
"                                                                                                                                                                                                                                                    X             X                                                                                                   X                                 # 8.U N V 8 2 # # ; ; j B G G Z k = = * 5 : 5 G D S K ; . X X                                                 O   > I U.E e.p.G E T U U V K j j 9 # # # - - 2 4 ; * 3 B a r k O.t.@.y.y.+.Y 0.#                                                                                                                                                                                                                                                                                                                                               ",
"                                                                                                                                                                                                                                                              X     X                                                                                                                           X       8 T T I 6 8 1 @ o ; ; y j K K k j = = ; : 5 k o.G G >.5 *   O                                               X O # T U.e.R h.9.q.5.P m 9 9 9 2 5 5 # # X o - ; 4 : * ; j m Z S L o.&.f.F.y.>.>.#                   X                                                                                                                                                                                                                                                                                                                           ",
"                                                                                                                                                                                                                                                                  X                                                                         X                               X                           V 6 C n 1 8 2 # # # ; ; 3 k S j : y 5 : 5 S G R S S @.M   . X                                           X     c oXqXpXdXz.B Y e.T p 7 9 j 4 2 o 5 ; o X # - o - ; ; ; : y F k H @.y.t.D.y.o.:.-                                     X                                                                                                                                                                                                                                                                                                         ",
"                                                                                                                                                                                    X                                                                                                                                                                 X   X                 X                         X 8 > n 8 - 2 2 - # + o 4 3 h : : : k 3 * y G H H S S Y M O X +                                             X 7 [.jX9XjX6XU 9 m C I N 9 p m 2 * 2 j 3 o X o - ; # - - 4 o : p k G o.y.,.,. .K Y o                                                                                                                                                                                                                                                                                                                                               ",
"                                                                                                                                                                                              X                 X                           X     X                                                                                                                                                 X # V @ n 9 ; - - 2 2 o o # - * ; 3 j S j : a S G k a Y L K o O   X                                           > h.z.l.;.d.E T 6 8 8 2 9 p 5 3 2 O 2 B y ; X X X o o o ; ; 4 9 : 5 l l @.,.L L R C X                                                                                                                                                                                                                                                                                                                                               ",
"                                                                                                                                                                                                                                            X                                                                                                         X                                       X   O   > 9 X 9 N # 2 > 2 2 @ @ X o - o j M C 5 r M F G p u G H +.5 .                                             X 2 h.U p 5 3 C T N 6 4 5 2 5 2 2 * # # y 9 4 # o # # o o o - ; h ; ; j G L L  .R >.j               X                     X                                                                                                                                                                                                                                                                                                     X     ",
"                                                                                                                                                                                                                                                  X     X                                                                                                                         O                   O 2 # n J # 2 1 2 2 O X X X o : j j y : p H M M y m P Y +.p O   X                                           > N 7 C N Q.^.U 4 9 m h 7 4 9 2 + o o 4 7 m 4 # ; #   X o X o 3 3 : j k Y ,.R +.:.j                                                                                                                                                                                                                                                                                                                                                 ",
"                                                                                                                                                                    X                                         X                                                                                                                                                         X   X                     O   X > @ n N 2 6 2 1 + @ # @ o - h j j ; = m G p u p M Y F G M     O                                           2 N 9 2 U ^.w.C 6 6 m j 6 4 4 2 # + # 4 j j j ; o # o o o o - 4 ; - 3 k Y o.K K K 4                                                                                                                                                                       X                                                                                                                                                                         ",
"              X                                                                                                                                                                                                                                                                                                                                                         X         O         X   X   X X 6 # 2 n @ 1 2 # - X # # X - ; j 5 + ; p m u p k F L S L G O                                               > 9 9 N e.w.K V 2 2 6 2 2 # # o * - # 4 m ; 3 # o o - - - o o - 4 4 h k G K K K K #                                                                                                                                                                                                                                                                                                                                                 ",
"                                                                                                                                                                                                              X                                                                                                                                                           O                         X > n # 8 8 > # 1 # 1 # X X X o ; ; ; - : k j 4 k k k k l G k .                               X               # x T /.9Xh.6 C C 9 9 4 - o o # o # # 2 5 4 2 ; # o o o # - * o 3 j N j S K S L m O                                                                                                                                                                                                                                                                                                                                                 ",
"                                                                                                                                                                                                                                                                                                                                                                X                                   O 1 9 1 1 8 @ # + # 2 - @ X X o X o # ; j k : * j y j k S L B O         X X                               X O   # Q./.U.E 4.w.I I 9 - # # # X . X # # ; # - 2 X X X X - - o - - - 5 4 4 5 N m ;                                                                                                                                                                       X                         X                                                                                                                                                 ",
"                                                                                                                                          X                               X     X                                                                                                                                                                 O                                 X               > 1 9 @ 1 8 - 1 @ 1 2 # @ # X X X # - 9 B j 3 3 j j k j G K C .                                             X   x l.h.8X1X6Xw.m m h h - o o o X X o - 2 2 - 2 # X X X # # - - - o o - - ; 5 4                                                                                                                                                                                                   X                                                                                                                                                 ",
"                                                                                                                                                                                                                                                                                                                                X         X                                   X                     @ # 6 2 1 9 1 1 - 1 1 # @ @ + o - ; y B j k 3 ; ; : 3 B j B B O                                               O c Q.dXeXe.U N 4 h C j ; o o o o # X X ; 4 - > 4 + X X # X # o - - - - ; 4 4 O   X                                                                                                                                                           X                                                                                                                                                                                     ",
"                                                                                                                                                                                                                                                                                                X                       O                                       O                               X   # # 8 2 6 6 - # # # 1 > @ + # ; 4 4 y B B M 3 ; : ; ; j k k N X                                                 C /.oXe.N m m 7 n m 4 - - - o - o X o - ; - # - o # X X # X X - # o - - - X     X           .                                                                                                                                                                                                                                                                                                                                     ",
"                                                                                                                                                                                                                                                                                                                    X                                                                       X         > x > 1 7 1 # # - 1 @ > O # 2 m 4 5 B G B : : 3 ; 3 h j k j O                                               > Q.8.T 7 6 m h 4 6 1 ; - 4 h ; - # o o o o o # + # # - o # X o o - - - - X X                                       X                                                                                                                                 X                                                                                                                                                                             ",
"                                                                                                                                  X                                                                                                                                                       X                   X                                                                 X                   X 2 9 1 # 9 2 @ + 1 6 > @ @ # 8 N 7 y B G j : 3 j : ; j k B 9                                             X   6 h.N 7 2 2 2 8 2 - - 4 ; 4 4 ; o - X X # - o o # o - o X X X o X - # o X     .                                                                                                                                 X                               X                         X                                     X                                                                                                                   ",
"                                                                                                                                                                                                                                                                                                                                  X                   X       O                                     X > > # 8 9 8 @ @ # 1 O > O @ 2 9 7 5 y M j : 4 j y j k j J 7                                                 1 T N m # + # # # # 2 ; ; - # o - - o - - - o # o o o o o X - X # X X                                                                                                                                                                                                                                                                                                                                                               ",
"                                                                                                                                                                                                                                                                                                                                                X                                                 X @ 1 # @ 6 x 6 > @ > # @ O # # - p 4 5 k k B 5 : k k k j j j *                                                 X m 2 4 o o # @ > o * - o X o X X # - X X X # # X o + # # # # X X         X     O                                                                                                                                                                                                                                                                                                                                                   ",
"                                                                                                                    X                                                                                                                                                                                                                                                             X               O 2 1   # # 8 6 > 1 O @ @ O @ # > 2 2 3 N B G y 5 ; k j B j j O                                                   4 4 o # X + # # O X o + X X X # o ; - - - - # # # - # # @ +       X @                                                                                                                                                           X                                                             X                                                                                                                                   ",
"                                                                                                                                                          X                         X                                                                                                                                       X                                                         X   X     X X # O   O > x x > > O @ O @ @ O > 2 4 3 N G B : 3 ; 5 B K j j               X                                     2 9 , + + X # @ X X X X # + X - - - - ; - o @ X + + X       X   X X X X                                                                                                                                                         X                                                                                                                                                                                                 ",
"                                                                                                                                                    X                                                                                                                                                               O                               O   X                                               O O # x x > # > > > # @ + # 7 > 4 p G B 5 : : y j l j ;                                                     + m 2 O @ X O # X X X X # # # # - - - - X X                 X                                                                                                                                                                                 X                 X                                                                                                                                                                 ",
"                                                                                                                                                      X                                 O                                                                                                                       X             X             X         X                                   X               > > 6 N 6 > # # # > O O # 8 6 4 9 j M y 3 5 j 5 j 5 X               X                                     X 7 - # X X X X o X   o # o X o ; 3 C p X                 X       X                                                                                                                                                                                                                                                                                                                                                               ",
"                                                                                                                                                                                                                                                                                                                        X                                                         X                       # O > m 6 O O O # O @ + # 6 2 2 j m G j : 3 C j y ;                                                         # 4 # - X X X + + o o # # - o h J Y N         X                                                                                                                                                   X                                                                                                                                                                                                                             ",
"                                                                            X                                                                                                                                                                                                     X                                                                                                                       O @ > m 6 > # @ # @ @ + # 2 1 ; 5 k C k : y j y ;                                                           @ 7 # # @ X + # @ X # o o o ; 4 J C V O                 X                                                                                                                                                                                                                                                                                                                                                                       ",
"                                                                                                                                                                                                                                                                                          X                                                                                                           X   O @ @ x 8 > # @ @ O @ # # - # # h k B k : 9 5 M ;         X                                           X     X 6 2 # - # # o - @ # # - 4 4 j m V V ,                                                                           X                                                                                                                                                                                                                                                                                                             ",
"                                                                                              X X                 X                       X                                                                                                                                       X                             X       X         X                     X                                         X       @ # O 2 2 2 X O @ O # @ @ # 1 # 7 v V v i v M m O                                                           X 6 4 # o # - - @ - - - 2 5 h m Y I I 7 O X                     O                                                                                                                   X                                                               X                                                                                                                                                                           ",
"                                                                                                                                                                                                                                                                                                                                          X                         X     X             X           X     X   X > > 2 > @ # # O @ @ + # # 2 7 c H V S 9 y O                                                             - 8 - # X o - - # 1 X - ; h U G E c c             X             X                                                                                                                                                 X         X           X                                                                                                                                                                                     ",
"                                                                                                                                                                                                                                                                                                                                                  X                               X                     O       2 x 1 1 # @ @ # @ + @ - > # 8 c Y C U y o   .         .                                                 X 9 2 # # - o # # # # # - 4 R U I 9 8 # X                                                                                                                                                                                                                                                                                                                                                                                     ",
"                                                                                                                                                                                                                                                                                                X           X                                                                                         X         + x 2 2 > O @ @ + X @ # # > 2 m m C Y 3 .                                                                 2 5 # # # - X X + # - o ; j K P c m X                                                                                                                                                                                                                                                                                                                                                                                       ",
"                                                                                                                                                                                                                                                                                                      X                                                             X                             O       X   X X 8 4 8 > + @ # # X X + o o # 9 B m C *   X                                                               , h ; # - ; o o # + o 2 , V U V c 9 *                                                                                                                                       X                                                                                                                                                                                                                                               ",
"                                                                                                                                                                                                                                                                                                                                                                                                                  @ 4 h # + @ @ O O O O # # + 2 r m C =             X                                                     X 6 4 - # # # # X - X # 2 3 S V Y m #                                                                                                                                                                                                                                                                                                                                                                                       ",
"                                                                                                                                                                                                                                                                                                                                  X                                                                         X       4 h 1 @ @ @ + @ @ @ X 2 + # = p K 3                                 X                                   7 9 2 # # ; - # #   . + + 7 v U N X                                                                                                                                                                                                                                                                                                                                                                                       ",
"                                                                                                                                                                                                                                                                                                                                                                                                                    - 8 2 X X X O @ @ @ # 2 ; # # 3 C 2 X                                                                   # 9 1 + X o # # # 2 y 6 2 M p S N o                                                                                                                                               X                                                                                                                                                                                       X                                               ",
"                                                                                                                                                                                                                                                                                                                                                                                                                    2 9 6 # @ O @ + @   # 9 2 # < 7 G 5 O         X                           X                             + 9 2 # # # 1 + o ; N B 3 5 j 9 j 5                                                                                                                                                                                                                                                                                                                                                                                       ",
"                                                                                                                                                                                                                                                                                                                                                                                                                    # h 1 1 @ O + # X X # x 7 # 2 p B p     O                                                               X 2 8 # - @ + + o O ; G 9 j X.j N 5                                                                                                                                                 X                                                                                                                                                                                                                                     ",
"                                                                                                                                                                                                                                                                                                                                                X                 O                                                 X 6 > > # O o X +   @ 7 7 # * 7 B 3   .                                                                   # 4 # # # + # * O o ; 4 j R k 5 4 #                                                                                                                                                                                                                                                                                                                                                                                     ",
"                                                                                X                                                                                                                                                                                               X                                                                                                                               X     4 6 @ @ O X o O     2 9 2 * 3 M 5         X                                           X                   7 1 @ # # # # o 2 3 o ; j J B 5 m X                                                                                                                                                                                                                                                                                                                                                                                   ",
"                                                                                                                X                                                                                                                                                                                                                                                                                             X   X X 6 6 > O X   # X X   * x 2 , , p 5     O                                                   O             X 9 6 X X + X O # X * & . 3 j G h J +                                                                                                                                                                                                                                                                                                                                                                                   ",
"                                                                                                                                                                                                                                                                                                                                                        O                                                       X     1 6 # @   X + X   #   7 2 * * M p       O                                                               X 1 7 # X o o o # # # 9 * - 3 k 5 m 5                                                                                                                                                                                                                                                                                                                                                                                   ",
"                                                                            X                                                                                                                                                                                         X                                                                                                                                               # 2 > # X   + o     # 9 9 o = N m                                                   X                     # j 4 # # X + # 2 p 5 ; - 3 X.j m 5                                                                                                                                                                                                                                                                                                                                                                                   ",
"                                                                                                                                                                                                                                                                                                                                                                                                                      @ m 2 @ O X O o O X + 7 p 2 ; M H <                                                                 X   X X 9 4 o > + + # 9 Y B ; k j Y C 9 U +                                                                                                                                                                                                                                                                                                                                                                                 ",
"                                                                                                                                                                                                                                                                                                                                                                                                                      # m 2 ,   X O O X O X 2 5 < , i G 6                                                     X                 O m 6 + # X X O 3 K m * 5 L B j 3 C -                                                                                                                                                                                                                                                                                                                                                                                 ",
"                                                                                                                                                                                                                                                                                                                                                                                                                  X   9 m # 2     X .     . o 9 7 * 3 Z P *                                                                     O p 2 2 o o   . - h h ; * j L j 5 h h X                                                                                                                                                                                                                                                                                                                                                                               ",
"                                                                                                                                                                                                                                                                                                                                                                                                              X     X 8.V 2 , X + #   O   o * i c 3 3 G +.p                                                                     X 9 2 + . . O o - j B h ; k >.K j 5 m X                                                                                                                                                                                                                                                                                                                                                                               ",
"                                                                                                                                                                                                                                                                                                                                                                                                    X               X E x 2 2 X   # X   O . + 5 v i 3 S Y E +                                                                   + I 2 X o O O * o j L B ; : R K J j U 4 X                                                                                                                                                                                                                                                                                                                                                                             ",
"                                                                                                                                                                                                                                                                                                                                                                                                                    9 e.2 n 2 X O X X o o # o : y u 2 M L U =                                                           X       X I 5 X # o + o o 4 k K y 3 5 J B j B N O                                                                                                                                                                                                                                                                                                                                                                             ",
"                                                                                                                                                                                                                                                                                                                                                                                                                    C U 9 T 9 O . o X # o * o : u i 3 y r L 5                                                                   8 I 2 2 # * + + o ; ; k 5 4 j K +.p j L #                                                                                                                                                                                                                                                                                                                                                                             ",
"                                                                                                                                                                                                                                                                                                                                                                                                                    N 6 8 4.m @   o o o # & & 5 M M 3 : 5 k 9                                                                   C U 1 # # # + + - 4 j B S : l :.0.B p B 2                                                                                 X                                                                                                                                                                                                                                                                                           ",
"                                                                                                                                                                                                                                                                                                                                                                                                  X         X     > U 2 m E 2 @ o o o o # ; ; y p M y : 3 M p .                                                                 V c 1 # + # # o - ; j S 5 : * R >.>.m j C o                                           X                                                                                                                                                                                                                                                                                                                               ",
"                                                                                                                                                                                                                                                                                                                                                                                                                  2 N 2 N U 2 @ X # # o o = : y j y : r 3 B m                                                                 O C V 2 > # , > # # 2 4 j h ; 4 j O.K y 9 G 7                                                                                                                                                                                                                                                                                                                                                                     X     ",
"                                                                                                                                                                                                                                                                                                                                                                                X                             X   + m x e.8.1 # + 4 : * 3 3 j k k k S p S G c                                                                 > 4.9 9 > # , 2 + # ; B 5 k : : j j O.G 9 N C X                                                                                                                                                                                                                                                                                                                                                                         ",
"                                                                                                                                                                                                                                                                                                                                                                                          X               X         6 V z.E ; ; 5 ; ; : : y r y k S L H H P 5                                                             X   6 J j 7 # ; 2 , o # ; j h y - * j 9 0.U 3 5 H c O                                                                                                                                                                                                                                                                                                                                                                       ",
"                                                                                                                                                                                                                                                                                                                                                                                                                X X 1 U w.C ; - * k k p k y y k S S D L G G 3                                                                 9 C 4 # # o 2 2 # - - j K K j : 5 K O.+.c 7 V 9.V     X                                                                                                                                                                                                                                                                                                                                                                 ",
"                                                                                X                                                                                                                                                                                                                                                                                                                                   6 4.I I 7 ; 5 M L G L l K L o. .G S M M .                                                                 C I 2 * + # = # o # # 5 C Y k 3 ; M G K B p y Y +.O                                                                       X                                                                                                                                                                                                                                                                                             ",
"                                                                                                                                                                                                                                                                                                                                                                                                              X X   x h.l.n 2 4 3 j k S S K o.G L  .Z k F j .                                                                 N 9 > o O + # 2 * ; ; y j j B * ; 3 L M R +.c C 9.n                                                       X   X                                                                                                                                                                                                                                                                                                         ",
"              X                                                                                                                                                                                                                                                                                                                                                               X                                     8 e.4.6 1 2 * 5 : : k r S D H H S S k ;                   X                                               2 2 X o O + , , o o ; y C j k 5 ; 5 G L Y p.V m C C                                                                                                                                                                                                                                                                                                                                                                     ",
"                                                                                                                                                                                                                                                                                                                                                                                                                    N h.T x x 4 j j L G S L r.O.,.o.X.Z B &                                                                 X * ; o o O # * 2 o ; - 3 B j j k 3 3 j R C +.P p V C 2   X                                                                                                                                                                                                                                                                                                                                                               ",
"                                                                                                                                                                X                                                                                                                                                                                                                                 X               X n ;.h - J j U ;.>.B M j.|.+.S @.+.L L o                                                                 X 2 3 o o   X # 2 - ; o 4 j R G G 3 5 c 0.T P M B Y C o   X               X       X                                                       X                                                                                                                                                                                                                                                                               ",
"                                                                                                                                                                                                                                                                                                                                                                          X                                       X 8.9.h h 4 j >.j k L G a.i.D H o. .O.U o                                                                 O 2 * ; o X X 2 4 2 ; ; 3 K +.N U Y p c U Y P M p B I 9             X                               X                                                                                                                                                                                                                                                                                                             X       ",
"    X                                                                                                                                                                                                                                                                                                                                                                                                             # e.T - 4 4 j q.R m >.H.>X@.G o._ a H k                                                                   @ 1 + - X   X 6 9 2 - - 4 C +.Y F +.N i p P T V p 9 m N                                       X                                                                                                                                                                                                                                                                                                                           ",
"                                                                                                                                                                                                              X                                                                                                                                                                         O               X         9 /.T h 4 j 4 N B 7 U p.j.Z F D Y Z G 5   .                                                               @ 2 - #   X + 7 9 4 ; ; ; m G C M B p 6 2 N S C m C N L I X                                                                                                                                                                                       X                 X                                                                                                                                                     ",
"                                                                                                                                                                                                                                X                                                                                                                                                               O O               9 U.e.h 4 h 5 j 4 9 j P O.v M M X.Y M .                                                                   @ # 1 #   + X 5 # j ; 4 5 j C m H C p 5 4 j C y c U p G 0.N                                             O                                                                                                                                                                                                                                                                                                                 ",
"      X                                                                                                                                                                                                                                                                                                                                                                                                         X N h.U ; K C - j ;.C m h.0.a M S Y Y r                                                                       # # X   + X 4 5 N j ; h j N +.Y p S y 4 ; N p y C V 9 E 0.B                                                   X                                                                                                                                                                                                                                                                                                         ",
"                                                                                                                                                                                                                                                                                                                                                                                  X               X       X     X N T 4 4 B K h 2 E N p j.S p G Y K H * .                                                                     > * X   O X 9 J B N 4 - 5 y >.R 9 j j 5 ; N +.c 2 j 5 k G C c                       X                                                                                                                                                                                                                                                                                                                                   ",
"                                                                                                                                                                                                                                                                                                                                                              X                                                 X d.h.h - h C N C U C 0.!.m u S L D L .                                                                       2 # X       6 R J B ; - 5 G K L j j 3 ; j S p.T 3 p N B 3 9 E V X                                                                                                                                                                                                                                                                                                                                                       ",
"                                                                                                                                                                                                                                                                                                                                                                                X         O           X         8 U.R ; h J >.B 9 j K ~.Y.M j a l G B     X                                                           X     O O @     X   9 C 9 R h ; h G >.G j y h o 4 j 9.T.U v < C 7 2 V U #   .                                                                                                                                                                                                                                                                                                                                                   ",
"                                                                                                                                  X                                                 X                               X                                                                                                                               X                       O         O                   X X X 8./.E h U E j h 9 5 B h.p.j y p p L B                                                                   X             X X 2 9 G J h ; 4 h ;.R >.G ; 4 3 & j q.>.U G G V M V m 2                 X                                                                                                                                                           X       X                       X                                                                                                                                         ",
"  X                       X                                                                                                                                                                                                                                                                                                                                     X                                           X X C T K m ;.9.B N 0.N J 9.0.3 : y B R y                                                                           X         N m T 9.h 2 4 ; B J e.>.4 # 4 5 3 9 j P e.5.V c 5 p 9 2 +                                                                                                                                                                                                             X                                                                                                                                     ",
"                                                                                                                                                      X                                                                 X                                                                                                                               X                                         X         X # j ; C 4 j N K N >.K K ^.>.k k 9 M R *                                                                                     N 4 T ;.5 - - - ; 9 R >.j @ # # # 4 - 9 +.h.T P c V 0.E #                                                                                                                                             X                                                                                                                                                                                                     ",
"                                                                                                                                                              X                                                                                                                                                                                             X                           X       X           X # T w.T h U K ;.K ;.B U k.K j J j m p                                                   X                                 X m C N U 2 - X # 5 9 N 9.U - - X + + 2 9 9 +.Y 9.0.M C 4.6                                                                                                                                                                                                                                             X                                                                                                     ",
"                                                                                                                                                                                                                                                                                                                                            X                                     O                           > Q.e.h J >.h J U R G k.}.B k k k B 9                                                                                   X   4 m 4 h 6 2 X o 4 m 4 N U h @ X > # + 2 4 N 9.p.C E d.9.w.#                                                                                                                                                                                                                                                                                                                                                 ",
"      X                                                                                                                                   X                                       X                                                                                                                                                                             O                                   X         U 1Xd.N ;.2.J J ;.R k Y.z.k j j j m 2                                                                           X           X - - 6 8 4 # + 2 h 2 8 C R 4 X - # # # 3 p e.k.w.G 9.I C G #       X                                                         X                                                                                                                                                                                                                                                                             ",
"                                                                                                                                                                                                                                                                                                                                                        X                         X             X           X z./.C N ;.;.J >.j C >.>.s.B j j k O.2                                                           X         X       X           h - 2 X 4 - - - 9 j 9 C 9.;.# o   ; - y G N p.5.C N 2 U w.U X                                                                                       X                                                       X                     X                                                                                                                                                                       ",
"                                                                                                X                                   X           X                                                                                                                                                                                                                         X               + X             X @ ;.m 4 4 B K N U 9 8 T ].H.N m a B Y <                                                           X                             - h - - - ; ; 4 9 j 9 U L 9.C o o * ; y K j C G j B M p U E @                                                                                                                   X         X                             X                                     X                                                                                                                                           ",
"                                                                                                                                                                          X                                                                                                                                                                           X     X     O +                         X   X       o K R h 1 U N x E E c 2 C oXg.M p V 9.Y 2                                                       O                       X     X   X - 4 - - X # - M 5 < m j C Y o X o # y j j y X.L 3 5 L 4 B N X                                                                                                                                                               O   X                                                                                                                                                                       ",
"                                                                                                                                                                X                                                                                                                                                                                                                           X             X w.E 4 9 m 9 9 T G 8 2 7 e.+.v G C 5.@.*                                                                       X                   # - - - o O 2 M y V V T m B G o # + ; L B 5 K R k 5 C 9 m 9.2                                                                   X                                                                                                                                                                                                                                                     X                 ",
"                                                                                                                                                                              X                 X                                                                                                                               X                                                                   X     2 6Xk.g.C N M 5.+.U 7 2 B h.C c Y v Y Y 7 O                                                                           X     X X       X 4 - X ; j 9 E +.p 5.C j d.9 X o # j K j 3 G K 4 ; 2 4 I C X                                                                                                                                                                                   X                                                                                                                                                     ",
"                                                                                                                                                                                                                                                                                                                                      X                                                             X   o k.h.9.9.9 p E w.e.+.7 9 E T m 3 j j M T G   O                                                 X                     X       X       X   X # @ o m U w.>.m G p 7 E T - * + < V c 6 B K 3 o ;   # 9 X                                                                                                                                                                                                                                                                                                                                         ",
"                                                                                                                                                                                                                                                                                                                                                                        O                   X X         9 ^.N m C N E 9.U +.T 4 7 E E m 9 7 L C Y E # O       O                                                                                     X > 9 P m C 9 2 C 4 5 m z.h 2 6 O # 6 3 * U E o X   X 2 #                                                                                                                                                                                                                                                                                                                                         ",
"                                                                                                                                                                                                                                                                                                                                                                                                X   O o 9.G 5 G j C g.g.5.0.N # * x G p N B R S N E V                                             X                                                   # m T C 6 8 4 h B 9 9 h.C O 1 X   * o o M >.#       # #                                                                                                                                                                                                                                                                                                                                         ",
"                                                                                                                                                                                                                                                                                                                                                        X             O                               L [.B C L m p T E +.I j 2 # 9 T F c M >.G Y +.+.#                               X                                                                 O m 9 # 6 @ 9 T 4 4 R j + X     O . . O C 7 X                                                                                                           X                 X                     X                                                                                                                                                                               X             ",
"                                                                                                                                    X                                                                                                                                                                                             X                                                         X   O   + 6Xh.Y B 7 i N E P V V 9 , < c E T M c C C K Y q.4             O                                                 X                           O   O   O # 8 1 6 9 h 4 4 K h # #   X   O O   h 7                                                                                                                                                                                                                                                                                                                                                   ",
"                                                                                                                                                    X                                                                                                                                                           X                                                                             X     T  XG C Y y p 5.9.P E O.9 , 7 7 I G i M G j.d.Y q.j                             X                                                                 O       O # 2 - 9 h X j N # #         O   + +                                                                                                             X                                                                                                                                                                                                                                     ",
"                                                                                                                                                                                                                                                                                X                                                                                                               X # XXY p V F 6 p r.T C T E p , 6 m T U m M C H.H.+.X.j             O                                       O                                                     X X 2 ; # 9 N   O         O   X                                                                               X                                                                                                                                                                                                                                                                     ",
"                                                                                                                                                                                                                                                                                                                                                              X                           X       p.].C O.Y B C H.p.P F H P c 7 9 E p.T c F p e.q.R >.M o                                                       X                                         X             o ; 9 N O   X                                                                                                                                                                                                                                                                                                                                                                 ",
"                                                                                                        X                                                                                                                                                                                                                                                                                       # 8Xy.L d.Y y +..X0.Y 0.P T m 6 7 5.w.P j R K L >.B ,.j .                               X                 O                                                             O @ - 6                                                                                                                                                                                                                                                                                                                                                                       ",
"                                                                                                                                                                                                                                                                                                                                                                                      X     X   N oXY B +.S B p.j.Y Y 5.G T 9 9 5.w.g.T M K >.S G X.U N O                                                                                                                     1 +                                                                                                                                                                                           X                                                                                                                                                                         ",
"                                                                                                                                                                                                                                                                                                                                                                                            X   ;.0.N 0.,.3 S D.i.T 0.+.L B 3 9 w.g.l.5.F F L p 5 j h h +                                                                                             X                       O         X         O                                                                                                                                     X         X                                                                                                                                                                                                   ",
"                                                                                                                                                                                                                                                                                                        X                                                                               X     # h.C m Y Y 7 9 T F P 9.+.0.m 2 9 z.l.i.O.M Y L : ; k ; h o       O     .                               X                                 X                         X         X         O                                                                                                     X         X       X                                                                                                                                                                                                                                       ",
"                                                                                                                                                                                                                                                                                  X                                                                                                           x K 2 ; j j 4 5 B P F Y +.E c 2 7 y.9.5.V p H H 3 * p j h                                                       X                                                                                                                                                                                                                                                                                                                                                                                                                             X         ",
"                                                                                                                                                                                                                                                                                                          X                                                                         X @ O O 6 c 8 2 N J ; ; 7 Y T V c T U < 7 5 P i.r.F B H P 3 * o j 9                                                                                   X                                                                                                                                                                                                                                                                                                                                                                                                           ",
"                                                                                                                                                                                                                                                                                                                                                                                        @ x I 6 2 X U B + * m T P S N j.+.< 9 3 U a.w.P k S Y y * * m B                   X                                                                                                                                                                                                                                                         X                                                                                                                                                                                                                 ",
"                                                                                                                                                                                                                                                                                                                                                                .                       x h.4.x 8 C 9.; 2 3 G B V B E h.U 2 9 j E 5.5.F M j Y j + # j h             X                                                                                                                                                                                                                                                                                                                                                                                                                                                                                 ",
"                                                                                                                                                                                                                                                                X                               X                                                                                   @ 2 e.g.4.x 2 z.E * + 9 Y C Y m q.0.9 * 2 U i.5.a.P F M R B o X m 5                                                                                                                                                                                                                                                                                                                                                                                                                                                                                               ",
"                                                                                                                                                                                                                                                                                                                                                                                O     m 5.6 T x l.h.B ; 2 9.C N U M L e.9 2 # +.i.5.5.5.G F L G o X 5 4                                                                                                                                                                                                                                               X                                                                                                                                                                                                                                               ",
"                                                                                                                                                                                                                                                                                                                                                                                    # h.T c v P 6Xg.3 O C e.K B N m E p.7 7 9 +.p.O.r.f. .M F B * X 2 -                             X                                                                                                                                                                                                                                                                                                                                                                                                                                                                 ",
"                                                                                                                                                                                                                                                                                                                                                                                    2 E P v < 5.W.G O p j.U K U m 4 T m o U p.O.0.5.@.i. .M G S 3   + #       X                         X                                         X                                                                                                                               X                                                                                                                                                                                                                                                                                   ",
"                                                                                                                                                                                                                                                                                                                                                                                O   p +.g.Y  .H.i.< 2 H.H.5.I T 6 # 6 < 9 E w.V O.@.O.5.H M G G =   O o                                                                                                                                                                                                                                                                                                                                                                                                                                                                                               ",
"                                                                                                                                                                                                                                                                                                                                                                                  c w.F P P P 5.c P ].g.w.U T 7 6 , , 2 0.z.y.W.H.r.O.L H F B Y 5   + O                                                                                                                                                                                                                         X                                                                                                                                                                                                                                                                     ",
"                                                                                                                                                                                                                                                                                                                                                                              X 7 ^.O.c v 5.i.T P .X/.Y I M O.c x O # 6 +.m G W.!.p.L Y @.G S Y *   + O                                                                                                                                                                                                                                                                                                                                                                                                                                                                                               ",
"                                                                                                                                                                                                                                                                                                                                                                              o 5.9.E O.h.a.5.r.g.5.P v P T R N x O > l.Q.m 7 T 5.a.@. .+.H S L *   .                                                                                                                                                                                                                                                                                                                                                                                                                                                                                                 ",
"                                                                                                                                                                                                                                                                                                                                                                            + w.T O.G.g.h.P 6 +.P c P 9 G P C 2 > O , Y.Y.m < m F W.a.O.H G B y .                                                                                                                                                                                                                                                                                                                                                                                                                                                                                                     ",
"                                                                                                                                                                                                                                                                                                                                                                            c w.x E 5.F F F P O.F T U i 7 I N X +   T  X9.9 < i F 5.5.P M L S o                                                                                                                                                                                                                                                                                                                                                                                                                                                                                                       ",
"                                                                                                                                                                                                                      X                                                                                                                                             X     + 9 m P 5.v v O.F V V g.G G c M Y V X     K k.+.c m p P i.P F k M 3 X                                                                                                                                                                                                                         X                                                                                                                                                                                                                                                                             ",
"                                                                                                                                                                                                                                                                                                                                                                            C 5.c c P v F c v r.j.M M 9 Y T m   X   m 9.T 5.T < P P Y v G j #                                                                                                                                                                                                 X             X                                                                                                                                                                                                                                                                                         ",
"                                                                                                                                                                                                                                                                    X                                                                                                   X O 8.T 7 C 5.V x , c H.Q.O.j 2 C K 4   O   x 5.U g.5.i F F T F S 9 O                                                                                                                                                                               X                                                                                                                                                                                                                                                                                                                         ",
"                                                                                                                                                                                                                                                                                                                                                                      X @ 2 V 2 # T G F < < O.g.p.N 7 2 C j 3       T T V 5.F a 5.F F p 7 o                                                               X                                                                                                                                                                                                                                                                                                                                                                                                                     X                     ",
"                                                                                                                                                                                                                                                                                                                                                                          6 9   # V U # # , w.+.C * 2 m C V # X     I I U U 7 p +.9 2 6 +                                                                                                                       X                                                               X                                                                                                                                                                                                                                                                                                                     ",
"                                                                                                                                                                                                                                                                                                                                                                        X # X   O 6 2 #   # 9 m 7 , ; n 6 2 o     # V P m 7 o 2 m 4 = O           X                                                                                                                                                                                                                                                                                                                                                                                                                                                                                                   ",
"                                                                                                                                                                                                                                                                                                                                                                          X   X   # #   +   8 9 # #   # O     O     7 m # o   o * 2                                                                                                                                                                                                                                                                                                                                                                                                                             X                                                                                     ",
"                                                                                                                                                                                                                                                                                                                                                                    X             # +   O O # + #                 O 5 2 O + O         X X                                                                                                                                                                                                                                                                                                                                                                                                                                                                                                             ",
"                                                                                                                                                                                                                                                                                                                                                                            X                               X       2 # X           X                                                                                                                                                                                                                                                                                                                                                                                                                                                                                                                 ",
"                                                                                                                                                                                                                                                                                                                                                                          O                                                                                                                                                                                                           X                                                                                                                                                                                                                                                                                                                                                               ",
"                                                                                                                                                                                                                                                                                                                                                                                                O     X                 X             X         X                                                                                                                                                                                                                                                                                                                                                                                                                                                                                                     ",
"                  X                                                                                                                                                                                                                                                                                                                                                                                                     O                                     X                                                                                                                                                             X       X                                                                                                                                                                                                                                                                                                                 ",
"                                                                                                                                                                                                                X                                                                                                                                                                                                   X                                                                                                                                                                                                                                                                                                                                                                                                                                                                                                                                 ",
"                                                                                                                                                                                                                                                                                                                                                                                            X           X                                                                                                                                                                                     X     X         O                                                                                                                                                                                                                                                                                                                                       ",
"                                                                                                                                                                                                                                          X                                                                                                                                                     O           X                                                                                                                                                             X   X                                                                                                                                                                                                 X                                     X                                                                                                                               ",
"                                                                                                                                                                                                                                                X                                                                                                                 X               X               O                               X   X                                                                                                                                                                                                                                                                                                                                                                                     X                                                                                                                         ",
"                                                                                                                  X                                                                                                                   X                                                                                                                                                                 O                                                                 X                                                                                                                             O                                                                                           X                                                                                                                                                                     X                                                                           ",
"                                                                                                                                                                                                                                                                                                                                                                                                O                                                                                                                                                                                             X                                 X     X               X                                                                                                                                                                                                                                                           X                                   "
};
