/* XPM */
static char *result[] = {
/* columns rows colors chars-per-pixel */
"459 384 244 2 ",
"   c #010101",
".  c #0A0604",
"X  c #060805",
"o  c #0A0906",
"O  c #060608",
"+  c #0A0708",
"@  c #070908",
"#  c #0C0C0A",
"$  c #130605",
"%  c #180706",
"&  c #110907",
"*  c #120D0B",
"=  c #1A0D0C",
"-  c #0F100C",
";  c #13110E",
":  c #19110E",
">  c #0E0E10",
",  c #110F10",
"<  c #1A0F10",
"1  c #0F1110",
"2  c #141412",
"3  c #1A1512",
"4  c #171814",
"5  c #1B1916",
"6  c #171818",
"7  c #1D1C1A",
"8  c #230D0C",
"9  c #290B0A",
"0  c #28110E",
"q  c #2F0E10",
"w  c #231514",
"e  c #2B1413",
"r  c #221916",
"t  c #2B1916",
"y  c #251719",
"u  c #231D1A",
"i  c #2B1D1C",
"p  c #331514",
"a  c #3A1717",
"s  c #341916",
"d  c #331C1B",
"f  c #3B1C1B",
"g  c #1F201C",
"h  c #23211E",
"j  c #2A221E",
"k  c #34211D",
"l  c #3C211D",
"z  c #1E1E21",
"x  c #261F20",
"c  c #3A1E21",
"v  c #1F2120",
"b  c #242422",
"n  c #2B2522",
"m  c #262825",
"M  c #2C2925",
"N  c #282828",
"B  c #2C2C2A",
"V  c #322524",
"C  c #3B2424",
"Z  c #322A26",
"A  c #3B2A25",
"S  c #322729",
"D  c #332D2A",
"F  c #3A2D2C",
"G  c #2F302C",
"H  c #34312D",
"J  c #393229",
"K  c #3B322E",
"L  c #2F2F31",
"P  c #372F30",
"I  c #343332",
"U  c #3B3532",
"Y  c #383837",
"T  c #3C3935",
"R  c #3C3C3A",
"E  c #421D1C",
"W  c #461F1E",
"Q  c #481E1F",
"!  c #432423",
"~  c #4A2424",
"^  c #432A26",
"/  c #472827",
"(  c #432C2B",
")  c #4B2C2B",
"_  c #552A29",
"`  c #522D2C",
"'  c #43332D",
"]  c #4B322E",
"[  c #46382F",
"{  c #54322E",
"}  c #492E31",
"|  c #423534",
" . c #4B3433",
".. c #433A36",
"X. c #4B3A35",
"o. c #463739",
"O. c #443C3A",
"+. c #4A3D3C",
"@. c #543433",
"#. c #5B3434",
"$. c #563936",
"%. c #533C3B",
"&. c #5C3C3B",
"*. c #643A39",
"=. c #633C3B",
"-. c #3F403D",
";. c #494037",
":. c #44413D",
">. c #4B423E",
",. c #54433D",
"<. c #5A423E",
"1. c #66413E",
"2. c #3F3E40",
"3. c #453F40",
"4. c #5B3F41",
"5. c #653E40",
"6. c #3F4140",
"7. c #454342",
"8. c #4C4442",
"9. c #4C4945",
"0. c #484748",
"q. c #4D4B4A",
"w. c #524544",
"e. c #5B4543",
"r. c #534A46",
"t. c #5B4A45",
"y. c #524749",
"u. c #544C4A",
"i. c #5A4D4C",
"p. c #4F514E",
"a. c #5E5045",
"s. c #54514E",
"d. c #5B514E",
"f. c #584F51",
"g. c #545353",
"h. c #5C5452",
"j. c #5D5956",
"k. c #575758",
"l. c #5D5B5B",
"z. c #5E5F5F",
"x. c #634443",
"c. c #6B4443",
"v. c #634A46",
"b. c #6B4846",
"n. c #634D4A",
"m. c #6B4C4B",
"M. c #724847",
"N. c #734C4C",
"B. c #62524D",
"V. c #6A534E",
"C. c #714F50",
"Z. c #625553",
"A. c #6C5552",
"S. c #635956",
"D. c #6B5A55",
"F. c #645658",
"G. c #645C5A",
"H. c #6A5D5B",
"J. c #735452",
"K. c #725A55",
"L. c #7B5857",
"P. c #735D5B",
"I. c #64615E",
"U. c #6B615E",
"Y. c #74625C",
"T. c #7B625E",
"R. c #645F61",
"E. c #646363",
"W. c #6B6463",
"Q. c #6C6966",
"!. c #676769",
"~. c #6C6C6B",
"^. c #736563",
"/. c #7A6564",
"(. c #736965",
"). c #7C6B65",
"_. c #746C6A",
"`. c #7B6C6B",
"'. c #74716D",
"]. c #7C716E",
"[. c #726F70",
"{. c #747473",
"}. c #7B7472",
"|. c #7B7977",
" X c #7C7B7B",
".X c #825B5B",
"XX c #86635E",
"oX c #836B65",
"OX c #886866",
"+X c #856D6A",
"@X c #916C6C",
"#X c #86746D",
"$X c #8C736D",
"%X c #93746E",
"&X c #887875",
"*X c #837C7B",
"=X c #9A7373",
"-X c #937B74",
";X c #977976",
":X c #88827D",
">X c #94847C",
",X c #9B837B",
"<X c #99857A",
"1X c #A2877E",
"2X c #7F7E81",
"3X c #817F80",
"4X c #848382",
"5X c #8B8784",
"6X c #8C8C8B",
"7X c #958A86",
"8X c #9C8B82",
"9X c #8E908F",
"0X c #98918C",
"qX c #9A9796",
"wX c #A68986",
"eX c #A38C84",
"rX c #A5938A",
"tX c #AA9589",
"yX c #AB958C",
"uX c #B0938D",
"iX c #A59A97",
"pX c #AC9B93",
"aX c #B29C93",
"sX c #B69B98",
"dX c #AAA29C",
"fX c #B5A295",
"gX c #B3A39A",
"hX c #BBA49B",
"jX c #BCA99D",
"kX c #9D9BA0",
"lX c #A9A7A6",
"zX c #B5ABA7",
"xX c #BCACA3",
"cX c #B9B0AA",
"vX c #B8B7B6",
"bX c #C2AC9E",
"nX c #C2ACA3",
"mX c #C3A9A7",
"MX c #C6B4A9",
"NX c #CABBB4",
"BX c #D1BAB2",
"VX c #CEC2BA",
"CX c #C3BFC0",
"ZX c #CDCCCA",
/* pixels */
"                                                                    X                           X                             X                                                                                                                                                             X                     X                           X                                                                                                                                                                             X       X                                                                                                                                     X                 X           @                           X                                                                                                                                                                         X                     X                 ",
"                                                                                      X                     X         O             X                                                                                                                                                                                   X                                 X             O                                                                                           X                           X           O         X                     X       X           X       X                                                                             X   .                       +                                       O X                 X                               X           X       X                                                                                   O                                                               ",
"                                                                                                                                                                                                                                                                    X                                                                                                                                                                                                                 X         X                                                 O                                                               X                                                                             O                                                                                                                                                               X                                   X                                                 ",
"                                                                                                                                                                                                                                                                                                                                                                                                                                                                                                                                                                                                                                                  X               X                                                 X     O                                                                                                                                                                                                 X                         ",
"                                                                                                                                                                                                                                                                                                                                                                                                                                                                                                              O   X                                                                                                                                       X                                         X         @             X                                         X X                                                                                                                                                                             ",
"                                                                                                  O                                                                                                                                                                                                                                                                                                                                                         X                                                                                                                                                                                                   X         X             O                                                               X                                                                                                                                                                                             ",
"                                                                                                                                                                                                                                                                                                                                                                                  X                                                                                                                                                                 X                                                                                                                     X                                                                                                                                   X                                                                                       O                                               ",
"                                                              X                         @                                                                                                                                                                                                                                                                                                                                                                                     X       O                                 O                   X                                                                   X                                                     O                                                     X                 X                           O                                                                                   X                         X                                                             ",
"                                                                      X             X                                                                                                                                                                                                 X                                                                                                   X                                                                                 O                                                                                                                                                                                                             X       O                                                                                                                                                                               O             O                                                     ",
"                                                                                                                                                                                                                                                                                                                                                                                                                                                                      X                                                                                                                                                                                                                                                                                                                                                                                                                                     X                                         ",
"                                                                                                                                                                                                                                                                                        X                                                                                                                                                                                                                                                                                                                                                                                                                                                                                                                                                                                 X                                                                           ",
"                                                                                        X                                                                                                                                                                                                                                                                                                                                                                               O                                                                                                                                                                                 X       X                 X                                                 X                                                               X               X                                                                                                                               ",
"                                                                                    X                                                                                                                                                       X                                                                                     X                                                                                                                                                                                                                                                                                                                             X                                                                                                                                 X                     X                                                                                                                             ",
"                                                                                                              X                                                                                                                                                                                                                                                                                                                                         X                                                                                                                                                                         X                                         X                                                                                                                                                                                                                                                                         ",
"                                    X                       X                                 X                                                                                                                                   X                       X       X                                     X                                                                                                                       X                             X     O   X         X         X       X   X     .   X   . X                                 X                                                                                               X X                           X       X                             O                                                                                           X                               X       X                                                                                   ",
"            X         X                                                     X                                                                                                                                                                                                                                                                                                                                                                                                               X       @ @ + X                   X .   X   @                                                                                                     X                             X                                         X                                                                                       X                               X                                                                                                       ",
"                                X                                                                                                                                                                                                                                                                                                                                                                                                                                                           X X X   @   X - M p.I.'.:X|.(.d.T 5 X X X X   X                                                                                                                       X X                                                                                                                                                                                                                           X                                                     ",
"                                                                                                                                                                                                                          X                                                                                                                                                                                                                                       X                     X X X X     ; q.3XdXqXdX0X0XqX0X0XdXdX0X:Xj.g X                                                                           O   X                                                                                                                 X                                                                               X       X                                                                                                                     ",
"                                                                                                                                                                                                                      X                                                                                                                                                                                                                                                             X X X   X X g E.lXcXiX7X:X>X<X>X>X>X8X0X8X0XqXdXdX'.m   . X                                                                                                                                                                                                                                                                                                                                                                                                       ",
"                                                                                                                                                                                                                                                                                                                                                                                                                                                  X                               @     X   - '.VXNXqX5X:X>X>X0X8XpXdXpXfXfXgXfXpXpXpXdXcXQ.o . #     X                                                                                                                                                                                                                                                                                                                                                                                               ",
"                                                                                                                                                                                                                                                                                                                                                                                                                                                                                @ @ X   X -.cXZXvXqX6X>X:X:X<XrXrXtXfXfXjXjXgXfXjXjXdXdXdXcX:X4 @ @                                                                           X             X   X     X                                                                                                                                                                                                                                                                                               ",
"                                                                                                                                                                                                                                                                                                                                                                                              X                                   O           X                                         |.ZXCXcXdX0X:X>X:X<X8XpXtXpXpXdXgXxXjXcXbXcXcXcXdXdXcXdXM X X                                                                                                                                                                                                                                                                                                                                                                                                 ",
"                                                                                                                                                                                                                                                                                                                                                                                                                  X                                     X                       X X # 4XZXVXlXdX7X&X&X#X>X<X1XpXdXfXfXfXjXxXnXxXMXMXcXcXcXcXdXjXdXH                                                                             X         O                   X                                                                                                                                                                                       X                                                                                               ",
"                        X                                                                                                                                                                                                                                                                                                                                                                                                                                                         X 9XZXvXlXiX<X|.].).#X#X<X8X8XrXrXtXfXfXjXjXjXbXMXMXMXcXMXcXdXcXzXT                                                               X                                                                       X                                                                                                                                         X                                                                                                               ",
"                                                                                                                                                                                                                                                                                                                                                                                                                    X                                                           X '.ZXvXlXqX:X:X'.(.].#X&X<X8X8X8XtXpXfXfXjXjXjXbXbXMXMXMXbXjXcXxXcXdXj                                                                                                           X                                                                                                                                                       X                                                                                                                           ",
"          X                                                                                                                                                                                                                                                                                                                                                                                 X                               X                                                   -.ZXvXlXqX:X(.'.(.].).).#X>X<X<X1XrXfXfXjXVXbXVXMXbXbXjXMXbXjXjXMXcXMX0X& .                                                                                             X                         X X                                                                                                                   X                                                                                                                                             ",
"                                                                                                                                                                                                                                                                                                                                                                                                                                                                            X 2 lXvXdX0X:XQ.Q.'.Y.'.].).oX>X>X<X8XrXpXjXVXMXVXMXBXBXbXbXjXcXjXjXMXMXcXcXH.                                                                                                                                                                                                                                                                                                                                                                                            ",
"                                                                                                                                                                                                                                                                                                                                                                                                                                                                              [.CXkXqX:XS.a.S.D.S.U.Y.Y.).#X>X<XtXrXgXxXMXVXbXbXBXVXBXBXfXjXjXjXMXMXMXxXgXj                                                                         X                                           X                                                                                                                                                                                                                                                                     ",
"                                                                                                                                                                                                                                                                                                                                                                                                                                                                          @ v ZXlXqX5X'.p.>.>.j.U.S.Y.Y.).$X>X<X<XrXfXjXMXMXfXjXBXVXVXBXbXjXfXfXjXMXbXjXxX'.X                                                                                                                                                                                                                                                                                                                                                                                         ",
"                                                                                                                                                                                                                                                                                                                                                                                                                                                                            k.ZXdX6X5Xj.;.;.s.>.B.S.D.Y.).oX-X>X<XpXjXjXbXfXfXMXVXVXBXBXVXbX1XbXbXbXMXxXgXdX5                                                                                                                                                   X                                                                                                       X                                                                                                                             ",
"                                                                                                                                                                                                                                                                                                                                                                                                                                                                          @ qXvX0X:X:Xj.;.j.>.,.B.D.B.Y.).).&X-X8XpXdXgXgXtXtXxXVXBXVXVXjXfX1XfXbXbXbXbXfXfXw..                                                                     X                                                                                                                                                 X     X           X                                                                                                                                             ",
"                                                                                                                                                                                                                                                                                                                                                                        X                                   X                                                           X v CXlX0X|.'.r.;.S.a.,.B.D.D.Y.).).oX$XeXrXfXjXpX<XfXxXVXMXMXbXbXfX1XtXbXfXjXbXpXfX&X.                                                                                                                     X                                                                                                                                                                                                                                                                 ",
"                                                                                                                                                                                                                                                                                                                                                                                                                                          O                       O X X X O.ZXqXqXQ.j.r.,.r.h.a.B.B.D.Y.Y.T.oXoX<X<X1X1X1X1XjXfXnXnXMXhXtXuX1X1X1XbXbXfX1XcXfX4 X X                                                                                                                                                                                                                     .                 X                                                                                                                                           ",
"                                                                                                                                                                                                                                                                                                                                                                                                                                                                      .   !.ZXvXlXI.S.d.O.X.,.t.a.B.Y.Y.V.K.Y.Y.$X<X<X<X1X1XtXfXmXbXhXwX1XtX1X<X1X1XbXfX1XdXjX-.X X                                                                                                                                                                                                                                                                                                                                                                                   ",
"                                                                                                                                                                                                                                                                                                                                                                                                                                                                O   @ @ X {.vXvXlXl.d.d.>.,.B.<.,.t.D.T.D.B.V.n.T.<XoX<X<X<XpXjXMXmXuX1X1XuX<X%X1X1XbX1X<X1XfX9.X                                                                                                                                                                                                                                                                                                                                                                                     ",
"                                                                                                                                                                                                                                                                                                                                                                                                                                                                    @ O , lXlXkXiXQ.>.8.w.,.S.U.<.<.V.T.V.n.n.A.K.oXK.K.$X<XfXxXMXbX-X%XtXtX<X<X1X1XbX1X<X1XfXQ.o X                         X                 X                                                                                                                                           X                                           X                 X                                                                                                                             ",
"                                                                                                                                                                                                                                                                                                                                                                                                                                                                  O   + N vX4X6XlXW.8.o.r.,.a.Y.V.n.v.K.V.<.v.K.K./.m.K.-XeXyXsXbXwX@X%X;X1XfXhX1X1X<X<X:X<XdX].: . .                                                                                                                                                                               O z 7.q.g.Y ,                       X                                                                                                                                                             ",
"                                                                                                                                                                                                                                                                                                                                                                                                                                                                  O O O I vX[.k.qX*Xr.8.X.>.,.t.V.T.K.V.<. .e.A.m.m.K.A.XX1XwX;XwX1X1X%X1XnXnXnXfX1X:X<X<X<XMX:X: ; o X X                                                                                                                                                                           P l.7.G.G.g.E.b           O   X     O             X X                                                                                                                                             ",
"                                                                                                                                                                                            X                                                                                                                                                                                                                                             @                     @   @ # B kXz.q.|.|.i.h.+.,.e.,.<.oXoXT.v.$.e.<.X.%.e.e.J.OXOX%XwXsX1X1XfXbXBXMXjX<X:XfX<X<XdX:Xk : : % . X                                                                                                                                                                 X O   6 k.P x 0.3.O.f.h.#       X   X O X X .         O         X     X X                                                                                                                                 ",
"                                                                                                                                                                                                                                                                                                                                                                                                                                                                  @ @ + 2.ZX~.k.u.W.9.d.>. .[ $.,.V.T.,XOX$.v.v. .%.A.;X-X%XV.J.1X%X1XsX1XtXfXhXjX<X<X1X<X<X<X<X:XrXo.. . . X                                                                                                                                                             X     O z.h.x 5 D h.3.7.g.u     X   O O   @ x 3.R b X       @ X                                                                                                                                             ",
"                                                                                                                                                                                                                                                                                                                                                                                                                                                                O X X X B zX Xg.s.j.:.K ' A A ' t.K.L.,X;XOXn.m.x.e.OXsXhXuXL.C.$XwXuXBXmXbXxXaXtX<X$X>X#X-XrXnXfXMX>X: . .                                                                                                                                                               X   @ ,  Xh.x < o.U U n 3.7   + @ # # X 2 q. X4X|.{.M X       O   X       X                                                                                                                                 ",
"                                                                                                                                                                                                                                                                                                                                                                                                                                                                    # b b 0X{.I l.'.:.Z K  .( A  .t.J.;XwX8XuXP.e.K.7XwXuXsX@X4.V.;XaXmXBXmXBXhXyXtX#X#XY.).rXfXpXoXoXo.$ .                                                                                                                                     X                               x 6X~.x y 3.u < y I n   # # # @ # :.9Xk.l.Q.I.~.4 X   X   @                                                                                                                                           ",
"                                                                                                                                                                            X                                                                                                                                                                                                                                                                                     X {.:Xq.6XG.H *XqXr.U | %. .( ( } @.J.+X;XsX$X) v.P.wXwXmXsXV.<.1.OXeX;X-X<XrXpX<X#XoXT.$X1XfXeXL.Y.t.. .     X                                                                                                                                                               L  X3.5 3 b 6 * $ h u X # # @ # # {.lXl.l.'.G.~.B X     @       X                                                                                                                                     ",
"                                                                                                                                                                                                                                                                                                                                                                                                                                                                  # ~.G U 4XE.D :X:X>.Z Z ' | C C C ( %.v.OX$XK.^ ] ( L.uXwXmX,Xe.@.B.).b.o.,.P.yXrX$XT.$X<X$X<XtXoX).,.$   .                                                                                                                                                                   I |.6 # 6 u . = 3 i Y . # + @ X # l.G.R O.K j.E.B           O                                                                                                                                         ",
"                                                                                                                                                                                                                                                                                                                                                                                                                                                                  4 O.4 R 0XW.9.5Xu.n j j r j V i V  . . .J.-Xn.d d d 4.OX@X;X&XX.] ,.t.,.A l [ oX<X-XT.#X-XXX%X$Xm.P.j .                 .                                       X                                                                                                             7 Y ; . 3 < # * : i O.* X # o o 2 9.H 9.D h R 7.4 X       O                                                                                                                                           ",
"                                                                                                  X                                                                                                                                                                                                                                                                                                                                                               6 Y 7 S 6X9.8.5XM j n r r r r x d C ( C 4.+X4.p } ! c x.P.C.i.,.l w w r k J A ,.#X>X<XoX$X#X<XXXV.n.% .                                                                                                                                                                 X   X X # # @ $ 3 * * = * T 7 o o o o h U 5 |.I i T Y #   @   @                                                                                                                                             ",
"                                                                                                                                                                                                                                                                                                                                                              X                                                                                                   # h 2 7 Q.R y.U.4 : ; 3 5 : r u i i i d } 3.c d 4./ ( $.P.n.e.X.r = % t r r k ;.#X1X8X<X<XoXXXT.<.r                     X                                                                                                                                                         @ @ 6 h : = = * ;...; . . X M h D :XD h I M       X                                                                                                                                               ",
"                                                                                                                                        X                                                                                                                                                                                                                                                                                                                           2 4 7 I.T |.I.: o o o . . . & = 3 w y < c a 3.&Xe.e } %.%.x k 0 * : : w : r l #XfXpX<XeX$XY.T.;.. X     .                                                                                                                                                                   @   @ . h D 3 = : u U >.5 ; # 4 U 3 B *XD H :.2     X   X X     X                                                                                                                                     ",
"                                                                                                                                                  X                                                                                                                                                                                                                                                                                                                 2 4 B I.O.qXG.3 X X       X   . * w 3 $ e k n.sX&X} C C < % = = & & = 3 r 0 [ ).tXgX1X<X+Xm.P.d .   X                                                                                                                                                                   X X   X @ # b x = : w r r A 3 o ; r H : M F.i H U .   X     O O                                                                                                                                           ",
"                                                                                                                                                                                                                                                                                                                                                                                                                                                                    X 4 :.E.O.qXh.*     .   X       . * 3 < < F Z.7X;X%.x.} V y r 3 w w r t A d.a.oXyXrX>X%X-X-X^.w .         X       X O       X                                                                                                                           O               X   X O X   T h * < u u : r * * * u 3 * D 8.: B h   X       O < 6 # .       .                                                                                                       O                     ",
"                                                                                      X                                 X                                                                                                                                                                                                                                       X                                                                                                   . b g.h.y.0X7.3 .     X   . X   . ; i w y +.P.cXsXF.P.$Xv.,.A w 8 r w t ;.V.V.`.rXeX%X-XyXeX#Xw .   X   X   X X 2 b 2 1 1 O # > X   # @ @ @   X                                                                                         O         X                       X O X   # k.u = = 3 w = 3 ; - j r 3 * Y y.u 7.u       * I R.F.[.R.D +                                                                                                                                   ",
"                                                                                                                                                                                                                                                                                                                                            X                                                                                                           X             - k.G.[.iXR n =       X . X X ; : 3 i +.d.F.sXmXwX/.+XP.P.A.V w w t A ;.t.Y.-XaXgXwX-XeX,X#X: . X       - 4 2 6 7 z z L N 6 2 4 7 g 7 . 2 g v 4 @                                                                                                     O             O     +   O 2 u.3 * * & = = u r : r j * r g.P n u.j   . x o.k.H.F.R.[.*XP       O                                                                                                                           ",
"                                                                                                                                                                                                                                                                                                                                              X                                                                                                                       2 0.g.6XqX3.S , X         X X * 3 u x +.| S Z.>XrX;XA.J.).+XA.t. .w.%.v.v.oXrXsXMXsX@X$XY.t.: : . . X o 4 g 4 4 N Y Y I N 2 7 7 g 4 2 * @ 7 7 2 X # #                                                                                     X       X   X   X         @   @ X X   B ;.$ & & & $ : 5 r : r 5 = r d.F < h.}.U +.y.x x F Z.F.^.*XG.*                                                                                                                                 ",
"                                                                                                                                                                X                                                                                                                                                                                               X                                                                                 X       X             N q.vX9X7.D 2 * # X . . o & 3 3 u o.o.u $ w } yXmXP.oXsX/.K.Y./.b.&.e.A.eXxXhXmXsX%XL.oX,.$ & * 4 - 4 ; g m g b B I 0.z 2 @ 6 b 7 2 # 2 2 2 B m u B 7 1 X           X   X   @                             X                                 X               X     X       X X _.s.: : & & : : : : ; : : * F S.n n u.F.o.V 3 = < y f.}.`.`.W.x                                                                                                                                 ",
"                                                                                                                                                                                                                                                                                                                                                                                                                                                                        N k.lX3XU n 3 * 3 o .   * 3 r = w S u = % 8 t A.sXA.J.wXOX<.V.m.OXA.T.+XrXBXmXmXMX%XOX<X<.: * o 6 : ; 2 b B m b M B b 6 2 b q.l.9.u.O.I R :.9.7.h B b 2 ; 2 X X - # X X @ @                                                               X       X   X X   X   X X X       2 }.T * ; - % ; : : : % : 3 * U F.y u | F y w w $ * y y.U.^.`.R.S     O                                                                                                                           ",
"                                                                            X           O                           X                                                                                                                                                                                                                                                                                                                                       X           z qXcXG.F Z Z S r r 3 r u j n w i F 3 $ = w $ A /.v.&.+XoX%X/.m.L.P.;X%XwXbXmXuXsX@XXXoXB.J : % 2 h 7 2 7 m b m B 2 7 Y g.G.q.8.q.u.9.9.j.].|.Q.I.q.B 2 3 6 7 g 7 7 @ - b #                                                         O       X   X     X X X X X     @ X X 4 :XU.j r : : - ; o * * ; * * = D 4.x x S < $ w 3 . = y C 4.f.`.`.Y                                                       X                                               X                         ",
"                                                                          X                                             X       X                                                                                                                                                                     X                                                                                                                                                       X         R vXlX9.n Z | Z u S j u u i r y n U u $ * * w 0 B.oX+X+XC.$XwX4. .#.C.OXwXhXsX1XeXT.@.<.Y.B.o...U U T H n M g h h 7 R Q.W.O.D J U K K | 8.s.s.I.].Q.j.T T B 6 g ; 7 2 4 7 @                                                         X O         X       X X   X @ @ X o n _.'.H 3 5 r r : * * - * : * : = U o.Z P n = + * & & = < P e.3.^.F.S O                                                                                                           X                   ",
"                                                                                    X                 O   X                                                                                                                                                                                 X                                                                                                                                                         X     X     X X o :.vX'...F n Z n r u r 3 * & r u i o.j * . % w A t.eXwXwXC.P.&X4.e q E 4.;XsXuX;X;X1.C ^ B.Z.r.Z.G.I.u.Z D T T H H 0.8.>.U D >.w.o.o.+.d.9.r.r.s.d.j.I.l.8.7.H h j Y H h -   X                     X                                     O     O O   @ O X X X @ >   O 0.5Xu.u 5 : ; : : ; * o & * 3 ; : : j i n P 3 & = $ * * * u R.4.H.}.`.x O                                                                               O                                               ",
"                                                                                                  O                                                                                                                                                                                                                                                                                                                                                       X X X   X X # m 5X9.j Z i S Z r : & & . * w = 3 n n * : $ $ i `.&X-XrXwX*X/.n.c w p C &.OXOXOXx.! p C <.V.w.D.W.#X(.F.9...8...:.u.H D Z K r.,.X.o.r.i.H.(.I.B.j.G.'.'.'.Q.9.;.H I G 4 g - 2 @                                 O                       @   O X X   O . X @ - 6 x 0.}.4Xs.7 : ; : ; ; ; & ; & - * * & * 2 : : 3 3 = # $ # $ . $ F 8.| W.2X^.S O .                                                                                       X                                     ",
"                                                            X                             X                                                                                                                             X                                                                                               O                                                                                                           X             X     X X X X - # 4 6 3 9.;.Z u r i r : o . & * : # = * i D o.K : w ' 4.C.3.+X@X/.} ^ P e x p d ! X.@.a / s ^ P.).-X'.^.`.].].d.:.U T 9.>.H F n C X.t.d.A.D.(.].].).:X'.S.I.U.'.Q.~.U.j.>.-.G 7 2 6 2           X                             O           O       O   @ @ X + X X G 0.2X5Xl.Y M 3 3 3 * & ; o o - ; * * * * & : : < = = : # . . . . * S y x P }.`.4.2.$                                                                                                                             ",
"                                                                                                                                                                                                                                                                                                                  X                                                                                                                         X   X   X X 1 g @ @ - ; 4 5 ; M T 3 S j u 3 & : . . # 5 < < S i n h.| F 3.3././.4.4.P.;Xi.y o.i e x = 9 c p p a $.J.oX).-X#XU.Y.(.(.].G.>.:.F U Z o.( o.%.t.A.Y.Y.).U.).}.&X#X_.i.u.8.s.l.I.Q.I.9.8.j # o -                                                         O X   O   . X # H s.9.s.l.:.x 2 : : : ; o o - o - o o - # o # & * * * = # . & & + # + n Y 3 < r F.Z.4.`.3.% .                                                                   X                                                     ",
"                                                                                                                                                                                                                                                                                                                                            X                                                                                               X X X X @ X g g m g m J g M m T U U K V r $ * * . # 3 u u U P w r o.x x 4.c `.&X+XwX+X+Xn.e d d = 8 = 8 q } ( 5.%XOX$XeX#X+X-X&X(.U.(.U.>.;.T +.K K F X.%.,.B.B.d.Z.].&X}._.F.G.u.h.s.9.s.9.I.d.s.:.T m 6 1 - @                       X                       O   O O   + x B L R q.j.-.b S B 3 , < : 2 : ; ; ; o o o # # . o o # < # * . . & . . * & * u n w u $ S F.S R ^.U.F.y                                                                                                                         ",
"                                    O         X                 X                           X                                                                                                                           X                                                                                                                                                                                                                 X 2 g g 4 g h g G g G 7.-.9.:.K M 9.S.U j j 3 = ; & . 3 3 7 U Z w i y.} 3.3.( f.4.+XmX;X-X#X4.4.S w $ y d o.K.J..X@XOX$X;X-XyX&X>X>X).Y.G.u.8.i.8.| F V A o.B.D.D.t.S.^.&X5X#X(.(.Z.8.s.;.:.T T r.j.h.O.H h 4 . #                                           O X   X     , W.*X_.E.9.O.T H h 7 3 < * * # * # ; o # o o o # o X o . * # * & . . * # & & . * u u * n x 0.y.x P 4.4./.F.<                                                               +     O                           X                     ",
"                                                                              X       O                       X                                                                                                                                                                                         X                           O     X                                                                                 @ @ #         X - 4 g 4 h g G m -.7.p.9.9.-.I 9.9.9.T 8.V : : * 3 n n 3 x x i x 3 o.P i.3.x 4.4.3.;X/.w.`.B.o.| = $ < i m.L.C..X@X;XwX%XOX+X-X).&X].S.^.H.i.u.Z.+.| F | ,.<.A.A.(.H.S.H.^._._.}.W.W.G.s.:.8.;.:.u.9.g.q.R b ; # o X               X       O   X     X                 B  X0.O.8.D b u 7 # # 2 2 , # 4 2 # # # # o - - # - # # # * & * * # & * * # & * * 7 3 5 I S F.x $ C 3.`.H.4Xy..                       X           X                                   X                                             ",
"                                                            O                                                 X                                                                                                                                   X                                                                                     X                                 O   O                                       X     @ o @ . X X # . # @ 4 4 7 b j.{.I.:.G G G J :.>.,.-.O.W.D % ; % i 7.M 3 j 5 H n r x y o.F < V 4.3.+Xn.t.F.o.V Z r r w C A.OX=X.X.X1XhX1XK.A.A.D.A.S.S.Y.I.B.r.a.d.d.>.>.+...r.t.U.F.(.(.&X_.j.G.G.W.Q.Q.j.:.T ;.:.>.g.j.9.-.H M 4 # o                                   .           + f.u.P T U J n 3 4 @ * # 2 > # # # # # 2 * o # - o o o o o o & o & - * & * * * * * * : n u b 7.= . u } ^.&X+XF.>                                                                                                                     ",
"                                                                                                                                                                                                                                                                                                                                                                                                                  .     @ X X     X   @ # > 4 6 b b H l.9X'.-.G m G -.;.s.-.h h D (.K 3 ; * 5 D R h : o Z H r Z i K f.y k n.| 4./.,.Z : $ n o.r C ! x.@XuXN.1..X1X=X+X).K./.D.Y.D.B.U.S.d.U.G.G.,.....A ' F J D +.+.i.r.U D Z ..s.d.j.d.G.9.s.8.:.:.9.:.Y -.-.G ; 2   - - X X X   X     X X   X   O       .     D W.T j n j D r & 2 7 2 ; # # + # , 2 # 2 * # @ . o o . o o o o o . & * o o * o * * o * D 7 b b   . i X.e.^.+X3.O O                                                                           X                                       ",
"                                                    X                                                                                                                                                                                                                                                                                                                                                         @ , @ X   # # X @ . 4 #   . @ 7 B g 0.9XzXQ.-.G -.-.-.>.-.J j 4 h r h...: : # # u -.M ; 3 5 n 2 : n O.3.u i o.y V o.u * = . w F 8 k ^ &.OX;X.X1.1.XX1XyX%XY.Y.P.U.Y.U.S.r.u.(.).d.+.8.d.w.o.F Z S n Z K :.8.D n j B J M J 9.9.u.s.-.;.s.9.T ;.9.:.-.J m ; 1 # X @ - X             +   O X . . : u 3.y.U D n r : ; # 2 4 2 # # , 2 * 2 2 4 2 , # @ @ o o o o o - & & & * * * * o & * : @ 5 R 7 n 2   . D X.4.F./.P . O                                                                                                                   ",
"                                                                                                                                                                                                                                                                                                                                                                                                              O 2 1 2 4 4 g h g ; 3 2 2 4 6 b 7 G 4XkXE.-.-.:.p.-.G m g h u 5 ; 3 W.8.3 : : * * 7 g o o 2 - . : * n y & < n x i r : = w . 8 V V 0 / c.@X1XXX1.1.N.L.%X+XK.D.<.n.V.U.B.t.B.].U.;...U X...U D i Z U K J u.G.8...>.>.K B n m J U T -.-.>.j.j.u.s.s.s.g.9.-.Y I g 1 2 4 4 X X   X           * 8.s.U n n n Z u & * ; X X # @ X X # 2 # # 2 # # . . # - o - - . - : ; - * : ; : ; * * * # @ 7 B h B X   . j O.3.`.&Xx                                                       O                                                               ",
"                          X                                                           X                                                                                                                                                                                                     X                                                                                                                   # 2 g 7 4 6 b B L m b m 7 v 7 I ~. Xl.-.G -.>.-.j h r 5 h r 4 5 j |.>.j j : # . # 7 2 + # ; X # X 7 2 * < X * * . . $ * = y Z.o.f ) XX=XwX@X<.#.b.&.V.T.T.Y.B.B.B.B.r.r.h.#XU.B.U F D n U o.| U T k K s.H.H.d.y.d.9.T J M B J U J s.:.j.U.I.j.:.8.s.:.s.I.'.z.j.q.:.B g 4 - X X +     . 8.j.U j u : 6 u : . o - X # :.!.0.N 7 , * @ 2 * - # # # o . o o o - * ; & & * ; # * o # ; > # B 7 b z   . . = i P P.`.i                                                             O                                                         ",
"                                                      O         X                                                                                                                                                                                                                                                                                                                                           # # X X 7 I -.7.6.B B b 6 m b b B -.k.-.9.p.-.-.M h g 5 h j 4 4 ; : 7.iXw.Z Z u ; - # - # , x 4 - . - B # . 2 . b u   2 * . = F P.4.` =.@X;X@X.X#./ ) &.x.V.V.A.B.t.B.e.B.G.&X`.B.u.' J A T >.8.+.8.>...d.o.h._.H.>...>.r.;.8.9.D n M :.>.:.l.j.s.9.s.I.Q.l.I.'.{.'.l.Q.'.~.p.j.-.4 # X X r Q.V n D 3 = ; . o # X   . g.E.Q.z.!.s.0.R 7 @ 2 . + @ o # - o o & & & & : : : : * , 3 4 ; + > B g B #       * i o.&X*Xb . .                                         X                     X                                                   ",
"                                      X                 X                                                                                                                                                                                                                                                               X                                                                               X   1 2 7 G g.!.q.6.-.Y N 7 2 2 7 L N B Y 0.{.j.G m g h 5 h 5 h g 5 ; ; u.0X>.j D n : : 2 4 X @ 7 4 2 2 # 7 X   2 7 I u * n = . $ P n.5.#.J..X;X.X1.*.) C @.b.v.t.t.X.,.X.w.t.H.&X_.,.B.w.w.i.>.o.+.>.U O...Z.i.S.-X>XU.d.u.U.I.r.d.9.M j J j Z H 9.I.U.h.j.~.I.a.|.:X5X].Q.}. X'.I.I.z.q.M . M G.j 5 3 * .     X     o l.[.7.R p.k.0.q.-.b b 7 2 2 # * ; : * ; : - ; : : * 3 ; 4 2 6 2 O   . 7 7 x +     . 3 S o.H.*XS                     X                               X                             X                                   ",
"                                                                                                                                                                                                                                                                                                                                                                                                        X   # R ~.g.Y R L m B N N b 7 2 6 z m Y 9.j.p.G 4 g g 4 : 3 5 h g ; o - D (.o.F Z Z r 5 - 2 . X 2 > z 7 ; 7 X   2 4 I x : n 3 $ i  .x.b.L.@XC..X1..X_ ! d l X.&.X. .[ o.' F ,.D.).P.t.t.w.,.i.r.i.H.Z.U.S.e.B.Z.S.(.&X^.Y.Y.d.G.d.>.;.:.-.J h G J H I.'.j.d.d.U.U.I.Q.Q.'.|.:X|.:X:XQ.Q.|.~.8.h.T * & . . . .         Y 4XQ.q.7.q.z.7.m 2 7 7 . 7 u # @ ; * * - * - ; : ; ; - : # 1 @       @ 7 4 #         : P S U W.D                                                                                                                       ",
"                                                                                                                                                                                                                                                                                                                                                                                                    X # X N ~.[.g.B g g v g 4 g b M 4 2 4 b Y s.:.-.B 7 4 7 2 # ; 2 g h 6 - . # * >.:.K i j j H 7 6 > > 2 # 7 6 @ 7 , # 2 < x 3 * < y y %.v.P.T.1X=XN.N.N.J.` f s k A X.' A [ A V F w.Z.Y.D.,.K A Z Z H t.F.H./.Y.r.o.X.i.w.V.H.&X&X_.(._.S.8.T :.K h g h H -.U.'.'.I.9.w.d.;.s.s.j.U.I.'.'.U.I.Q.Q.U._.9.6 o               # 0.l.p.Y L L B z > 6 z # , N , O X ; - . . & & * : 7 h Z h o X   X     # 4 @ X         u O.n F 8.7                                                                                                                       ",
"                                                                                                                                                                                                                                                                                                                        X                                                                     O - 1 @ - 0.qX~.7.I b b m b b B m h b b 4 b B B H j h h h 7 2 ; 2 2 5 7 7 * # o # * : | K i V n o.n 7 # < < @ 4 < # 2 # # 7 # 7 m % w | o.L.A.OX@X1XXX1.N.L.5.) d e e d s k r t V A A  .,.D.i.( ' | F Z C o.y.y.n.F.X.P A %.i.w.t.U.W.Z.h.d.8.U ;.s.9.J H I >.:.8.'.7X:XG.Q.U.h.G.r.>.d.s.;.:.:.Z -.U :.j.l.U.G.:.R 3.2.I I I B b b N 7 x > 1 > 6 Y 6 # N 7 + . # o X . . . . . 3 H B :.m o @ @     X 2 #             7 H U o.D @                 X                                                                                                     ",
"                                                                                                                                                                                                                                                                                                                                                                                          X 1 4 g v 1 Y 9X2Xq.I 7.H m g 7 b G m b 7 g h b b 7 7 g 4 h 7 4 2 2 ; 2 4 5 4 2 # X X   + 5 j x x y P n 3 < 7 6 # N x * 3 * + # # N O.S F 3.n.$Xm..X@X=X1.{ 1.M.#.a q e 0 w e 0 0 s t k F | ,.d.e. .' o.F i i i C S k V A i V A | | F K  .K D Z n V n G H J K -.T B Z T Q.I.r.S.U.'._.G.d.'.I.9.s.9.T B T G T ..d.u.s.k.E.z.k.R.l.:.B z N R D 6 > O N x   # 7 +   + * . # . . . o . : Z j G h   X X @     2 @       X   X 2 3 u b 3                           X                                                                                             ",
"                                                                                                                                                                                                                                                                                                                                                                                          - 7 1 6 2 L 6X~.0.I G B B M m 7 4 b b 6 2 2 2 7 7 7 7 2 g 7 6 g 7 ; ; 2 4 ; ; # X . . . . * r Z n y y i S 6 y x u | D w 3 * # * , F F.o.C } e.OXT.;X;X.X*.1.*.1.#.a q s s e t w k 0 w e S X.+.e.' V k X.+.| | | F C F C A A V V d j k Z A F Z n F j h h h 5 h U T T ..:.a.d.d.r.r.I.S.d.S.j.Q.'.Q.I.I.U.d.:.u.8.s.8...0.q.3.Y I I B u + 3 b x z 2 L I X X 7 * X X . # # & .   o ; o j h 4 j 4 o - X @ @ # -     X         2 * 7 r #                                                                                                                         ",
"                                  O                                   X                                                                                                                                                                                                                                                                                                             X     4 1 1 6 z ~. Xp.H m g b B b g m b b b m 6 ; 2 - 2 6 2 2 g g 7 6 4 2 2 4 4 1 6 # X X @ @ . & < x S y 6 S U x w y S | +.n F i u F | o.f.C f } L.=X=X1X=X*._ *._ #.5._ E ] l e 0 l [ k i i F o.o.X.F F F S F A P o.F i x ' A i r i j F j V D Z S K M 5 3 5 j j m K s.I.I.:X5X:X:X:XI.U._.W.S.d.Q.Q.I.j.U.:X:Xj._.|.U.s.s.h.l.g.3.O.m 2 7 2 & & # O L 3.6 @ 7 7 @ X X # # o #   X . . - j x 7 -.; - 1 X O O @ @   O     O .   2 6 7 *                                                                                                                           ",
"                                                                                                                                                                                                                                                                                                                                                                                        6 6 6 v N !.!.q.0.Y b B G B B H I R Y B v 2 2 # 2 2 2 6 4 4 4 4 2 1 2 2 2 2 6 2 @ @ . @ # . @ # < 7 7 y r P x < x y S x V U i F u.O.k V E _ m.XX.XuXuXM._ *._ *..X5.*._ / E / @.$.] [ l i d X.+.| d V V i y w y Z F +.4.+. .[ ..Z o.| Z r i i j n Z j j j J -.H G :.s.s.Q.5X|.:X5X_.s.W.W._.5X*X}.|.*X X|._.Q.j.G.s.I.I.u.q.q.O.Y b 2 , . # # 6 7 Y x O ; M ; . @ . ; # . .   X X . o j n i Y # 2 2     O X   X @         2 7 2 7 @     X                                       X                                                                             ",
"                                                                                                                                                                                                                                                                                                                                            X                                         X 6 v g 6 p.2Xz.z.g.B B B G B G Y -.T Y G b 7 4 7 2 2 2 6 7 4 4 6 2 > 2 4 1 2 4 @ X @ O O @ X . & # < x u x P i < x i F F y u < y P P i c Q #.=X.X.X1X=XM._ _ 1.1..X.XM.M.x.@.] ) { <.( t t s X.o.C i i u 3 y w r n F +.>.t.X.+.X.| F Z n n n Z Z h r h j h 5 h j m H H H T s.G.s.U._.:X*XW.`.5X*X'.'.0X7X:X].s.d.G.G.U.(.S.y.k.y.U N 3 , @ . 2 7 N I , O 7 4 . X * @ . # . . X   . ; * h m 7 N @ # -   O O   @ @ @ X     . 6 6 , +     X                                                                                                                       ",
"                                        X                                                                                                                                                                                                                                                                                                                                           X # N N N p. XE.0.0.B m m m b b G M H I M b n b 7 7 1 - 6 2 2 2 6 1 2 > 2 > - - @ X   # X O @ X @ # . + 3 < y P k x y < V x y u < i V d e c E *.XX.X@X=XM.*._ Q 1.*..XC.N..Xx.{ / ) %.v.X.k i c o.} x w = $ 3 = 3 r w 3 j u F F k j Z n w h 7 u j h 5 r h K H G G I H H K >.;.T ..Z.I.d.Q.U.}.U.]._.G.U.].].W.Q._._.d.S.u.S.i.0.u.3.B 7 2 3 * - 7 , I I 7 * 7 ; . # . @ ; o o @ X . ; # : n u N 4 # 2 #   O   O   @ X     @ # 6 , #                                                                                                                               ",
"                    X                                                                                                                                                                                                                                                                                                                                                               . 4 G m Y  X!.Y Y N N m G N M J G M I K H M n n h 6 7 3 7 3 2 # # 2 # > 1 1 - X X X   O O O # @ @ @ + > # % < S V x y y x = < y y F C C 3.) ! &.L.OXN.M.*.*.*.*.#.#._ *.*._ f Q } c ^ / F c d o.o.8.n = $ * < 3 * o 3 3 r r : w j n V r j h 5 : * * * : j j H Y 7.Y m g g M m j h J D V J Z r.].`.4X:XW._.{.G._._._.}.(.W.W.F.r.:.M 6 , , # # ; ; 6 R R 7 ; : - - - # - o X . o @ X ; o # S D L 5   # 2   X O   X O   X X   # 6 4 +                                                                                                                               ",
"                                                                                                                                                                                                                                                                                                                                                                                X   > 2 v v -.l.6.6.L z v m m m G m j B H H B M M M h h 7 7 g 7 4 @ # > # @ 1 # @ X       O > > # # # * + + # + $ 6 y k x F x % $ = < P c C 4.#.$.M.;XOXQ ~ *.5._ M._ Q *.5.Q Q a a c a d i c c X.e.+.o.y = . . . . & o . & o & : 5 r r r u u u 3 3 * o ; * - ; - - 4 4 2 ; 4 h 7 3 7 j n n j : w n n F +.+...8.F.u.f.h._.H.W.G.F.r.U b 3 4 + # # # 2 7 B M 3 ; 4 6 ; - # o o o X X X ; 2 ; 3 n B L , + @ +             O     O 2 2 #                                                                                                                                 ",
"  X                                                                                                                                                                                                                                                                                                                                                                           X > # # m v Y g.p.L N m v G m v h m j j h B m j j M h g 7 7 h 7 7 4 , # 1 # > 1 # X     X @ @ > > + # * * + . > + $ < y 5 y 3.F $ < $ < d y d } } N.L.@X#.q a =.M.*.*.Q Q *.5.*.*.#.Q c p } V c x w.w.w.A $ * .   . . . . o . # ; 7 h h r 3 r 5 5 h h 4 4 : - o # X - - - g m m m H T ..;.y.h.r.o.o.+.F F | u.O.O.O.O.P U 7.8.i.y.+.+.8.h # @ + + + # 2 b u 4 # # 4 3 ; ; . # o # . . X 3 * # 6 x b x B , @                     + 1 2 X   X                                                                                                                             ",
"                                                                                                                                                                                                                                                                                                                                X                                               ; 2 > b v l.E.q.L N 2.Y b g g g g g g h g g m M 7 3 4 ; 6 4 4 4 4 4 2 > # > # @   X X   X @ # + + . # . + & + $ < < % x y F F < > < e d ! 5.L.OX;X;XJ.9 9 E &.*.*.*.E E _ *.5.M.5.#.5.4.$.} d F e.X.>.j w w 3 3 2 & . . o - ; ; 4 : : ; 5 5 n h h h 4 ; o o o - X o - g 4 j j b K 8.O.K Z U +.8.| 7.3.%.u.+.8.f.y.u.O...F +.w.+...I n 2 # . + + + @ * 7 ; : ; # ; ; 3 2 ; - # ; . X . 3 & * u B 7 2 7 O X                   O # > O                                                                                                                                   ",
"                                                                                                                                                                                                                                                                                                                                                                              X . @ 4 1 v p.7.L I Y 0.B 7 6 6 6 5 5 g g 5 h h 4 ; ; ; 4 4 7 g 7 7 7 2 < # 1 @ X @ O   X   O O + + . # < & # # $ < * $ < i A +.w $ $ y c 4./.@X@XsX1X) % 9 a #.{ E #.Q E *.#._ *.` 5.C.5.} / c 3.o.3.V < r j M j h h B M h 3 5 ; ; - # ; 4 g h g ; - - o o o o o o - - ; ; ; - 2 3 h M K F Z F D S F | D D o.U o.>.+.O.o.o.U Z Z S b 3 2 X   O . X   + , # # - # - 4 : ; - : # # @ o * 5 * # u b 1 X O                     O @ O                                                                                                                                       ",
"                                                                                                                                                                                                                                                                                                                                                                      X   X     . X 6 v -.-.m 0.L N N 7 2 6 7 g 4 ; 4 5 5 7 7 g 4 4 ; ; 4 4 7 6 6 7 7 2 , @ O @ X       # + O + X @ # # # + + $ < < $ $ i i y.x < y } 4.4.5.5./.;XP.q % 9 0 / ` E _ 1.a _ #.*..X5.Q #.4.c ! 4.4.^.e.w = $ $ : : . & ; 3 5 ; o o - 4 ; # - ; ; - - - o o - o - - @ @ o X - 2 2 2 4 : : u r y i Z D D S Z n Z | ..D S F F S F S n M 5 3 * .     X +   X + 2 , # * 4 4 - ; # # ; 2 * ; r r 3 u x 7 4   X                     # #     O                                                                                                                                   ",
"                                                                                                                                                                                                                                                                                                                                                                          .     2 2 2 b E.Y Y 7.b 6 4 2 4 4 7 4 5 5 5 g 5 7 B m g 4 4 4 h 7 7 2 6 6 6 2 2 @ + +   X + O # + O O 4 * # * + $ * & 3 < $ = * 8 F k y x } 4.( 4.C.4.v.@.8 8 8 0 ^ <.E E 1.#.a Q N.@XN.#.#.#.c q 4.m.D.| 8 = : : j F J j : # - - - ; ; - - ; g 5 2 - - - o o o o o X - - - # # 2 2 2 2 ; 3 7 5 3 7 r i h n S i j S D V n S D h u 3 * 2 * * + X         O X , 2 * # # 4 4 ; 2 ; ; ; ; ; * u 5 3 b M M X                     O   @ O   O X                                                                                                                                   ",
"                                                                                                                                                                                                                                                                                                                                                                              @ 1 2 z p.l.6.I N v 4 2 7 2 - ; 4 ; 5 4 ; 5 h h h g g g 7 h 7 2 2 2 2 2 6 4 2 @ # @ X O @   + > , 2 2 . # # # $ 3 < 3 * . % 3 V w < d y y q c c } %.l 0 % 0 0 $.{ q 9 E C.*.Q *.XX5.5.5.c p ) m.v.e.d d d +.i.S.^.U.r.a.;.J j 3 : 5 h j h h 5 # : ; 4 o - - o o o o # o @ # X . @ - 4 o # * * 3 3 : : r i u 5 5 6 u u u w 3 * # < & + +   O X + O + @ @ O 2 , - 4 4 4 2 2 * o ; * . : r : h Z h u #                                                                                                                                                                     ",
"                                                                                                                                                                                                                                                                                                                                                                            O 2 4 # x !.7.L z v v 2 7 6 1 2 4 7 2 ; ; ; 7 g h h g g h g 7 x 6 2 > 2 2 , 6 6 , + +   X   O > 6 , * @ O # & . $ y < 3 < $ * $ y y 8 x i e 8 8 9 q ^ k = % 8 p <./ 9 9 9 &.wXQ Q #._ ` 5.~ } 5.5.P.<.! k  .t.e.H.H.>.o.h.y.J Z n J 8.R U D g 5 g 4 ; X X X . @ ; > # # X   @ # # # . X @ . . . # # * ; * < 2 * 2 : * : # * ; # #   X X . X X . X   .   X . # - ; 2 2 2 ; ; . # # : o 5 r 5 n D b 2 #                     @                                                                                                                                               ",
"                                                                                                                                                                                                                                                                                                                                                                          X + X > 1 m 0.L 6 B N 1 4 6 2 2 6 7 1 # # - # 3 5 7 5 h j h g z b 6 # > # > > 2 4 2 # X X X . + # > O @ . @ . @ # , y = 3 < . = $ * 3 % % < % % < % <  .p % 8 8 p { ] 9 9 9 f @X.XQ 5.5._ } ~ 5.5..XOX@.X.Y.e...e.).Y.Z.w.+.U O.i.r.:.:.H n h 7 g 4 - X X   X .   X X @ .   @ O X   X X .   @ # X . o X # o & * * o . * * o # X . + # X . X X X   X . o X X X . X 2 - ; ; - . - - o # * 5 r n h 7 7 7   X                   O O                 X                                                                                                                           ",
"                                                                                                                                                                                                                                                                                                                                                                            #   2 2 B R N v B 7 2 1 # 4 2 6 4 1 # # # # 6 7 5 5 g m m g 7 z , > > , # > , 4 3 2 # . X # O O O O . # X . . . 3 3 & 5 = & & $ < y < > $ $ % $ % e v.w 8 % % p ! ~ p q q q #.=X@X5.5.~ a a 4.C.J.m.,.$.<.X.X.%.%.F X.F V Z w.s.9.J j g M h h 2 -       X               X @ # @ X X   X     X X . @ X X . # X X X X + @ X X . X # , # + X . . . . # o X   . @ o ; 4 2 ; # # ; ; - X ; ; b B 7 ; # X                 O                                                                                                                                                     ",
"                                                                                                                                                                                                                                                                                                                                                                          X # 1 # b g.I 7 6 7 2 6 1 6 2 # 2 > # @ > 2 4 4 4 4 6 h h g g 7 7 , @ > # # + , # 2 2 2 2 + @ + O O + # @ . . X . 3 * . < 3 . & $ 3 i $ $ . $ $ % % 8 %.e $ = 0 k 0 l s q d q p 5.wXXX~ _ _ 4./.=X5.4.{ <.D.).).v.e.X.w.+.i u H Z B M h B j h 4 X X X X                             O X X .   X X X X   . X   . X X o . # # # # # @ # > # @ - . X @ @ o # X X o o ; # ; ; o ; ; ; o o # # u 4 ;                     X                                                                                                                                                       ",
"                                                                                                                                                                                                                                                                                                                                                                    X     @ @ 2 2 x 0.N z 6 @ 2 O 2 v 1 # > # # > > 1 6 2 2 2 7 g h g 7 7 v 6 # > O @ . # # # 2 6 3 2 +     # # X . @ + . * 3 o   * 3 o . . 3 u * $ . . + * $ < %.e % % w / p 4.f t t e p p .X=X.X` L.@X@XOX4./ <.A.Y.#X#XA.<.T.#Xy.F K D j b n H g 5 4 X                                           X X @ X X # X X @ @ o # o o - # - * * # # # , # # # O + > * . o X X @ . # # - ; o o o # o o # 2 7 6 X                                                                                                                                                                             ",
"                                                                                                                                                                                                                                                                                                                                                                          O 2 z z 0.R b N # 2 # > 6 4 @ X O > 1 > > 2 > > # 7 7 g g 7 4 b g 2 1 # @ # # @ @ 1 * 2 3 6 2 + + . @ + . # . * r o . . . : . . * w 3 & $ . . $ & $ w 3.w 8 8 C c d } C p % q p f @..X.XL..XXX@XL.m.OXA.V.v.v.,.,.t.U.Z.X.>.O.h D R J j h 7 .   X                                               X X     + @ # X X o @ @ # @ X # # * , * # + # # # @ + - - # . @ O . # o ; - - . o - - 2 2 - @   X     X       X                                                                                                                                                             ",
"                                                                                                                                                                                                                                                                                                                                                                X     X   X 1 v z 0.Y 7 6 > 1 # 2 z 1 > # @ 1 # @ # > 1 # , 6 3 5 7 ; 4 7 g 1 - # > 1 - # o o . @ ; 2 3 2 # # # @ # X . 2 < .     X : o o & 3 u = * $ $ $ . . % S % $ d @.c q p ! C q q ! ~ *.C.OXN.C.m.x.c.OX&XT.Y.T.^.t.i.Y.(.w.D S n :.8.:.M g 5 o       X                               O                             X               X   .   X     X     O @ # # - > # @ # : - @ o o o o # 2 1 @                                                                                                                                                                                 ",
"                                                                                                                                                                                                                                                                                                                                                                          @ 2 2 Y k.L 7 1 2 # 1 6 2 @ 1 O @ # # # # > # > 4 2 7 2 ; 4 4 2 4 2 1 > 2 2 > ; # . # # . , 2 u 7 * # # . # # 2 @ .   X . : : . * & i = 3 3 $ . . . < < . % y C } p p / 4.C ! ) ` C.5.N.5.J.C.$.4.x.x.n.V.P.t.,.X.>.X.F o.O.8.u.>.U B m - X                               X                                                 O                             @   @ # 2 1 2 2 - - - o o X O   O O                                                                                                                                                                               ",
"                                                                                                                                                                                                                                                                                                                                                        X       O         @ 6 B p.p.N b z 6 @ 2 @ # , # X O # > @ # # 2 7 4 7 7 1 # > 2 # 2 2 # 2 1 # , @ + @ O # @ + * 4 7 6 3 ; & ; : o .   . . . 3 * $ . 3 < = < y $ .   . . $ . $ 8 c C.c 9 4.C.} q E ~ 5.=.C.J.&.( ! ] <.<.[ [ ;.^ [ J T [ >.j.a.s.j.s.T h 4 .                                                                                                                         O @ # # > # @   X                                                                                                                                                                                         ",
"                                                                                                                                                                                                                                                                                                                                                                @   X   @ # L k.2.Y L 2.g @ 1 @ @ 2 X   # # > @ # @ . # 1 2 6 2 > 2 # # # * @ # # 1 # + @ @ @ > + # # # * 2 7 i r : ; ; o . X o o $ < r < = y w $ . u x $ . . . . . $ = d C.) 8 c L.5.` ) ~ ~ { &.4.! s k l ' l J J [ ) l ;.a.j.d.a.9.,.s...M 3 X X                                                                                                                   X                 X             @                                                                                                                                                                               ",
"                                                                                                                                                                                                                                                                                                                                                                  @ O # X m k.l.q.g.I L 1 @ 4 1 , #   X @ # # @ @ + @ @ @ # # @ > # @ # 2 > # # 1 # @ @ # @ # # # @ # @ * 2 3 6 h h : * * . * . . . * S < = y w % % y +.e . . $ + . % = w 4.4.q q 5.5..X5.! } &.! f s l ^ ] ] [ ;.1.<.,.D.S.B.Y.B.s.s.r...j h ;                                                                                                                                             O                                                                                                                                                                                         ",
"                                                                                                                                                                                                    X                                                                                                                     X                               X             Y E.-.6.0.7.z 2 @ @ 4 2 # .   X O O O # # # @ @ # . # 2 > # # > # # 2 2 # @ @ + # , # * , 2 * 2 o : 3 3 r h h h : 3 . ; & & = u < $ w x w % < } A $ . . $ . $ = q @.OX5.a Q 4..Xm.M.) ! f d )  .<.m.<.<.D.Y.D.Y.D.<.B.a.>.r.a.T M j 3 X                                                                                                                             O                                                                                                                                                                                                         ",
"                                                                                                                                                                                                                      X                                                                                                                           X X     X X X O O O N ~.p.Y 6.L b 2 # 2 1 6 # @ @ . X @ @ @ # 2 @ # @ # @ - - ; - 1 # # + @ @ @ @ @ @ # # > 2 4 4 , = 2 3 3 i 5 h r h r j 5 : & $ = i y 8 d 4.e < w c n.c < . . $ % 8 c ) C.L.a Q #.#.4.5.c a s ) m.L.T.m.,.,.a.<.a.D.Y.Y.I.a.a.;.H h h 5 o                                                                                                                       O         O               X                                                                                                                                                                                       ",
"                                                                                                                                                                                                                                                                                                                                                              X   O 6 !.6.6.Y p.N b # > 6 1 #   @ # @ + # @ # . # > # ; @ # ; # # @ @ # #     O @ # # 1 2 ; 7 6 7 7 7 6 3 w 3 5 3 ; 3 5 7 j j u w u y F c w x } c = c C x.3.= $ . $ % e ! ~ #.5.Q q ` 5.} ~ f f x.<.m.m.V.b.K.XXV.D.).).D.j.,.;.;.Z j h h 4 . X X                                                                                                                       X                                                                                                                                                                                                             ",
"                                                                                                                                                                                                                                                                                                                    X                         X         X X     @ @ 0.6.N p.p.p.B b > 1 1 @ X @ > # X X # X . @ @ * # # # - > 2 @ X @ # +   O   @ # 1 1 2 2 7 h 7 7 u x 3 7 : ; ; ; : r 3 r 3 w j C V F V d d k c % e c ( } } y w % < e } ` ) 5.5.~ ~ 4.Q p q ! <.4.$.] ,.1.$X$XY.D.Y.S.a.,.a.s.;.k j j 7 - .                                                                                                                                                                                                                                                                                                                                         ",
"                                                                                                                                                                                                                                                                                                                                                    O       X   O -.z.0.0.k.6.v I v # # 2 # @ 1 > @ O X X @ o . @ @ # # # # # # . @   X @ @ @ # > > 6 4 2 2 4 3 7 3 7 5 3 * : 3 : : : : r r r r i V C F 4. .( v. .^ C @.&.c %.C < < c c c #.~ ) 5.` ! ~ c / ) ) ) $.<.) ) <.K.V.,.,.a.,.,.a.a.;.J -.Y h : ; .   X                                                                                                     X                         O         X                 X                                                                                                                                                                         ",
"                                                                                                                                                                                                                                                                                                    O                                               X         @ 7 ~.p.I p.p.2.L Y v 6 g 2 # 1 6 # #   @ # # # @ 1 # @ > @ 1 # O @ . . . X X # 1 # 4 6 3 7 6 5 7 3 5 y u 5 5 : * r r r r 3 3 w 8 w w i k  .X. .<.5.4.v.$.&.! c t 8 8 k c } c.5.@.` s 9 ! { / { l E ) ! ) B.B.V.<.;.V.1.a.D.,.;.[ ;.>.-.h 4 - X     X                                                                                                                     O                                                                                                                                                                                                             ",
"                                                                                                                                                                                                                                                                                                                                          X               X   @ Y l.0.0.z.-.N L v g v 6 # 1 z 1 @ @ O > @ @ # @ @ # @ O O @ O O X # . @ # - - 2 ; - 2 2 3 6 ; 3 7 5 7 5 5 h 5 r j j r w : : y w 0 0 i s t d ^ / C / $.) C.b.f e = = 8 d ! } ` c / p l l { ^ { <.@.$.1.V.<.1.;.,.1.B.,.j.,.J J ;.>.:.J j g - X                                                                                                                                                                                                                                                                                                                                         ",
"                                                                                                          X                                     X                                                                                                                                                                       X                         X     @   X 4 !.k. X6X6.v 4 6 4 1 1 # # > 1 @ O @ 2 @ @ @   @ @   X O @ @ @ # @ # O O @ # - 1 2 2 2 2 7 g 7 7 7 7 y u j j j j r 0 : : r w i t w r 8 w e e 0 s p q p W #.#.! p 0 9 c p p p q 9 9 p 9 q ^ V.N.1.$.&.V.J.1.,.,.<.;.;.,.-.j j [ ,.;.J h g 5 o                                                                         X                 X                                   X       X                                                                                                                                                                                                   ",
"                                                                                                                                      X                                                                                                                 X                                                           X                         X     @         Y l.z. X0.6 4 6 6 - 1 1 1 1 # @ @ X @ > > #   @ @ O #   @     @ # # # O @ # X # # # ; 2 6 2 3 4 3 5 h r 6 5 5 h r : : * : i i y i k k w w 0 0 k l f c ) ~ _ 5.5.&.p 9 p p c @.~ #.E E p 9 E 1.J.<.) @.&.<.{ ] ;.{ [ ;.J t r J -.-.J J h j 4                                                                                                           X                               X                                                                         X                                                                                                                       ",
"                                                                                                              X                                                                                                                                                             X                                                                       X     X - l.4X{.G 6 1 4 1 6 v g g b g - # @ # # 2 1 O O @   X O @   O @ @ @ @ # @ X @ # # # - o - - - - - - ; * ; ; * * ; : : r r j V j j d j k t 0 8 0 t l ) ~ Q Q #.c.M.J.&.a 9 9 ) *.1.1.1.` E p 9 _ 1.1.1.v.<.<.1.;.;.;.[ t j k J ;.;.;.X.K j 7 o                                                     X                                                                                                                                                             X                                                 X                                                                       ",
"                                                                                                                                              X       X                                                                                                                                                                                 X           X     X Y [.4X-.4 v v 4 v L m v m B 7 @ > 1 2 1 # @ @ @ @ # O # + X @ @ @       O @ @ # @ # o # ; # - - - - o o - - * * 3 r r j i r i i k d 0 t j k s k ! ! W W *.M.=.M.1.#.1.E a l W _ #.*.b.c.b.L.1.{ { $.m.N.<.1.1.;.,.;.k j j -.a.J ;.;.H B h u X                                                                                                                                                               @                                         X                                                                                                                                   ",
"                                                                        X                           X                           O                 X                                                                                                                     X                     X                                       X                 X 6 ~. X-.1 4 N 6 z N N g b B 7 - - 2 7 1 # X # X # @ X X + +   X X         # > # . # 1 # - 4 ; - - - o 3 ; ; 5 r 5 h j j j r r j V A V s k k k t s l l l W *.*.*..X.XN.M.$.W ) =.@._ _ _ _ *.M.1.1.^ W { { <.] [ [ J k t j ;.;.J ;.;.;.j h h 3                                                                                           O     X                   X                                                                                                                                                                     X                       X       X     X             ",
"                                                                                      X                                                       O                                                                                                                                                                         X                               X z.kXq.1 1 6 6 v L N v b g g 1 2 1 4 2 # # # # # o . @ X X + X X           O 7 # @ @ @ # o - ; 3 5 4 4 g g h h j h j j j k n j i i i d t t k l l ) ) { { #.*.*.*.M..XN.1.{ f a ) ~ E a E E W W E { W W ] ] X.^ [ ' s A k J ,.;.-.J J j h j u @                                                                                                       O                 X                   X                         X                                                                                                                             X                                         ",
"                                                                    X                                                                                                                                                                                                                                                                                   L 9XE.6 @ 2 # 7 b N m B 4 3 2 7 4 : # ; - 2 # # X X - X X X # # O           @ N 7 @ # @ @ # # ; ; 2 4 g 5 m 5 5 r 5 5 5 u j i u j j i ] l k t t C $.$.b.m.c.L.XX5.*._ #.) a q 0 a l { _ ~ Q ~ _ { { 1.{ l l ^ ;.<.[ [ ;.,.B.a.;.J J J h h j g X     X                                                                                                                                                                                                                                                                                                 X                                       ",
"                                                                                          X                                                                                                                                                                                                 X   X                                                   X 7.6XE.N @ # @ 7 b 7 7 N 7 4 6 7 h ; # ; 4 # 1 - @ X @ X X X . # @               g N 2 # # @ * * ; # o - - 4 g h m M M h h n j S Z C S %.B.V.,.k k C  .` ) ) ` =.5.*._ _ *.! E s p p s ~ ~ a E _ *._ { <.^ l l [ ,.[ ;.;.;.B.,.,.J J [ h : j g -                                                                                       +                                                                                                                                                                                                                                                         ",
"                                                                                                                                                                                                                                              X                   O                   X                             X       X                   # Y g.{.qXY # 1 1 2 b z z m g 6 7 g b 5 ; : 3 ; - - - X X X X X . # # O           O   7 6.v @ # 2 # - 2 - o o - - ; 4 5 j j h M n j V Z n n J X.t.;.l s q s p q p p f #.#.#.5.#.@.! p t s ! ] ] { ~ ~ / W l l s l ^ 1.,.;.1.a.a.,.;.k M J J r r h h X         X                                                                                                           O                                                                                                                                                                                                                           ",
"                                                                                      X                                             X                                                                                                                                                                         X         # @                   B q.~.q.~.l.1 1 - 1 b z 4 z 7 7 7 h h g : 4 : 3 ; - # X   @   X @ @ X X               O   I N - @ - # # # - ; - - - - - - - 4 ; : 5 5 3 3 u u r r k i k A d d C ) ) ) x.C.5.*._ E ) ! 8 e k l ^ l l a ^ { l p 9 l ^ [ ;.;.<.a.1.,.;.J J ;.;.j h g h 3                                                                                                                                                                                                                                                                                   X                                                               ",
"                                                                                                                                                                                                                                                          O                         X                               @ 6 1 #             2 I z.l.I N k.{.7 @ - X 7 b 7 b 7 7 h M b 3 2 3 3 7 ; ; ; o X     @ - X X @                 X X 7 Y 4 - ; - - # - - ; ; - 4 4 ; ; 4 5 4 : 3 g 5 r r t w k k d t i C  .4.} } 4.@.#.5.5.` ( ^ t e w t p 8 9 9 p p 9 9 l ,.;.[ { ;.<.a.;.[ J J [ ;.J J j g 7 .                   X                                                                                                                     X                                                                                                                                                                         X                               ",
"                                                                                                                                                                                                                                                                                                                    @ 1 - X X       1 q.{.g.2.L 7 B z.Y # # o b b 7 v v : g b b 3 2 3 3 4 : 4 ; ; o X   o X .   .                       @ G 4 - 2 ; - - # - # # - - - ; - - ; ; ; 4 5 h g r J J  .F ' ( k i C c c d c } ~ } ` #.) l 0 t 9 = e p 8 0 0 k k l ^ ;.{ [ ;.<.;.;.J J [ ;.J [ J J j j : X       X                               X             X                                                                   X                                                                                                                                                                                                                         ",
"                                                                                                    X                                                                                                                                                                                                 X       O 1 1 2 z # # @   1 L k.E.q.L N b 6 6.Y # - X g G g g 7 4 g 7 7 : : 3 r 7 : - 4 ; - . X X - X   X       X                   g 7 X - 4 h 2 - 2 2 - - 4 - 4 - - o - - ; ; ; : : 5 t j V J ( A A A F e d d / c f c ~ / ( d y 8 y t 9 8 0 s ] ^ l A ^ [ ;.V.[ J l A A ;.J ;.J j j j J -                                                                         +                                     X                                                                                                                                   X                             X                     X                                             ",
"                                                        X                                                                                                                                                                                                                   X             X                   # 6 v 1 2 -   2 B g.z.L L N N N # 2 z 7 > # 2 m b g 4 4 h 7 3 2 3 3 5 3 3 : ; - # X X . - o @ X                             # v 4 4 4 m h 2 . - - - ; - 4 4 ; - ; 2 4 3 : ; ; ; ; & : : w i i w w i x } } ~ } #.5.) ] A e i C d V k k k [ ^ [ ;.] ^ ^ J ^ k J l J J J ;.J J h M j .                                                                                       O                   O                                                 X                                                                                                                                                                                       ",
"                                                                                                                                                                                                                                        X                     X                                           X @ 1 b v 1 b 2 2 Y p.g.-.v L g v 2 @ 1 2 @ @ 4 7 g 7 2 2 b 6 2 * 3 3 5 : : 5 ; # -   . X o # . X                               @ g g 7 7 g g g - - - ; - - - 4 4 4 - ; ; - ; : 4 r 3 : 3 u w * $ * & $ 8 k  .@.@.@.4. .^ d t t c A } ^ V d C ^ X.;.A s t t [ J J J J J J k M J h M h   X           X X                                                                   X                                                                                                                                                                                                                                                                 ",
"                                                                                                                                                                                                                                                                                                  X       X 4 6 6 1 b 6 L Y Y L -.I L N b m 1 @ # @ @ 1 6 6 7 1 - 6 7 4 * 2 5 3 : ; 5 : - o . o # X X X                 X                 X > h 4 -.Y v - - @ X ; ; - 4 - - 4 4 4 ; 4 5 : ; 4 : : = : w w y * = = $ = 8 A @.! ! ! C e w t y c V i s V A k j s 0 0 k [ -.A A [ ;.J t r J J j Z 4           @                                         X     X           O                                                                                                                                                                                                                                                                               ",
"                                                                                                                                                                                        X                                                                                                                 # z z 1 v 6 N 0.Y v v G Y m B Y m 1 @ @ @ # 1 6 6 2 2 4 2 1 2 2 3 3 3 - ; ; # o o o ; . X             X                             6 4 :.-.Y 1 1 o - - - 4 4 - - - 4 4 4 5 j j j h j r w u r r : * $ = % = $ t e.&./ ( ^ e e d d d d t e y t w 8 w 8 j A ;.k Z Z J j r r j T Z M J -                                                                                                                                                                                                                                                                                                                                                       ",
"                                                                                                                                                                                                                                                                                            X     X O   # 6 2 1 7 1 B p.-.I m G -.-.N L Y v # 1 2 @ # 1 > @ > 1 1 # @ # 3 : * * ; o o . . o ; .                             X               X 2 v B m Y g - - - - - 4 g 4 4 - 4 ; ; 4 : h M h j D U S n C Z n h n n u $ 8 ( e.} ! C w < < w w w < < w y = r i j J j r r j Z j r : r h J J -.-.o .             O             X                                 O                                                                                                                                                                                                                                                                                       ",
"                              X               X                               X                             O         X                                                                                                                                               O X                           - 1 6 z 6 v g v 7.p.I N N -.-.T Y L N z 1 > # # - # O @ 1 > @ . # * # 2 ; ; # o o o # # o @                         O                     2 g R B Y g - 4 ; - 4 - 4 g 4 4 4 4 ; 4 5 - : ; ; u S D D | K D n j J | C 8 w l ( d d w < = = : 3 w r y = r j j j k j : h r r : : 5 ; Z K H :.F                                                 X   O     X       O             X         O       X           X               O                                                                                                             X                                   X                             O                                         ",
"                                                                                                                                                                                                                                                                                          X   O O # # 1 m v z z Y R R H v L b G 8.9.H B N b 1 @ @ @ - @ @ # # @ . @ # @ # * # # o o - # # X X     X                                             2 0.0.m m - - - - - 4 - - 4 - - 4 ; 4 4 h h 3 - : 5 u r n F n C K F Z Z A i 8 A X.F 8 w = = y w = = w u w w w : h 5 w 3 : - ; ; ; j T J D O.i .                                   O                                                                                                                                                                                                                     X                                                                                             ",
"                                                          X             X                                                                                                                                                           X   X                   X                                   X 1 1 z N g 6 L g.7.L b b G m Y g.g.R G I v 1 @ @ # > @ @ # # . . # + # # # . @ . # - ; X                                 X     O           X X # I 7.7 g 4 - X - - 4 4 4 4 - - - 4 - - g j j g r 5 : : = 3 : : j j V S | P w k %.A r % $ ; 3 3 : = r r r r w r r 3 * & ; - ; : Z j ..G K 9.3   .         X                                       +                                                 O                                                                                                                                                                                                                                                 ",
"              X                                                                                                                                                                                                                                                                         X       2 1 6 N N m Y 0.q.L I Y m I I :.g.u.R B G 7 1 > # > @ @ # @ @ @ @ # # # @ @ @ @ # # @ .                                                         @ 1 Y L G g X - X - 4 4 4 g 4 4 4 4 ; ; ; ; 5 5 5 7 5 3 3 3 3 = ; : 3 3 i n y w F F w : = : = : 3 : * w 3 : 3 - % - - : o o r j J T J Z w.9.*       .               O                                                                         X                     X                                                                                                                                                                                                                                 ",
"                                                                                                                                                                                                                                                                                            O @ v 4 6 v b B p.q.N N L Y L L 2.3.0.y.I I b 4 # > @ # @ @ @ @ # + # + @ @ @ @ # # + X                                     X                   X   O # N R I Y # . ; - 2 5 4 5 5 3 ; - - - - - - ; ; ; : : 5 r 5 : 3 : - * : : : = 3 V j j 3 3 7 r : & : 3 = . . o & * ; * ; r r j J T j J 9.;..                     X                                                                                                                                                                                                                                                                                                                                   ",
"                                X                                                                                                                                                                                                                                                         O O 2 6 6 N 4 m 0.Y L b L 2.2.L 2.g.0.0.P T S 7 6 # 1 # # O O @ O # # # @ # - # ; @ O X                                                             + +   6 6.7 R b @ 2 4 o ; g ; 2 4 4 ; - o - - ; ; - ; ; : ; : h h h r : : : * r r k n S V : = i i * 3 r u 3 . $ . & ; 3 h h 5 m K K j K :.:.H     X                                   O                                                                                                                                                                                                                               X                                                                                 ",
"                                                                                                                                                                                                                                                                                      O   @ @ N I N b z q.p.B b N I q.2.Y 3.f.0.3.U U N 2 , # # # X @ @ X O > > # # # o @ > #                                                                     X - I B Y 7.@ 4 h : - 5 g ; 5 5 : - - - o - - - - ; ; ; : : j h h * - : * w j K j n r & 3 j 5 & : M D w o : # 3 r n D M Z ;.U m j r.K K h                                             X             O           X                                                                                                                                                                                                                                                                                   ",
"                                                                                                                                                                                                                                                                                        X O 1 Y Y b I q.g.R N I b I 0.3.3.7.3.3.3.D b 6 , 2 # 6 @ @ @ @ @ # # # # # . # * # +                                                                 O   X @ v 0.M R 2 # 6 3 - - 5 4 ; ; ; ; - - o o o - - ; ; ; ; : ; ; : : : ; * r j Z r 3 & & r S w * j S n u u 5 n H U n j K T T M J ,.>.M T *                                                                                       X                                                                                                                                                                                                                                                                   ",
"                                                                                                                                                                                                                                                                                    O X X @ # N N N 7.k.Y G B G D Y 0.8.R O.O.L I n 7 6 4 4 4 - > 2 # # # @ # # # # . @ @ .               X                                                   O   @   7 7.I b 7 - 4 4 4 ; : h : 4 ; 4 4 - o o # & o o ; ; . . * o o : & : r j Z Z u * & o u Z : : Z F S n n n D T T J J J B j j 9.s.H ..K                                     X                                         X               X                                                                                                                                                                                                                                                             ",
"                                                                                                                                                                                                                                                                                      @ X @ v N L I 7.Y m B B R R 0.R 3.0.y.U U K b 3 2 4 4 4 ; 6 z # O @ @ O O # # # @                                                                             @ O m Y 7 7 3 - - h ; - - 5 3 ; - - ; ; ; o - o o * ; ; ; o & * 3 u r t u w u : o * 3 h r : i | V U Z F ..| J >.:.k j H K >.,.K U r.M X                                                                     X                                                                                                                                                             X                                                                                                                       ",
"                                                                                                                                                                                                                        X                                                       X         - v b 6.6.B B G G 6.q.R 7.8.y.w.3.o.o.S 7 2 : > ; o - z 2 @ O # O # + , # # O                                       X                                     X   6 I 7 7 J - o : h ; ; : g g 4 ; ; 4 4 g ; - # - * * * o : 5 r Z S u w = 3 : . * : 5 : ; j D Z n u Z X.T T J j j J a.a.9.K j ;.:.7                         X                                     O                 O                                                                                                                                                                                                                                                                           ",
"                                                                                                                                                                                                                                                                                      @ @ @ v q.p.0.I 6.B R g.k.f.h.y.h.+.P U D j u 3 2 2 * - ; 4 > # > O > @ > > # X                                                                       O   O     @   m B 7 M h o ; j h : - ; 5 4 5 ; 4 4 4 h 3 ; 3 3 5 5 r : : n u Z n j j : ; .   : 3 : 5 r r r 3 u u n j k j j T ;.r.;.-.M U K H :                                                                                                                                                                                                                                                                                                                                                             ",
"                                                                                                                                                                                                                                                                                        O > 7.!.q.Y Y I B 3.g.u.W.h.u.u.+.| S u r u : 3 3 * - r h 6 X > + @ + # # #                                                                           X       X   2 G M 4 h 4 - 4 h g 3 ; ; # - : ; 3 5 3 5 5 g 5 h j j 7 5 r j n H n j : X X . # ; : : : - & ; ; * : : h j [ ,.;.J Z J J T M Z ;                                                                                                         X                                                                                                                                                                                                                                                   ",
"                                                                                                                                                                                                                                                                                      . + 2.!.g.R R 3.I R u.0.y.h.i.8...3.| i i n 5 u u 3 : 5 7 7 * 2 # # X # # O                                                           X                               g B 4 4 5 4 o - ; 7 5 4 3 - - - - 3 - - 3 g 5 5 j h j : ; * r r h 3 o X X X o o o - . & o & & ; ; : ; 5 J M Z j J ;.J j J j                                                   X                                       X                                                                                                                                                                                                                                                                   ",
"                                                                                                                                                                                                                                                                                      X 7 !.E.R L q.u.n U h.h.h.u.+.8.y.+.F j u 5 r u u 3 - : 5 * 2 # + O @ # # X                                         X                                                 @ H m 4 4 m 2 o X ; g 5 5 3 ; : 5 : 3 - : : r h r h 7 ; % ; * - # o X X   X o o # # o * o & o - o o - * 4 g h j j j h h h -   X                                                                                                                                                                                                                                                                                                                                                           ",
"                                                                                                                                                                                                                                                                                    X @ z.|.3.L Y q.P D 7.h.h.Z.y.8.+.F S S u w j u r r 3 7 : : * * . @ X # @                                                                                                 G I H - h m ; o o 4 5 ; 3 5 5 5 5 5 r ; ; 3 : h 5 ; : ; * * - o # # . X X o o ; ; : ; * - - - ; - - - ; - - : 5 3 h h - X                                                                                                                                                                                                                                                                                                                                                               ",
"                                                                                                                                                                                                                                                                              O   O O 0.2Xl.I L h.k.o.O.y.y.i.y.P n i u r i j j j 3 r i Z j 3 r 2 # # . @ # O                                                                                                 b H B 3 - 6 7 ; - : h 5 : : 3 4 3 5 3 3 4 : 5 5 3 ; o o o - o - ; - X X . # - ; - ; ; ; o - - ; - & o - - - - : 5 5 - X     X                                         X                                                                                                                                                                                                                                                                                                                 ",
"                                                                                                                                                                                                                                                          O               X         m 4X!.:.D s.W.u.+.3.y.y.Z i i y u S j V i u j S n j D j u 3 & ; . @ @ #           O                                           X                                           7 :.h h g - - 3 6 & - 5 5 5 5 3 : r h 5 3 - # - - - & o - - : 3 ; # o . o ; ; 3 5 : 4 3 ; ; - ; ; ; o o ; - & - * o X           X                                                                 O                                                                                                                                                                                                                                                                                     ",
"                                                                                                                                                                                                                                                                        X         # E._.7.H O._.G.+.K +.| y w < V | 4.P n i w y S D Z K j r h 3 # # X @ @ O                                                                                                   v  X7.m H 6 - - ; ; * ; : ; 3 4 5 g 4 4 - X o # ; - & - & - 5 ; 4 - o o - ; 4 4 ; : ; : ; : ; - - - o o o o - - . X   X .         X                                                                                                                                                                                                                                                                                                                                                     ",
"                                                                                                                                                                                                                                                                                  E.3XE.U U f.~.u.o.7.o.i < y P 3.+.P u r r i n S n i r r 7 5 o * @ @ X   O                                                                                                 6 5X3XQ.B m h : : ; . * * - o - ; 4 o o o o o o o # * ; - ; ; ; ; ; X - o o ; ; : 5 5 5 3 3 3 ; ; - - - o - - 3 * X         X                     O                                                                                                                                                                                                                                                                                                                                       ",
"                                                                                                                                                                                                                                                                          X   + 0.qXW.3.T o.F.y.y.y.X.i w i o.4.P u 3 < y i F x j r * : ; % * . o o X             O                                                                                         k.vX:XQ.Y 5 4 4 : 4 # . o # X . . . o X o o o o - - # ; ; ; : ; ; ; # @ # * ; ; 4 7 5 3 4 : ; - ; : ; - X X o g 4   X     @   X                                                                                                                                                                                                                                                                                                                                                           ",
"                                                                                                                                                                                                                                                                      X       U 4X{.u.3.o.F.3.f.i.>.P n F X.o.P y < y x S x w u 3 r : ; - : ; ; o X                                     X                       X       X                                 B lX~.g.~.-.4 ; - - # * X .         X X X X . ; ; ; ; ; 4 g g 5 h 5 ; @ @ # # ; ; 4 3 3 3 ; : - - - 4 ; o X - 5 Y h       @                       @                                                                                                                                                                                                                                                                                                                                         ",
"                                                                                                                                                                                                                                                                            Y 4XW.y.3.o.h.h.i.h.o.F F o.i.P S = 3 u P D x x u i : * o o 2 6 ; # X                                                                                                       # 6XvXk.q.z.Y 5 g # # -   X X X     X   o o X - ; ; ; : ; ; 4 g 6 4 ; ; # > # # # ; ; ; ; ; - - - - 4 5 ; o X # B :.B X O   @         O O     O   O                                                                                                                                                                                                                                                                                                                                           ",
"                                                                                                                                                                                                                                                                    X     b qX4Xq.f.y.u.G.F.Z.y.| A +.o.n w = u i S V y 3 3 r 3 - ; - # - - @ X   X       X   @                 X                                   X                                   v zX9X2.Y z.l.M ; ; o o + X     X . . # - o o o # # - o ; ; ; ; ; - 1 ; # - 1 # ; # ; - - - : ; ; 4 4 4 o o o - G -.R X @     O                                                                                                                                                                                                                                                                                                                                                               ",
"                                                                                                                                                                                                                                                                      X I qX|.f.y.y.y.F.Z.Z.4.P o.+.| 6 < = n S n j 3 : * & X * o . o @ #                 X X                                               X                                         X p.lX~.:.I p.I.G 4 - o o @ X     X   o # - # # ; # # o # # # - # # @ ; . o - - # ; ; 4 : : 4 ; ; 5 h 5 4 - - - g Y 9.7.@   X       O                               X                                                                                                                                                                                                                                                                                                                           ",
"                                                                                                                            X                                                                                                                             O   O       L kX4Xh.u.0.i.^.H.e.3.o.y.o.S i y 3 C S n 3 : 7 : # o ; . X o ; o   X                       @                                                                               X   2 qXZXE.9.L B :.m 2 2 ; - # . X X     o * - - # # o # o - ; ; - - * # - # o o - 2 4 5 4 5 5 7 r h j M g 4 - - h j T 9.q.-     X           O     O                                                                                                                                                                                                                                                                                                                                               ",
"                                                                                                                                                                                                                                                                  O 0.5X|.y.y.O.F.H.^.t.y.e.t.y.S y 3 w F | F i : 3 * X X @   X # - # @     X                                                                                                       X g vXvXI.-.j 4 g 4 - ; ; - # #         X @ # - # - - - # # - # : : ; ; # @ o # - 5 g 5 g r h r h r M m 4 4 4 5 h H O.U 7.7   @                               X                                                                                                                                                                                                                                                                                                                                   ",
"                                                                                                                                                                                                                                                                2 2X5Xl.f.0.o.y.h.u.4.3.i.w.w.S i w y n n n y # & # X . #   - ; @ X               X                 X                                                                                 9.CXCX|.T g g - - 4 - # ; # - o @ X   X X X X X . - ; ; ; ; 3 7 3 7 3 ; * o - ; ; g g h h j h j j g r r M j 4 m j H T 7.j.2                                                                                                                                                                                                                                                                                                                                                                     ",
"                                                                                                                                                                                                                                                          O   6 4X3Xh.f.f.3.h.i.+.P o.4.w.X.A i y u F n n r & . - 2 # #   O # O                                                                                                                       0.lXlX{.7.g - # # - - 2 - # o o o   X X   X X # o - 5 ; : 2 3 3 5 7 5 2 ; o # 4 3 5 g M Z j j J g h g M -.M h J M -.>.:.U.Y                                                                                                                                                                                                                                                                                                                                                                     ",
"                                                                                                                                                                                                                                                            3.6XH.k.h.W.3.u.d.3.Z } w.w.o.x n i x n n r : * : 7 4 . X @ O X                                                                                                                         # B |.{.6XI.g 4 2 # # # 2 1 # . o o   X . . . X X X o - ; - 3 5 3 * 3 * 2 # o o # - - 5 h j j r r r g Z J J h J J h -.;.-.>.G.# X                                                                                                                                                                                                                                                                                                                                                                 ",
"                                                                                                                                                                                                                                                      O O R qXf.u.u.h.y.y.Z.3.V V o.i.X.d n u n S i 7 3 7 x 3 , @                   X           X                                                                                                   O 2 q.I. Xl.b - 1 2 # # 2 2 - # . X X . # - o o . - # o - & * 3 3 3 : ; ; # o o - - : 5 j M j 5 t u J -.j j h J m j J ;.J -.Q.h                                                                                                                                                                                                                                                                                                                                                                   ",
"                                                                                                                                                                                                                                                X   O # g.qXy.Y f.f.+.8.w.3.S k Z | o.V j w w i u < * 3 4     X   . #                                                                                                                               O x q.q.s.0.B 4 1 - # o # @ - - - # o o # ; - o . o # - o * * * * # - - o . X - - - ; h j h r r 4 r -.J j h M J J -.>.;.J ;.Q.M                                                                                                                                                   X                                                                                                                                                                                                               ",
"                                                                                                                                                                                                                                      O           # z g.kX4X3.L W.Z.3.4.w.F V k X.T C Z w u j j 3 : 2 .                                                                                           X           O                                   X X b G.p.Y 0.B 7 2 2 - @ # - - # - - . # @ - 4 ; # . o - o o ; ; 5 5 - - o X o o ; 4 4 5 4 g r r j ;.;.T m B B H J w.:.T K ;.d.B                                           X                                                                                                               X                                                                                                                                                                                                       ",
"                                                                                                                                                                                                                                            O O   B !.g.4XvX!.3.R.i.3.3.U x x | | V Z u w j h 5 * X .                                       X                                     X                                                           O       I q.Y m m B z 1 1 2 2 6 2 # @ @ # - X - - 2 2 ; ; * o - * : 5 ; : : - o @ X - 4 4 5 4 J J j j -.a.Z M n U n M 8.i.;.d.>.K I.Z                                                                                                                                                                                                                                                                                                                                                                   ",
"                                                                                                                                                          X                                                                             O   O O N kX!.2.[.CXk.Q.qXy.3.f.F V } 3.F Z w 3 3 5 * .   X       @     X               X                       X                                                                                       X X # g.q.m g b m 7 1 - 1 4 7 7 4 1 # # @ # 2 2 h 6 - ; - ; ; : 5 : 5 * ; o X o o - 4 4 4 t J -.h J ;.-.G B H :.Z ..d.U ..h.T K j.B X                                                                                                         X                                                                                                                                                                                                                                                       ",
"                                                                                                                                                                                                                                            O O !.lX4XqX|.kX}.~.CX^.0.4.F S o.| Z j : r : #               X           @                                                                             X                                   X     + O   4 g.7.h b 7 7 2 2 6 2 1 2 4 6 g 4 2 # o ; : 7 7 2 3 h h 5 r 5 h 5 5 ; - X # - 4 4 j J ;.a.a.-.J ;.J j 7 J U B J T A 9.u.;.J 9.h                 O                                                                                                                                                               X                                                                                                                                                                                 ",
"                                                                                                                                                                                                                                        X @ - L kXkXZXkXl.!.f.W.5X[.i.4.} S P Z n i 3 : . X                                   O                                                         X                                             O       @   O 6 3.0.R R b 7 7 - 2 6 2 2 2 4 b 7 7 2 - - - ; 7 5 4 h M M M J T J Z J H h h h B 9.>.9.U.Y.j.>.;.;.G g h j j 5 g j :.U.a.T K >.g                                                                                                                                                                                                                                                                                                                                                                   ",
"                                                                                                                                      X                                     O                                                             X N lX6XqXvXz.l.[.~.R.H.f.}.[.+.| o.j D r * X                 X                                                 X                                                                     @           X @ # > N  Xg.R R N 7 4 1 # 2 6 1 4 4 7 2 6 g 4 - - - - 4 7 g m h J J -.T U ;.T ;.G n Y s.w.B.S.j.;.>.;.Z M j h g 4 r ; h >.r.9.:.>.:.g   X   X                                                                                                                                                                                                                                                                                                                                                           ",
"                                                                                                                                                                                                                                          X ~.qX9X*XR.s.4XlXW.R.3X}._.F.y.U F Z u o X           @                                                                 X                                                                     O     @ > > 0.9Xz.2.Y B 7 2 - 1 2 6 2 > 2 7 2 4 7 g o - ; 4 - ; h M j M k T K T -.K T Z h J ;.d.I.j.9.,.>.T J M h 5 ; ; 5 5 h ,.>.Y 9.>.K :   X   X                                                                                                                                                                                                                                                                                                                                                           ",
"                                                                                                                                                                                                                    @                   @ 2XlXvX4Xl.[.iX5XR.O.y.H.F.`.3.F.8...D :                                                   X                                                                                     X               X   O O b 2X!.3.L I B 7 1 - # # > 4 2 > 2 4 4 2 b 4 - ; g ; 3 g j M J J T ;.,.;.;.H H b j Z T ,.,.>.;.J J J M h g # 4 4 4 g h M j G M B b X   X                                                                                                                                                                                                                                                                                                                                                             ",
"                                                                                                                                                                                                                X   X                 2 |.vXqX}.u.R.zX5Xs.D D n x F u.w.d.h.y.i .                     O                     O               X                                                                               X             @ @ @ > 2.9X!.I B B M 6 4 - - # # # # - 7 v g G m h g - - 4 ; g g j M M -.;.,.r.,.:.-.j j m K 8.i.u.>.;.Y Z h 5 ; 7 m g o 3 7 4 4 4 5 b h #                                                                                                                                                                       X                                                                                                                               X                                                         ",
"                                                                                                                                                                                                            O                       # |.qX6XQ.G._.*XG.3.F ;.Z j x x n 8.y.r.y.5 X           X           X       X       X           X                                                                                                     @ X O > 2.[.0.B n b 7 4 4 - # @ X . X - - 7 g Y G 4 g ; - ; 4 4 5 5 j J J -.;.r.>.-.G j m Z Z X.>.>...;.T j h j H m H g g j h 4 h J J m -.g X                                                                     X                                 X                             X                                                                                                                                                                                         X                               ",
"                                                                                                                                            X           X                                                           X     X X X + # W.4Xl.h.G.qX_.+.F V J n r : n n S W.u...8.r .             X   O O                                                                                                                                     @   @ - B 0.9.R b 7 7 1 - o o . X . X o X X - j Y g - g 4 2 4 g 4 g h M J J -.-.;.-.J Z m Z n U R K H H M h j 9.9.M j 3 g 4 5 M m I H G R B                   X                                                                                                     X   O                                 X                                                                                                                                                                                                 ",
"                                                                                        X                                                                                                                               X       # _.4X8.T ~.#X_.w.o.K F V Z V n C i D Z.w.>.U.u.&   X   X               X                                                                                                         X                         @ # @ I -.9.N L B 7 # - o - - o # - o o - - 2 g g g h m 2 2 5 5 5 h g J J M -.J J J Z M H T ..T J n Z j Z p.9.H 5 h j g . 7 J m j g H 0.R #                                                                                                               O                   +                                                                                                                                                                                                                           ",
"                                                                        X                                                                                                                                                   + + q.5XF.8.Z.`.f.| +.4.U V ..' K U n r j D 7.8.W.W.i X O                               X                                                                                                                       X # 4 Y q.-.B I N b - - o o - - ; 3 ; 4 : ; - ; h j g M h 4 ; 5 5 h g m J J J J -.h h h J T [ T J J J J >.>.T Z j m J 4 - 3 B j Z j h -.-.-                                                                                                           O                                                                                                                                                                                                                                                   ",
"                                                                                                    X     X                                                                                                         .       y [.~.(.].5X3.8.3.t.3. .Z ' ( j j j r : 3 h.^.h.R.G.j.X       X                                                                         X                                                                       X @ b Y I L x m 7.Y 4 4 - ; ; 4 3 ; 5 g M g ; ; 4 5 g g G m 4 - 4 5 r h j M M M j m h 7 M Z K ..T U j j -.M -.T h J j 4 3 m T j.-.H J M Y 4               X X                                                                                                                                                                                                                                                                                                                                             ",
"                                                                                                                                                                                    O                       .           u y.^.`.f.H.0X^.w.4.Z.d.e.o.o.o.J h h r 5 : 3 W.U.h.....3.#         X       O                             O                           X                                                   X                           @ g B R B v Y g.H 4 4 ; o - : : 5 g g J M r ; - 4 G g G :.5 ; 4 h g g j j j j g r 7 j M J T T J J h r g j ..j g j : * h h :.Q.9.H J G I h o X X             X                                                                                                                                                                                                                                                                                                                                           ",
"                                                                                                                                                                                            # x 5 # $   + + $   . . 3 I H.&Xi.f.} w.^.Z.i.Z.i.%.U F Z n w : - * o 5 5 ..9.b I S R x                                                                       X                                                                         X       @ . 6 b I N I 6.I 7 : : : 5 h h h 5 j k J J h r ; 3 j -.4 J G 4 ; 5 h m h j M j g j h j B Z J Z j h j r j Y J j j j - - h 5 O.G.W.d.j H :.I ;   X                                                                                                                                                                                                                                                                                                                                               X         ",
"                                                                                      X X                 X                                                                             . < G._.u.S.u.7.u.h.u.8.o.+.r.F.i.i.4.i.Z.Z.H.P.4.y.y.o.o.Z w ; - : - . - - & Z T 5 D 7 L 6                       O                                                                                                                                 O . 7 g m Y l.R 7 2 7 h j n D J n 7 j j J J h h 4 3 4 G g - m 4 - ; r u g h j h r r 5 3 j j Z k h j h j ;.;.K M U r ; : j M T d._.j.T m O.:.B # X                                                                               O               X         X     X                   X                                                                                                                                                         X                                                           ",
"                                                                                                                                                                            O           5 _.u.F.i.Z.i.G.u.Z.F.Z.r.i.,.i.n.H.^.`././.f.4.4. .} F J r - ; ; * & * o * ; ;.9.H n H P 2       X                                 X                                                                                                 X           X # 2 g v R k.k.g 7 h :.d.T n Z ..J n j j J J k j 5 3 - g M 4 g -.r ; ; 5 M j J -.J J j h j Z j h h h h J :.J B J M 7 5 j h k U X.F.r.J ;.9.:.I g -                                                                                     X                               X                                                                                                                                                                                                                                   ",
"                                                                    X                                                                                                                 = h.F.h.F._.d.i.S.h.i.4.8.F.D.Z.H./././.-X^.F.4. .+.} | F u 3 ; * o - - o # ; 4 h q.q.I B n #                   O                                                                                                                                   O # 7 g q.{.j.H b B s.j.s.K Z J >.K J j j J [ K n 5 j 4 4 -.M 5 J -.M 4 4 h h G ;.,.,.T j h j h h h g j ..>.J j Z 7 5 j h 5 j O.O.r.+.T O.7.h.T G m @                                     X                                                           X                                                                                                                                                                                                                             X                       ",
"                                                        X                                                                                                         X               2 0.W.H.+.T i.w.+.+.P T y.y.e.Z.F.Z.A./.^.F.Z.F.4.o.%.F F S y 3 3 ; * - * - * 6 h 4 - q.R 7 B R >   X     .                               X                                                                                                           # 2 # 2 Y 5X'.B b h j.E.:...Z J K J ..X.J J A [ ;.k t n j 5 h G 4 5 5 -.h r g h h G :.:.d.U h j j j h j J ..U M n n 5 r h j 5 3 T ..8.f...O.U r.>.9.Y j #                           X                       X               O                                                                                                                                                                                                   X     X                     X         X                     X                 ",
"                                                                    X                                                                                                     X   # 0.l.u.f.d.o.X.y.+.x i F U F o.T | o.X.| X.,.' %. . .%. .[ k h : : - - o # o o ; h g X @ R b # N q.,                                                                                                                                                   O > # # u {.6Xj.H M T j.9.Z n n F K K ;.>...K o.o.[ j w j J j ; g h M 4 h g 7 j m j m Z J ..K Z j Z Z n D U T D H Z h g g h r 5 r n F 8.r.y.d.O...H 9.h.S 7 2                                                                                                                                                                                                                                                                           X                                                                       ",
"                                                                                                                                                                      X     @ l.E.S F h.o.o.| P u < 3 < w 3 r j n u i i i V ' F Z | F V A t * & & o - ; - # 4 7 7 . X   2 v 2 Y k.2                                                                                                                                     O             #   # 7 I E.l.h.U H -.:.J n D Z D X.......' ..,.+. .j j Z J Z . X g I g 2 ; ; 5 M h j Z n Z H G K Z ..T J H H J ..h 3 h J M M r 3 r D o.| >.Z.>.o.b H 8.7.4 7 #                                                                                                                                                                                                                                                                                                                                                 ",
"                                                                                                                                                                          O b l.x i 3.H.,.o.o.i : * o . o # = = & o : y w i Z V C n i j j ; & o o - - 4 - : g 4 #   X X O 2 6 q.7.@                                                                                 X                                                     X         O O @ 2 7 0.l.!.R B Q.Q.-.-.H K S D ..>.>.>.X.O.w.t.| i j D T B # o ; J g 4 g 4 g j M Z T Z U >.9.r.r.J H Z m j D M 7 h M O.M j n 3 r Z o.o.o.u.F.7.n n 0.T Y 2 7 #           X                                       X                                                                     X                                                                                         X                                                                                                                           ",
"                      X                                                                                                                                                   , [.3.x V w.e.K F S i i i * : * & * * & * * # o $ : : i u j r : : & - - ; 3 - : 5 : o   X X     > v p.N +           X                                                                                                                 X     X           @ > 1 # 4 g.{.g.9.0.3X|.U.j.I H T K K T >.+.+.;.>.>.w.F n Z S U h . o - h - - 5 g g h h M n J ;.s.w.8.>.D n S h h h 7 r u B J Y ,.T M = u T ..U ..h.O.S N T g.q.q.7 b -                                     + X                   X                                                         X                                                                                                                                                                         X                                             ",
"                                                                                                  X                                                                       N [.P S F w.F F X.S n j h r u j * & . . . X . X . . : = * ; = & - . - - - o ; 4 ; X X O   O   O > B Y #                                                                                                                           X                     X - - 4 G z.g.H -.l.0X X:Xs.B B K T K +.8.>.O.:.>.>.e.T V Z D T j .   X 4 # o - g g j j j B Z Z ;.;.J J M Z Z j h h 3 ; h r j Z :.r.J 5 r | ..F n F D :.M n R k.g.Y M B ;                                   X                                           X             X                                                                                                                                                                                                                                             ",
"                                                                                                                                                                          B 7.5 P y.+.o.F V 3 3 * . ; o . & . o . * . X .   . . o * o & * ; : 3 o o ; ; # X           O   @ b B +                                                                                                                                         X X   X - 2 7 M -.-.M Y T s.Q.z.I.T H n K ..>.+.8.+.O.+.r.8.8.A S U o.J h * X o ; g ; - g j M g h j j Z K Z Z M j h h m h 3 : h h 7 r j j -.H u 3 Z ..+.F n D 8.D 7 i h.k.9.B I H ;                                                       X                                                                                                                                                                                                                                                                                 ",
"                                                                                                                                                                      X X R B , o.u.w.+.u = * * * . * - : : & - ; o o       # . * ; o o : ; 5 ; # ; ; o X                 + x 6                                                                                                                                     X         X - - g M J G 4 g g -.H -.q.T M K K K 7.w.8.w.+.8.w.d.r.>.Z S o.| Z r * .   # h 4 ; 4 m M h h j j Z K U M Z h ; h 7 ; ; ; j j j w h j h j 7 * h +.y.U x n M Y 7 i S 9.:.:.n U m # X                                                                                                                                                                                                 X                                                                                                                                   ",
"                                                                                                                                                                          3.D 7 n U P x < = 3 3 : : h 7 g 3 * o ; # o . . # o ; 5 : o : o o : 3 4 o   X                   2 x O                                                                                                                                               @ X - 4 g G G M m m q.-.s.:.J G T U ..y.r.i.d.,.>.r.d.s.e.Z S U U V S 3 : o ; 4 ; o 4 5 r 5 h j J j J K J j g g 4 - # 5 r j j J U Z k r h 3 & 3 o.h.y.V i u M D S U o.J T u.Y J B #       X                                                                                                                                                                                                                                                                                                                             ",
"                                                                                                                                                                          B I 3 7 S x y < # y n J h h 5 : * - o o - # ; o o . - * : * o # 4 ; : .       O                 2 6                                                                                                                                               X - 2 4 4 m l.q.h h Y p.s.q.j h j H J O.>.r.d.S.t.>.8.y.Z.i.| F T | U Z j Z h 5 ; ; - - 3 : ; 5 j n j j j h r : ; ; ; o 3 7 h j D K J Z Z M 5 * ; K f.F.O.S i u D D O.F Z D s.j.I H h 2   X         O                                                                                                                                                                                                                                                                                                                     ",
"                                                                                                                                                                      @ X 6 m 6 P | u < < x T ..Z ; : * ; : : ; - o o # - o ; 5 : : * ; 3 2 #                           X 6 O                                                                                                                                 X X           X - 4 ; b Q.'.G m -.s.0.g.O.j h T H M U w.u.r.S.s.,.y.i.H.H.o.U +.+.o.X.J j j 5 - o o X # ; ; ; 3 j 5 h g h 5 g ; o # ; ; # 5 j j j r j K D j * : n y.Z.d.o.n n Z ..>.i.8.T :.G.s.Y M b #                                                                                                                                                                                                                                                                                                                                 ",
"                                                                                                                                                                          > n h o.S 3 o.| U U u : r j ; r 5 ; * o o ; - - - 3 7 : o - ; ; #                             O #                                                                                                                                           O X - ; 7 g m q.4X:.M M p.0.T :.M g J :.H M ..d.u.Z.S.d.r.i.Z.H.h.>.8.i.y.X.T k h 5 ; o o - # o # * : 3 g 5 5 h h 5 4 - X - 4 - * : n U M 7 t j M n o o i y.d.h.O.S V Z F D Z.y.>.Z 9.Q.9.n h 7 2 X                                                                                                                                                                                                                                                                                                                             ",
"                                                                                                                                                                X   O     4 Y D P P o.y.+.S u < Z J r h : ; - - - - o . . . 4 : # - # # X                               X                                                                                                                                 .           @ > 2 4 h g I ~.:.g g g -.-.-.R 7 7 H :.U Z U y.h.S.G.d.>.f.F.W.Z.8.8.h.,.J k j h w h h o o # # ; # ; 2 5 : 4 5 3 5 3 - - ; 2 : # : 2 M M 5 5 h j b : & 3 3.F.H.F.P n S Z S | ..y.r.Z 9.G.7.B h h 2 @                                                                                                                                                                                                                                                                                                                           ",
"                                                                                                                                                                    X     7 S 5 U u.7.i.U 3 * u ;.h ; j 5 3 5 3 r : - o o o - - ; 2 # X                                                             O                                                                                                               O   1 @ 2 4 7 9.l.G 7 h B Y 7.s.B 5 h U q.T Z U 8.i.Z.h.8.o.u.H.W.Z.+.8.+.o.D D Z w Z j 7 o . . . # # o ; ; ; : 4 ; 4 ; - ; 2 2 3 5 ; ; % 3 u M h : 5 3 . : F h.W.W.8.K n Z D K S ..9.H Z 9.'.-.h 7 h 6 o     X                 X                                                                                                                                                                                                                                                                                                 ",
"                                                                                                                                                                      @ 6 3.u P y.} 3.>.: 3 D y.j ; 5 : 5 j j h 5 4 o ; : # # - 2 2 @                                                                                                                                                                                 O @ 2 7 b 7 I G g b 7 B m 0.0.b h K :.:.K F F +.>.Z.h.+.| X.y.`.F.+.%.3.O.o.+.U K K n M 5 -     X . . o o 2 ; ; 4 ; - ; 7 3 # * 3 : * o . ; M h j u r * ; n 3.W.^.u.o.n D j Z +.O.d.S...Z j.u.Z 4 7 6 g -                                   X                                                                                                                                                                                                                                                                                   ",
"                                                                                                                                                                X   @ 1 [.N b ~.8.+...3 & 3 S.+.r : r h j j j g ; - : X @ @ 2 # @                                                                                                                                                                                 O O , v g 7 7 m Y B Y 7 7 7 h G B 4 g T :.H S D U +.i.F.Z.o.Z P w.W.n.+.3.i.t.e.o.| | Z Z B g - X . X X X o ; - ; 4 ; o # ; 6 ; ; : 4 5 : * & * 5 n n j 7 * * u U R.}.F.T S M F Z >.7.,.W.s.J U U.:.M 7 2 m m # O X                                                                                                                                                                                                                                                                                                                 ",
"                                                                                                                                                            X       @ ~.R 6 P H.y.F j : & j y.V w r j Z h g 4 g 3 : ; 4 - # X   X                                                                       O                                                                                                         X 4 6 b 7 x m q.z.R R z 2 7 M m 3 4 h :...H j U | w.H.F.y.U F U 4.Z.Z.+.e.B.i.i.Z.+.| j r r : o X   X X X . # - # # - o . X @ - 2 7 5 j j j 3 * w u j n j ; * r n y.^.R.y.i i K O.o.| T w.(.I.k h.|.;.g 7 7 b 4                                                                                                                                                                                                                                                                                                                     ",
"    X                                                                                                                                                             X v l.# 7 3.f.P P i * & Z Z i F D O.M 3 : u n h n D b 2 X                                                                                                                                                                 X   X                 @ 7 7 2 g B -.Q.p.Y m g b B I h 3 ; j T :.J M K X.Z.^.W.d.K F U y.H.H.3.4.4.f.+X/.y.S i 5 r ; . X X X   X @ O O O # # .     .   * 6 j Z M n u n i w r D B 6 * 7 n | f.W.f.A x F | u.i.F +.h.F.y.8.'.U.:.B 7 h 7 -     X                                                                                                                                                                                                                                                                                                             ",
"                                                                                                                                                                  X v L > m 3.x 3.U . 2 r Z u | ..S U : . 2 h u i H I m @                                                                                                                                                         X                   X     O X   @ 2 * 4 h -.g.-.0.G g 4 b Y m 7 6 h g M Z G J T G.G.H.S.w.F U y.i.H.Z.3.+.f.^.}.H.o.x 5 h ; o . X   X X @ @ @ @ # O     X     .   X ; b J K Z i n u n h n h * 3 M F R F.f.P x V F t.i.w.U X.3.h.F.#Xj.s.s.M 7 7 7 #                                                                                                                                                                                               X                                                                                                                 ",
"                                                                                                                                                                  X 6 N 6 q.B S ..5 * * n n S o.F B 3 . . i n < x R U 3 X                       X                                                                                                                                                               @ # # 7 g m l.:.g.9.m j h m G g ; 3 5 5 h M D M r.].S.h.y...Z o.i.f.F.3.A 4._.#X}.t.V j 5 r : * X         X @ , + @ X                 . ; j Z J S n u r h M h : : n Z K o.w.o.i V S 9.H.^.+.+.T w.u.].Q.:.j.-.h 4 4 4                                                                                                                                                           X                                                                                                                                                     ",
"                                                                                                                                                                X   @ v N 8.L I b 2 # 3 O.S V n U r       3 r 6 b D r ,                                                                                                                                                                                     O   # 2 7 6 7 l.l.l.I.M m m B B H B 7 7 h j B T K O.h.(.G.j.>.K F U y.n.i.F | i.^.H.n.A n j j 7 : * . X .   O X X O O O         X   X . X X . . : h S H j i u n j ; * r S D 8.3.| u r n K y.W.F.i.>.u.+.8.u.G.s.q.:.h 2 2 - O         O                                                                                                                                                                                                                                                                                                   ",
"                                                                                                                                                                    > z b I m B . , # n o.n | P D         3 3 5 7 i 3 2                                                                                                                                                                                         O # z m 7.6X~.k.Y m h h 7 B B G b m m B H :.9.r.d.W.W.d.J U K | +.3.( n o.3.h.4.P F i r 5 6 * - . X                 X       X     . X X X . o * 5 D Z S Z n n h : 7 j Z w.h.y.S w n U | S.^.U.h.i.8.D K s.h.0.k.I b 2 2 . X                                                                                                                                                                                                                                                                                                           ",
"                                                                                                                                                                    1 2 7.Y N > + @ . M S >.y.U 5         u 2 2 D b *                                                                                                                                                                                       O O # 7 I B l. Xl.Y I B B m m 7 b M h M T T K K r.r.G.S.u...J D F F o.3.F y | +.+.+.( S r w r : ; ; . X X       X     O     X     X     . o o # # . * : u U ..D D n 3 6 n Z ..Z.U.o.u r Z U ..H.H.^.w.h.o.O.9.s.7.s.7.G 2 7 7 @                                                                                                                                                                                                                                                                                                           ",
"                                                                                                                                                                  O 2 2 l.8.7 @ @ @ 2 H n >.u.U +       @ 7 2 r I n .                                                                                                                                                                                 X O O   @ N N B 7.~.g.-.H 0.I b B b 7 B g g m R ..O.9.8.i.d.r.| D Z U Z F 3.y.P F o.o.i.w.P V y 5 7 ; * o X X @ #   O     .         O     X     . - # - - o : 2 n | ..J n 3 : n F K u._.8.u r r n o.8.u.F.W.d.O.8.Q.u.7.7.Y Y z 4 b 4                                                                                                                                                                                                                                                                                                           ",
"                                                                                                                                                                    @ q.6.R , X @ . I ..n O.u.D .   X   @ r u U H i &                                                                                                                                                                                     @ > 6 L v 2 7.l.s.q.E.q.B 7 z 4 7 7 h h M H Y T 9.y.r.u.r.o.U F | F P y.y.| P | 4.i.8.o.x i y : ; * o X X > @ @ # @ @   X X O   X + X . X X   o - 5 5 * 3 3 r Z H K J i 2 u D F 8.W.H.C 3 i r S u.y.i.#X_.w.O.j.Q.9.q.n B L b 7 4 @ X X                                                                                                                                                                                                                                                                                                     ",
"                                                                                                                                                                  @ # p.-.L   X @ 2 R D S D O.n .   X   . h n D D 2 .                                                                                                                                                                                       # z B z N 2.[.!.l.z.7.7 7 7 6 h h m B H J T O.>.>.9.y.y.o.U o.+.U 3.3.y.P F } 7.+. .A n 5 3 * * * + X       X @ X + @ X X X X X     X X       o : 5 3 : 5 u h M J K Z 5 r n Z U H.}.>.u r r j 7.w.8.^.4XU.y.3.f.y.7.I h B G m 4 - # X                                                                                                                                                                                                                                                                                                     ",
"                                                                                                                                                                    @ I B 6 X   X # R S w >.>.n X   X   X D R D T H *                                                                                                                                                                                 O     > 6 > v z k.{.z.3.2.B g h 7 h b 7 h B T I U >.u.>.r.d.w.>.w.F.8.Z ..w.+.F F w.w.o.o.S r = : 2 2 &                   . # o . . @ X X X . X X @ X - # 2 h 5 n j k n D H 7 5 n M Z >.Z.H.n 5 r u F u.7.8.&X[.h.y.Y q.3.I T g G h B - X                                                                                                                                                                                                                                                                                                       ",
"                                                                                                                                                                    O v N 6 #     O x N u h.h.h       X X n H S T T *                                                                                                                                                                                     @ 6 2 6 v I [.{.k.q.2.B B g g b 7 h g H I T O.r.d.u.r.u.>.>.d.^.3.F 3.w.o.x } y.i.,.o.j r : * * 3 X                   X 2 2 # - X X @ X X X X @ o X . - : h j M j Z k J j h j H Z D o.h.Z u h r n 8.r.T H.`.Q.y.o.f.j.I ;.Y G g m g ;                                                                                                                                                                                                                                                                                                       ",
"                                                                                                                                                                      @ N N     X   6 u 5 u.d.H     +     2 r 3 U O...@                                                                                                                                           X                                       1 6 b 7 N z.2X[.{.0.I B M g g h g h h H U :.w.9.d.a.r.t.>.w.U.^.3.} o.8.P y Z 4.w.3.S i u : * 2 o               O       X ; @ # - @ X @ X o X - o o X o o 3 5 h j H Z H Z h h K U U F U U j h j u J s.8.8._.*Xh.3.0.W.q.U U -.m 7 B 7 X                                                                                                                                                                                                                                                                                                     ",
"                                                                                                                                                                      O N 7         4 7 * n h.7..   . O X * 2 3 n :.O.4 X                                                                                                                                         X                                       X 6 m b Y ~.~.!.0.N N m m G H h g h H H T 8.>.9.h.a.S.u.r.y.^.U.+.F P +.S x F o.K V r u 5 3 3 # X                       X * 2 # 4 1 # # @ @ o X o o X . . o : j h M J H B h u D O.| Z V n j n h 7 j >.u...r.W._.f.O.u.I.s.M H m 4 g 7 *                                                                                                                                                                                                                                                                                                     ",
"                                                                                                                                                                  O X   > B >   +   1 R 7 4 I B #   X       + 2 6 u 7.R #                                                                                                                                                                         @       , 7 3 u l.!.k.g.L L Y I m G j 5 g h H Z T ;.>.u.r.d.G.a.d.H.`.i.T F U O.V n n F j i i 5 r 7 2 X                           O # @ 2 4 1 . # X X - @ X . o o # & 5 h j Z J K Z u n ..8.+.Z n i r j r 7 Z r.>.D u.W.f.o.U j.u.U U G 7 4 2 7                                                                                                                                                                 X                                                                                                                                   ",
"                                                                                                                            X                                           O 7 #       > I 7 # 2 #         X X # o 2 6 M M 2                                                                                                                                                                                 6 2 7 Y  X!.!.0.L L Y m h j h g h G H J I 7.d.s.a.d.d.u.B.].`.t.P P +.+.i i w V j u 3 5 5 3 *                               X @ # 4 2 - # # # o X o o o o o - * r j Z K J Z r h K :.7.U D u 7 5 5 3 h O.8.D o.H.h.O.o.r.I.:.R R M g ; 4 2                                                                                                                                                                     X                                                                                                                             ",
"                                                                                                                                                                      X           @ @ Y I 7 #               . ; o 7 7 u #                                                                                                       X                                                                       6 x 6 6 0.|.Q.g.B b N N h g g ; ; h J Y T ;.s.s.a.B.I.d.8.Z.`.`.3.| S w.o.n n P n V u r j u ;     X                   O             # 1 2 2 o o o - - o o - # o o * h j U U K b r n ..O.:.U n u 7 7 ; : 6 :...M u.^.u.u...G.W.R R 9.G h # 7 #                                                                                                                                                                                                                                                                                                 ",
"                                                                                                                                                                    X           X - @ N Y I #               X O > 7 b 7 O                                                                                                                                                                       X     # 7 6 1 7 0.[.p.2.z z b u 7 7 2 2 3 7 B J -.>.j.S.s.d.d.s.h.W.&X_.y.U P 8.o.Z ..o.F Z j h h 4         X         X   X                 @ > 2 6 1 > . # - o o o o - - - ; 4 J J J j ; h Z T O...j g g h g ; : 7 D K o.G.G.h.r.u.h.7.R q.7.T g 7 #                                                                                                                                                                                                                                                                                                 ",
"                                                                                                                                                                                    @ 6 v -.2                   # # 6 b 7 O                                                                                           X                                                                             @   1 # X 7 !.E.2.L z 7 z 7 N 7 > 2 2 7 h n K S.a.I.d.,.a.U.F.H.`._.y.U o.i...U X.Z D j u j r .               X                         O O 2 6 2 1 @ @ - . X X X - ; ; ; - 4 h -.Z 5 g j Z H U M g g j h j r 5 7 n :.w.u.F.u.u.7.8.>.O.9.9.J h 4 @                                                                                                                                                                                                                                                                                               ",
"                                                                                                                                                                                      2 b B *   O                 O # 7 b 2                                                                                                                                         X                               X   @ # 2 v !.z.I L b 6 6 v b 2 * # 7 h M B >.G.S.d.>.9.U.(.H._.(.H.X.F ..d.U +.O.S i h j h ; X                       X                   O @ 1 6 2 # # - 2 o o o o - 4 4 4 - - 5 j h ; 5 J G K H j g g M J B n h r Z >.8.r.h.7.w.q.7.8.u.8.Y m g 7   X                                                                                                                                                                                                                                                                                           ",
"                                                                                                                                                                                        b R 4                         X 2 z 2 O                                                                                                                                                         X               @ > 1 7.[.k.q.L 6 7 b 7 6 4 - 2 4 7 h J >.d.s.u.>.,.I.U.(.].W.h.o.U i.8.S ..F u j h h 2                                             X     X 1 1 2 # # # - o - o o - 4 4 5 ; - ; ; ; ; h H H I j 4 g h h M U T b 3 n :.8.r.8.r.h.3.0.j.9.9.-.g g 7 @                                                                                                                                                                                                                                                                                           ",
"                                                                                                                                                                                      X 6 Y 4                         X @ > z 6                                                                                                                                                                         # > 2 z.2Xz.z.L z 7 7 z 7 3 # - h g M K 8.9.r.y...+.d.Z.(.}.S.y.+.o.S.+.F | n r r 7 5 X                               X X             O     @ 2 6 2 # 1 - X @ o o o o 4 5 5 ; - X - - 5 m J -.m ; 5 g j M D :.K y 5 b U :.O.7.h.8.O.8.:.q.s.Y g v 2                                                                                                                                                                                                                                                                                           ",
"                                                                                                                                                                                        @ b Y X                           X # 2 4 6 X       X                                                 X O                                           X                                         O         X     O > # 2 !.{.E.l.x 7 z b b 4 6 2 7 g h J ;.d.U.d.r...t.Z.D.Y.U.i.S.w.r.S.| K U n i h 7 o                                                     O   @ 2 # ; 1 - - X X - o o - ; ; 4 5 - - # o 4 h m m g ; 4 h h B H H M 5 2 7 H ..K y.q.T 8.g.-.s.0.m 4 #                                                             X                       X                                                                                                                                                                                                     ",
"                                                                                                                                                                                          2 0.1                               X # b 7                                                                                                                   X                                               > 1 N 2Xz.z.7.z z 7 N b 7 2 7 x h h B :.U.U.8. .>.w.F.S.B.i.i.Z.w.i.i.Z D M u u r -                                         @                 @ O # 7 7 # # . o o - - - X - ; 4 4 # - o - 4 M J g - 4 m b S H H D n 3 < n K U R R U 7.E.q.q.q.m 4 #                                                                                                                                                                                                                                                                                           ",
"                                                                                                                                                                                      X     m L                                                                                           X                                                                                             X               > 1 N [.~.l.I z 6 z b 7 4 g 4 h 5 h G d.G.r.K J i.S.^.P.i.F.i.i.w.Z.O.V F M h h 7 X   X         .                 X                                 2 2 # X X # o o X o o - - - - # o 2 5 - 4 m m - - 4 M n I F ..3.S 3 r b D U D M H h.q.0.q.7.b - X                                                                                 X             X                                                                                                                                                                                         ",
"                                                                                                                                                                                          X   B 1                                                                                             X O             X                                                                                         1 1 L {.~.k.Y v b g v 7 b b 4 u 7 j 9.'.d.K D | h.^.`.Z.t.H.d.y.i.d.| Z Z h h h .                             O                                     @ 2 ; 4 # @ @ . X X # # @ . o # . ; 5 5 - ; r ; # ; 7 j I K o.y.7.n 5 r i M j T j -.Y -.:.9.-.; X X                                                                                                                                                                                                                                                                                       ",
"                                                                                                                                                                  X                         @ 7 R                                                                                                                                 X                                         X                           @ @ I 5X!.!.I b m 7 m b n m 7 3 h J u.G...V F +.U.^.F.%.H.^.i.y.i.y.F U h r g ; X             O     X     X                                           X 1 4 - . # @ @ X # @ * o o # X . 4 g m 4 ; o . # 7 g H :.| 3.0.F h u h h h M G H -.M -.:.-.h X X                                         X                             O                                                                                                                                                                                                               ",
"                                                                                                                                                                                                2 @                                                                                                                                                                                 X                   X - Y {.!.E.Y v b m G m M u 7 3 j u.9.;.j j T u.G.S.8.w.H.H.i.y.8.| S Z r 5 4 X                                                           O             # 6 - @ # # @ X + X # @ @ X X X o 4 m u 6 o X X 2 b H 7.+.8.Z.7.U n M M h h h B j.-.J :.-.-.g X                                                                                   X                                                                                                                                                                                                   ",
"                                                                                                                                                                                                                                                                                                                                                  X                                                   @   @ -.!.4Xz.v 7 h h m h M h 6 7 B r.T Z J K :.,.Z.Z.+.i.f.d.y.o.+.U B i 5 4 X                                                                             # - 1 * # @ @ @ . X X o o   X o - 5 h j ;   X # 6 I O.3.8.h.h.S.+.n H j h H H s.p.G -.p.-.-.-                                                                                                                                                                                                                                                                       X               ",
"                                                                                                              X       X                     X                                                                                                                             X     O               O           O                         X   O   X                   X                                     @ > -.6X6Xk.m 7 B b m M M b g g Z J j k T o.>.S.(.S.y.i.F.Z.w.8.8.S u 5 4 o X         X     @                       X         O X                   O       # 4 4 @ X + @ X X . @ @ X   X o ; 5 j 5 o X   * m O.O.O.+.u.W.G...n n h D 8.s.;.G G 9.9.-.g o                                     +   X   O     X         O                 X                             X                                                                                                                       X       X                                       ",
"                                                                                X                                                                 X                                                                                                                                                             O         X                     X                                       X             @ - 6 Y 6X{.N v b v N B G h g j M J M j Z ..X.S.U.U.i.y._.F.B.>.>.U j j : -       X   X                                                     O                 + # 4 , . X X X     X o . X X X - 5 h g o X X @ 3 B O.T U +.G.F.r.o.U n H J j.g.;.-.-.p.-.G 7 X                                                               X           X                                                                                                                                                                                                       ",
"                                                                X                                                                                                                                                                                                                             X                                                           X                                           @ 6 6 N z.6.6 6 6 m b B B h g h M -.M J J O.u.U.U.Z.>.S.`.S.r.8.>.D h 7 ;   X               O                                                                   @ 2 6 1 @ # @ X X . X X X X X o 2 g 4 - X # X * j ;.>.....H.}.#Xi.i.>.M U -.s.j.-.-.;.-.-.u   X     X                                                                                   X     X                                                                                                                                                                                 ",
"                                                                                                  X                                                                                                                                                   X                                         X                                                                                               X       6 6 Y -.6 v 6 6 m b m M h h h Z M M J Z >.j.U.U.d.>.S.Y.S.d.>.| Z h 4 .     X                               O                                                     @ 2 # # . @ X X X X .   X - o 4 g 4 o # * . 2 I u.O.| Z.*X5X}.t.S.>...J -.;.-.-.-.,.:.B 2                                                             O                                                                                                                                                                                                                     ",
"                                                                                                                                                                                                                                                                                                                                                                                                      @ v B Y Y g - ; 7 g g H I G j M J T T O.>.d.u.d.S.w.;.d.G.H.Z.| D i b #         O         O                                                                         X # , 2 # X X # # X X X X X o 4 5 4 - - : ; ; M u.u.i.w._.3X&Xd.s.d.u.H M M J T G -.:.B 7     X                                                                                                                                                                                                                                                       X                     ",
"                                                                                                                                                                                                                                                                        X                     X                                                                             O           O             1 g 6 0.k.m ; 4 g h -.-.K H G Y J U u.>.8.h.h.U.U.8.r.H.H.H.y.T M u 6 X                                                                             X                 O @ 1 2 # # - - X X   X X - - 4 ; - - 4 5 : w K u.d.e.f.&X^.S.w.u.u.I M h M 9.Y H G m N >                                                                                                                                                                                                                                   X                                             ",
"                                                                                                                                                                                                                                                                                +                       X                                                                                           O 2 v m !.!.L 4 4 4 H 9.-.H G J -.J K r.J G h.].&Xh.>.r.(.G.S.r.U n 3 +                 X                                                                                 X # 1 1 1 # - # X X X o - 4 4 4 - # 4 3 j 3 i X.y.y.F.&X#XD.S.s.;.T J m M :.:.J G z L 4 X O           X                                                                                                                                                                                                                                                                 ",
"                                                                                                                                                                                                                                                            X       O     O                                     O     X                                             X                                 1 N R ~.z.Y 7 g h k.q.G B j Y >.>.U.7X>.M O.j.G.>.Z.].H.h.h.u.Z h #         X               X         O X       O     X                                               +     X 1 6 2 @ X # X X o - 4 4 4 ; o ; 7 n n j ..G.Z.i.i.H.i.H.d.>.-.-.M M G :.G G B B z                           X                                                                                                                                                                                                                                                     ",
"                                                                                                                                                                                                                                                                    X                     O         O                 O                                                                               6 L 0.~.k.B b B l.{.7.B Y G Z ;.s.7XdXQ.M j Z ....H.].U.Z.h.;.M 7 X                               X                   O                                                     X @ 2 6 # X @ X X o # ; ; 4 ; - ; g j Z H B w.H.r.%.3.u.r.w.>.T ;.Y G G :.G h L g 6 @                                       X                                                                                                                                                                                                                                       ",
"                                                                                                X                                                                                                                                                                                                                                                                                   X   X         X   > z 6.qX!.G 7 7.2Xg.I I ..J J >.].qX5X9.r j u 9.j.^.^.^.d.8.J Z 2             O                                                                                       .     X     1 4 2 > X . o o - 4 : ; ; ; 5 g G H H Z +.h.w.i.w.S.>.>.J T -.-.M Y Y G B B - @                   X                             X   O                                                                                                                                                                                                                         ",
"                                                                                                                                                                                                                                                                                                                                                                                                      > # p.kXE.L Y 9XE.B B H D K J ;.U.iX>Xj 0 h Z w.d.h.S.i...J H g .   X               X   X                 X                                     X                                 @ 7 z # o o - - - 4 4 - - - 5 g j M J K F >.Z.F.u.r.>.w.:.-.;.>.H m I I B m 4 - @                                                                                                                                                                                                                                                                             ",
"                                                                                                                                                                                                                                                                                                                                                            X                                     X X 1 1 2XlXk.Y 6XvXR b M B M T >.T u.U.j.;.r 3 ;.d.;...w.O.F Z M : X                                                                                                                   O 7 3 o o - ; 3 4 g 4 - - ; 5 h B U ..O.F U ,.u.d.a.9.;.:.>.:.H g h K -.m 6 4 X                                                                                                                                                                                                                                                                             ",
"                                                                                                                                                                                                                                                                                                                                                                                                    # 6 b 9X9Xp.p.vX~.L m B O.T >.,.' O.>.F...j U ;.;...;.>.U F n j X                                         +                                                                             X * g - # - 4 4 4 1 - ; ; 4 g h J U +.>.Z j K O.d.y.T U O.9.U h 7 G :.G 4 -                                                                                                                                                                                                                                                                               ",
"                                          X                                                                                                                                                                                               X                           O                                                                                                                               2 l.lX4X!.CXqX7.Y H -.r.r.>.u.S.h.| O.K T >.K n Z J K F n M 3 X                                                                                                                         X - 4 - - 4 4 4 2 - # - ; 5 h M Z X.>.>.U C n K U D K ....J B 7 7 I G g -     X                                                                                                                                                                                                                                                                         ",
"                                                                                                                                                                                                                                                  X                       O       X     X                                                                                                           # I 9X9Xk.9XZXp.J -.I 8.j.,.>.i.S.S.| n j Z D Z Z J n j h M j .     X             X X       .     O                                                                                     O   X 4 4 4 2 1 4 2 - - - ; 5 h j Z H O.8.r.7.F n n S ..8...H J h 7 h -.M - @                                                             X                                                                                                                                                                   X                                           ",
"                                                                                                                                                                                                                                                                                                                                                                                          X         2 7.9X XY 9X{.h m U U >.9.F.F.,.t.,.Z w r w r r Z j j j j u - X                                                           O       X                                                           @ - 2 - 1 4 4 - - ; - ; g h j Z H ..r.i.y.F V j U o.U U >.D h 4 T -.4 @   X                                                                                                                                                                                 X X                                                                                     ",
"                                                                                                                                                                                                                                                        X                                       X                                                                                         X   X   X g q.4XE.q.4XY h m j D 7.r.`.H.n.B.w.F r r : r j Z j r 5 7 :                   X                                                                                                               @ # 6 4 1 4 7 ; - o - - 4 6 h h D T +.y.r.9.y.o.U o...J T ;.:.M H T g @                                                                                                                                                                                                                                                                             ",
"                                                                                                                                                                                                                                                                                                                                                                                              X X 1 L T E.6.z.~.B h 7 7 K ..i.H.F.Z.^.w.' F j S J j j h r r 7 #                                                                                                                                 O     # 6 4 2 6 - - o o ; : 3 r u n U | y.Z.u.r.u...Z K ;.Y T >.T H Y Y 1                                                                                                                                                                                                                                                                             ",
"                                                                                                                                                                                                        X                                                                                                                                                                                         4 G T p.6.0.R m 7 b h D U o.F.F.t.y.o.K X.o.J Z j 5 r 3 r 4 X                                                                     X                                                   X             O 2 7 4 2 - o - o - ; 4 2 h j K U 8.u.d.+.O.K Z D Y O.-.T -.-.:.q.2                                                                                                                                                                                                                                                                             ",
"                                                                                                                                                                                                                                        X                                                                                                                                                       X 7 Y q.Y Y 7.B M b n h n S S o.3.4.+.,.o.' o.j h 0 3 5 5 h ;                                                                   X                                                                     O # 4 4 4 - o X o X - 2 3 5 j Z D O.>.>.T U K n h M M T K :.;.:.s.b                                                                                                                                                                                                                                                                             ",
"                                                                                                                                                                                                                                                                                                                                                                                                # 1 Y 6.B G B g h b g h h h j Z Z A o.w...Z n j r : 3 3 j h # X                                                                                                                                         X - 4 7 2 2 o # # # ; 2 4 h h j K ;.:.:...K H M j 4 h Z 8.9.:.8.D                                                                                                                                                                                       X                                                                                     ",
"                                                                                                                                                                                                                                                                                                                                                                                        O X @ # 6 Y z.6.m B M h g g 5 g j j j Z i k o.o.F j V V : : r j h 7 o                                                                                                                                               1 # 2 6 # X # @ # ; 4 5 h h G Y ;.:.U H G M h 3 7 h T 9.>.8.:.#                                                                                                                                                                                                                                                                           ",
"                                                                                                                                                                                                                                                                                                                                                                          O       X     X @ # > 0.3X XR v B B h 7 h 3 3 m Z r j j j o.| A n F r 3 3 J b 7 6       X                   X                                                                                                             @     X # # 2 7 2 X o @ o o ; 4 g g j J H I J j h M g 4 3 3 G d.h.r.h.M .                                                                                                                                                                                                                                                                         ",
"                                                                                                                                                                                                                                                                                                                                                                              O         @ @ # l.6X|.k.B B U m m g 7 h h M j j r j i Z V F K Z i u M J u 7 #                                                                                                                             X         X         X # @ 4 4 1 X   X # o - ; 3 g h j m h h h h 7 g : 5 Z r.S.s.G.l.3                                                                                                                                                   X                     X                                                                                               ",
"                                                                                                                                                                                                                                                      X                                                                                                                   O         @ # 1 1 -.6X4XE.Y b B L m h g g j B j j r r r w i j J Z r : n Z M n . X                                                                                                                                     X         X   -   @ 2 - X     X o # # - ; ; 7 r g h 5 : 3 5 2 j u X.9.y.h.~.T                                                                                                                                                                                                                                                                         ",
"                                                                                                                                                                                                                                                                                                                                                                                @ @ O # # B q.E.g.q.R b N N b M 5 4 5 r j 5 : % y u j u n r r j n r u * X                                                                                                                                           X         X # 4 7.b X X X X X . X   o - - : ; 3 : : 3 3 J K >.u.O.r.h.W.h.#                                                                                                                                                                                                                                                                       ",
"                                                                                                                                                                                                                                                                                                                                                                              O @ # @ @ v p.6.6.3.g.L g G m h b 5 - 4 5 3 : : : w u n u y : h Z h 5 3         O                                                                                                                         X                     2 R l.z.Y # X # X   X   X X # ; ; ; * ; - ; 3 J d.^.U.w.| i.h.Z.n                                                                                                                                                                                                                                                                       ",
"                                                                                                                                                                                                                        X                                                                                                                                                       O     # N Y I R !.0.m I m h 7 h 5 5 : * o : = ; : 3 r 3 = : h j u 5 #                                                                                                                                             @ X       4 ~. Xg.I Y u . X X X   X X X o - - 3 5 : 5 r 5 j H h.h.Z.y.u.F.h.7.&                                                                                                                                                                                                                                                                     ",
"                                                                                                                                                                                                                                                                                                                                                                                  O @ 7 L v L R l.Y M -.h h j h h 5 ; ; : ; ; & ; - : : : 5 h 3 3 2 X               O                                                                                                                                     1 E.kX X0.N 2.z @ @ @ o X X X X X . . ; r h 7 r 5 3 r n U d.i.>.u.w.8.3                                                                                                                                                                                                                                                                     ",
"                                                                                                                                                                                                                                                                                                                                                                                  O + b v 6 B L 6.g G I g g h h : h 3 : 5 3 : - ; - - o - * ; & : 6                                                                                                                                               O   O O Y 2Xz.k.L 0.g.z 1 1 @   . X X X X     . ; 7 j n j 5 r i u ..o.o.O.8.3.x                                                                                                                                       X                                                                                                                             ",
"                                                                                                                                                                                                                                                                                                                                                                                  X @ z 7 v I Y m 4 m h 4 g h g 4 3 ; : r 5 : : 5 o o X o - & - 7 7 X                                                                                                                                           O O O O 6  Xz.k.L z 2.L 2 # 2 # X X . X X   X X X o ; 3 h j 5 ; u n S o.o.T 7.y.B                                                                                                                                                                                                                                                                     ",
"                                                                                                                                                                                                                      X   X                                                                                                                                                         6 N 7 v I L 6 v G 4 4 5 5 5 3 ; - * : 3 : ; 4 - o - - o o ; g ;                                                                                                                                                   @ !.4Xk.0.z Y L 6 # X - # - o X @ . . X   . o - o : 3 7 5 h j T u.o.+.O.8.D                                                                                                                                                                                                                                                                     ",
"                                                                                                                                                                                                                            X                                                                                                                                                     X 7 L z b v 6 - Y m 1 4 4 4 g 5 - o ; o ; : - - - o o o . ; 7 h -                                                                                                                                             @ @ # N 2Xk.Y N I 6.b 2 # # X # # # X @ . @ . X o o o o o 4 7 h 6 i U +.:.>.8.O.n                                                                                                                                                                                                                                                                     ",
"                                                                                                                                                                                                                                                                                                                                                                                  # B B b z 1 # 4 N 6 - 3 4 4 ; - - o o o o o - o - - - o - 6 7 h #               O                                                                                                                                 > {.k.Y b N L L 7 - 1 X - X - - . @ - * # ; ; 2 - : ; ; : 5 : r Z K U +.8.T h                                                                                                                                                                                                                                                                     ",
"                                                                                                                                                                                                                                                                                                                                                                                  4 I N 6 v 2 > 7 7 # 1 5 4 - - - o o o o o - ; - o o o * - 3 h b .                                                                                                                                             O O Y [.0.Y b g m 4 # - ; - - # - ; - @ # - # 2 4 ; ; o ; 4 ; 6 : : h D K K U M 7                                                                                                                                                                                                                                                                     ",
"                                                                                                                                                                                                                                                                                                                                                                                  7 B N b b # # z 2 # 2 5 - o o - o o o o o o - o o # ; - - u M 7                                                                                                           X                         O         O O k.0.L N 6 4 7 4 - 2 - ; - @ - - o - o @ # @ * ; : 3 : : ; - : r i j K j j n 3                                                                                                                                                                                                                                                                     ",
"                                                                                                                                                                                                                                                                                                                                                                              O # v B N L 7 O # 6 O # # , 2 @ . o # . X # # o @ X o 4 ; - ; u b :                                                                                                                                                 @ 0.B z z 4 2 2 ; - # o - # o o o - ; - o - - # # : 7 3 7 * # * 3 3 3 7 r j n ;                                                                                                                                                                                                                                                                     ",
"                                                                                                                                                                                                                                                                                                                                                                              O 7 6 b N I 6 # 6 2 O , # > # # # ; # ; o o o - . o - 4 - - u u h .                                                                                                                           O             X       > R b 7 7 4 4 # 2 - @ - o o - - X - ; - - o o # . - - # # @ . * r : 3 3 r h 6 X                                                                                                                                                                                                                                                                     ",
"                                                                                                                                                                                                                                                                                                                                                                          O O # z 2 b L L 2 @ 6 >   # @ X # . @ - - . # .   o # o - o o ; h u 6 X                                                                                                                                                 7 I b g 7 - # ; # - o - # o # o X o 4 - - o o # @ # 2 + X . @ * 5 2 * : : 3 X                                                                                                                                                                                                                                                                       ",
"                                                                                                                                                                                                                                                                                                                                                                      X     O @ 2 6 b N b 2 > z @ # , #   X @ . o .   X   X X . : - o X 2 : 3 7 X                                                                                                                                                 B B b v 7 4 2 5 4 # - # # - # X o - o - - o X # + @ . . @ X . # o * * 5 5 o X                                                                                                                                                                                                                                                                       ",
"                                                                                                                                                                                                                                                                                                                                                  X                         @ 2 > 7 b m g - 2 6 @ X # . @ . o # @ @ X .   X   # - - X . 2 3 7 7                                                                                                                             O                 X X B m 7 7 4 ; 4 ; ; - ; - o X . X X - o - - o o .   X . X X X   X * # o ; -                                                                                                                 X       X                                                                                                                                                 ",
"                                                                                                                                                                                                                                                                                                                                                                            > 2 # g m I 7 1 7 1 # X - - @ X # o .       +   X @ X   X ; : 7 h *                                                                             X                                             O     X       @       6 Y m b 7 2 4 4 - - - - - - X   X X X . o o X X X X       .   X X X . . .                                                                                                                                                                                                                                                                             ",
"                                                                                                                                                                                                                                                                                                                                            X                               # 1 > 1 L L 7 1 g 1 X @ - # . . X X   X   X +   o -     . : ; 7 r @                                                                                                                                                 b G g B 7 4 4 ; - - o o o o o X X X X . X X   X . X X     . .   X X # @                                                                                                                                                                                                                                                                               ",
"                                                                                                                                                                                                                                                                                                                                                                          O   @ > 6 L Y 7 6 7 @ X X # @ o   X   + X . @ @ # - # X X - ; - : 4 X                                                                                                                                 X             B R m M m 7 : ; o o - o - - o o o   X X   X o   X X .     X . X . . . # X                                                                                                                                                                                                                                                                               ",
"                                                                                                                                                                                                                                                                                                                                                                            @ @ 6 v L N 6 6 7 # + # # @ X   X X   X X   # - # . X X # o % 6 2                                             X                                                                                             X O 2.E.B x D m 7 # - - o # o - o o o X X     . . X X   X   .     X O + * @ # +                                                                                                                                                                                                                                                                               ",
"                                                                                                                                                                                                                                                                                                                                        X                             X O   # > 6 2 N v z N 2 # # O O # +   . X   X X . # # X     # # @ 4 5 o                                                                                         X                                                 N ~.z.3.B M I 7 2 - ; # - # # . X X X X X . .     X   . X X . X O @ # @ # X                                                                                                                                                                                                                                                                                   ",
"                                                                                                              X                                                                                                                                                                                                                                                           @ # # @ O 2 6 6 b 2 # # O @ # + X O . .   @ # # ; X   # # - - 6 4 X                                                                                                   X                             O     @ 2.4X|.R L h G M 4 # o - ; o o X   X   X . .   X X X   @ . . X X @ # # # #                                                                                                                                                                                                                                                                                       ",
"                                                                                                                                                                                                                                                                                                                                                                                O @ > 2 v 7 > X @ @ O # # @ @ @ X . # . * X   X # * 4 4 : X                                                                                                                           X       O O v ~. Xk.2.B x Y U 2 2 ; X . X   X X X   X X . X . .   X . @ . @ . # @ @ X                                                                                                                                                                                                                                                                                           ",
"                                                                                                                                                                                                                                                                                                                                          X                         X       X     @ @ 7 N 7 @ @ @ @ @ @ @ @ @ @ . X @ - o . X X . ; 6 4 @                                                                                                                           X   O X     L 6X X7.N N > 7 R b * ; # X   X     X X X . . .   X   X   . . @ @ @ @                                                                                                   X                                                                                                                                                                                             ",
"                                                                                                                                              X                                                                                                                                                               X       X                                                   X       @ 6 7 b z # # @ @ @   @ O # . X X # - o   X X - @ # X                                                                 X   X                                                                 N ~.p.N z 2 1 2 Y b 4 2 2 - 4 # .   X X   X X o X .   X X X . @ # # + O         X                                                                                                                                                                                                                                                           X                           ",
"                                                                                                                                                                                                                                                                                                                                X                               O               O > 7 1 b 6 # X # # @ X @ X X @ @ @ # # @ X X   @ ,       X                                                                                                                                 + z.2.2 2 4 > 2 I Y 4 2 - 6 g g o   X X   X X O   . X X   . @ @ # > @       X                                                                                                         X                                                                                                                                                                                   ",
"                                                                                                                                                                                                                                                                                          X                                                           X                         @ 1 6 v z 2 # @ @ @ @ @ @ . X . # . # ; X X X . # +                                                                                                           X         X                   7 Y z > 6 2 6 Y 0.z 1 - b b 2 - .     X       X @ . X     . X @ # # X                                                                             O     X                                                                                                                                                                                                                 ",
"                                                                                                                                                                                                                          X                                                                                                                   O                   X             @ # 6 z 4 6 # # . #   X @ . X . @ # 2 2 @ X @ > # X     X                                 O                                                                                               @ m b > 2 2 > L Y b z z z b 7 X     . X X     O   X . . .   X @ # # O           X                                                     X                                                                                                                                                                                                                                     ",
"                                                                                                                                                                                                                                                                                                                                                                          X         2 6 7 > 1 2 # # X X X . X   @ 1 2 1 #   # 1 #                                                                                                                     X X                   7 7 2 6 N q.Y B x L x 4 2 O X   O .     X .   .     @ o # @ # > X X                 O                                                                                                                                                       X                                                                                                                             ",
"                                                                X                                                     X         X                                                                                                                                                                                     X                                                   X     @ @ 6 b 7 > 1 1 @ @ X . X X   X . - 2 # X @ # #                                   X                     O             X           X             O                                           2 2 z B !.2X7.R L B 7 @ @ @   X # + .     X       O # . X + # # O                                                                                       X                 X                                                                                                                               X                                         X                     ",
"                                                                                                                                                                                                                                                                                                    X                                             X                 X       O     @ 6 N 2 > # @ X .   X X X X X # X # @ @ @ 2 X                   X                           X                       X   @ @         X       O               X                           O # 6 > 7.4XE.2.L N 2 @ @ @ X @ # + X   X     X   + . + @ # # +                 X                           O                                                                                                                                                                                                             X                 X                               ",
"                                                                                                                                                                                                                                                                          X                                                                                                     O O 2 b 7 1 # #   @ X X X X   X   X o X X # # O                                               O                           X   X                                                           O > 6 6 z.[.p.z 2 2 @ . # X X . @ . . X X X       @ # # # # @                                                                                                                   X                                                                                                                                                               X                           ",
"                                                                                              X                                                                                                                                                                                                                                                                                   X 7 L 6 2 @ X @ @ X   X X o . X . o . 1 >       X                                                                               X X                                                         2 L 9X!.R 1 @ # @ @ @   X X . X     X . X X .   X O   O                                                                                         X                                                                                                                                                                                                                       ",
"                                                                                                                                                                                                                                                                                        X                           X                   X                                         O v I 7 1 X X + + X   X . @ @   X - 2 2 #                                                     X       X                               X                     O     X                   X   O # L {.R 6 # # X . . + X X # X X   X X   X @ #                                                                                         O                                                                                                                                                                                                                                 ",
"                                                                                  X                                                                                                                                                                                                                                                                                                 v N 4 1 @ O @ @ +     o @ . . X # 2 #                   X   X                                                     X           X                                                           # Y 2.7 1 6 # # # X X . X X X   X   X X   # # X   X                                                             X                                                                                                                                                                                                                                                       ",
"                                      X                                                               X                                                                                                                                                                                                                                                                           # N x 2 2 +   + X   . . # . X X . 2 4     X                                                             O       X                     X                                                     # Y I 2 # ; @ # . X X   X   . X   X X X   @ X                                                                                                             X                                                                                                                                                                                                             ",
"                                                                                                                                                                                                                                                                                                        X                             X                                           > L 7 # # X X X . .   X @ X   X X 1 #               O                                           O                   @                                         X                         X   X v 7 # # X + # .   X   X .   X +   X X ; 7 X X X                                                                                                                                                                       X                                                                                                                                               ",
"                                                                                                                                                                                                                                                                                          X                             X                                                         # N 2 O @   O X X X   X . +   + X 2 >                   X                                             X                               O   X     X                                             @ 2 @ @ o @ # X X O X X X O   . . X X 6 u                                                       X                 X       O                                                                                                                                                                                               X                                           ",
"                                                                                                                                                                                                                                                  X                                             X                                                                               > I N 2 # . X     +   X   @ X @ X X 2 > X   O   .           X       X                     X                                                                                                     @ 2 1 . @ @ @   X +   . X X O X   X o 2 v 2     X     X                                                                                                                                                                                                                                                                                                               ",
"                                            X                                                                                                                                                                               X                       X         X                       O                       X                                                           X   O b p.N 6 # O . X X X X X X # # X X @ 4 >                                                                     X                 X                                                             X     > 2 . X o X X X X X   X X X o . o o g Y g @ X O                                                                         X                                                                                                                                                                       X                                                 X                 ",
"                                                                                                                                                                                                                                              X                                                     X   O                                                                     B ~.2.7 7 # O +   O .   O   * *   # 1 4 2                                                 X                                                               @                                           # ; o # X X X X   X   X X o . . 5 g M M ;             X                                                                                                                                                                                                                                                       X                                                   ",
"                                                                                                                                                                                                    X                                                                                                                                                                 X   O 6 [.k.N 6 1     X     X   X   4 ,   # 1 6 1                                 X                                                                                                                           @ 2 # # . X o X X X X X o o X - 7 G 7 m 4 X       O                                                                                                                                                                                                                                                                                                               ",
"                                                                                                    X                                                                                                                                                                                                                                                                     2 l.k.N z z 2 X       X X     O # # X X 2 6 #               X                                                                                                                                               ; 2 # # . o X X X o o o o - o 4 5 h B Y 6                                         X                                                                                                     X                                                                                                                                                                       ",
"                                X                                 X               X                                                                                                                                                                           X                           X                   X                                                       O O 7 k.I 1 6 L z O                 ; 2 o # 2 2 @                             X       X                   X           X                         X             X                                                 @ 6 2 @ . # ; o o - - X o - - - ; 4 m ;.m @                                   O         X                 X                                                                                                                                                               X                                                                                     ",
"                                                                                                                                                                                                                                X                                                     X         X                       X                                                 z Y 7 2 7 Y 7 @ X       X   +   . 6 - # 6 2     X                                                                             X                                                                               # 4 # @ o o o - - - X - o - - ; 4 m -.G 4                                               X       X                               X                                                                                                                                                                           X             X                                   ",
"                            X                                                                                                                                                                                                                                                                                                                                         O # I N 6 2 L 7.7 X   X             . 3 ; o - ;                                                                                                                                                                     # 4 2 o - o o - - - - - - - - 5 -.-.h 6 X X                                                                           X                                                                                                                                                                                                                                     ",
"                                                                                                                                                                                                                                                                                                                                                                      O > L N x 2 L Y ,     X   O X   + X X ; . * : 2 X                                                                                                                                                                     2 4 o - o o - - 4 - - 4 4 4 4 M G M Y 4     X                                                                                                                                                                                                                                                                                                             ",
"                                                                                                                                                                                                                                                                                                                                                                        O z v 6 z Y b #     X X         . X . ; o 4 6                                                                                                                                                                     X @ 2 - - - o - - - - - - - ; 4 g g h Y h o                                                                                                                                                                                                                                                                                                                 ",
"                                                                                                                                                                                                                                                                                                                                                                      O # Y N z q.0.7 > X X         .       o o o : h X                                                                                                                                                               X       # 4 - o - o o - X - - o - - 4 M J h B ;                                                                                                                                                                                                                                                                                                                 ",
"                                                                                                                                                                                                                                                                                                                                                                      O > 2.Y Y q.I 2 @         . X   X o . * o . u h X                   X                                                                                                                                                     - - - o - - o - - o - - - ; m -.H B 2                                                                                                                                                                                                                                                                                                                 ",
"                                                                                                                                                                                                                        X                                                                                                                                             O N E.l.g.B 7 # # . . X     . . # * o : * - 2 6                               X   X                                                                                                                                       X ; - o - - - o - - - - - - 4 J K I h 2                                                                                                                                                                                                                                                                                                               ",
"X                                                                                                                                                                                                                                                                                                                                                                     O Y {.z.0.2 , # + # # - # o - # o * o # - * ; -                         X                                                                                                                                               O X o 4 o o - o X - - o - ; ; h j g j m g X X X                                                                                                                                                                                                                                                                                                         ",
"                                                                                                                                                                                                                                                                                                                                                                      > q.g.0.Y 6 2 X . + # - ; o o o . . ; 3 : * 5 :                                                                                                                                                                             X - - o - - X o o o o - : ; g j Z h M 4 X X                                                                                                                                                                                                                                                                                                         ",
"                                                                                                                                                                                                                                                                                                                                                                      2 k.p.2.L 2 # @ # # + . X o . . * o 5 u : . 5 ;                                                                                                                                                                               X 4 - - - - - - - o - - o o 5 H h 3 4 -                 X                                                                                                                                                                                                                                                                                         ",
"                                                                                                                                                                                                                                                                                                                                                                    X Y k.g.g.6 6 # # , 2 * * : - - & . * : u 3 5 j ;                                                                                                                                                                             X X o 4 - X - - o o o - - 4 ; 5 Z B b B g @             X                                                                                                                                                                                                                                                                                           ",
"                                                                                                                                                                                                                                                                                                                                                                    O 2.N 2.L , * # + # 2 * : * : : & % = u 3 3 7 : X                                                                                                                                                                                 X g 1 # @ - o o X X - j g ; 3 7 7 I I < O X   X                                                                                                                                                                                                                                                                                                 ",
"                                                                                                                                                                                                                                                                                                                                                                  O > 6 N q.z < 2 # . # * : u r : r r 5 3 r u : 3 X                                                                                                                                                                                     - 4 # X o o o o - X 4 M 3 2 j :.N R N 6 #                                                                                                                                                                                                                                                                                                     ",
"                                                                                                                                                                                                                                                                                                                                                                    > 6 Y 3.x > 2 . & * * 3 5 3 : : j r : 3 : ; X           X                                                                                                                                                                       X   X 4 - - - ; - X o o - h I h x 3.T Y I N 7 O                                                                                                                                                                                                                                                                                                   ",
"                                                                                                                                                                                                                                                                                                                                                                  O 2 2.E.I z 2 * ; # o * : 3 r r : r 5 : u 2 .     X                                                                                                                                                                           X         - g - X - - o X - o - B B r n P L N B D 6       X                                                                                                                                             X                                                                                                                                             ",
"                                                                                                                                                                                                                                                                                                                                                                  . 2 R 2.7 , > 6 h 7 7 n 3 h K i r r 3 j j 7 X                                                                                                                                                                                           X h 6 # 2 4 # X @ X # 7 Y n 3 b u R L b b X                                                                                                                                                                                                                                                                                                 ",
"                                                                                                                                                                                                                                                                                                                                                .   .             # 7 B B 7 7 4 7 m h h 7 b n M i : 5 : h j :           X                                                                                                                                                                                 X 3 6 * # 6 2 . # # > * 7 S x D b P R b N x #                                   X                                                                                                                                                                                                                                                           ",
"                                                                                                                                                                                                                                                                                                                                                              +     L 2.v B 7 6 g 7 g 4 2 H D D 3 = r r j 7 X                                                                                                                                                                                               - 7 2 2 6 4 + . X * # 4 B Y m n n Y D x B 4                                                                                                                                                                                                                                                                                               ",
"                                                                                                                                                                                                                                                                                                                                                                  2 7.Y 7 N 2 4 h B g 6 b n h h 3 3 : 5 h ;                                                                                                                                                                                   O             X 7 , + # @ # @ @ # # * u I b : D T j.U N G #                                                                                                                                                                                                                                                                                             ",
"                                                                                                                                                                                                                                                                                                                                                        X     X # b 7.R Y m b m m G 6 7 J B 7 5 5 ; : 5 ; X                                                                                                                                                                       X               X           7 2 @ > 2 - # # # # 2 7 I L h j S u.T u b L X                                                                                                                                                                                                                                                                                           ",
"                                                                                                                                                                                                                                                                                                                                                                > B 7 Y L 7 b B 7 b Y I R n : : r : 5 5 X   X   X                                                                                                                                                                                             # 6 - @ # 2 ; . @ # - 2 b I n h u H u.U 4 I h                                                                                                                                                                                                                                                                                           ",
"                                                                                                                                                                                                                                                                                                                                                                4 Y B 3.B z N B 7 g H I H h 5 r r : 7 :   .                                                                                                                                                                                                   @ 7 > - - 3 4 - # # - - 7 M b 7 M B s.G.R n v X                                                                                                                                                                                                                                                                                         ",
"                                                                                                                                                                                                                                                                                                                                                          O   , R m L L x 4 z z 7 4 7 3 b n r : 3 5 j *                                                                                                                                                                                                       O g 2 # 3 4 ; # 2 # - ; # h K r u D n j.8.I B h X                                                                                                                                                                                                                                                                                       ",
"                                                                                                                                                                                                                                                                                                                                                  X X       X 7 7.s.3.I b N x B g 4 g j h 5 : : : 5 h X                                                                                                                                                                                         X             X 6 2 # 3 2 6 # * - - - 2 x R S 3 n u S :.x I I g                                                                                                                                                                                                                                                                                       ",
"                                                                                                                                                                                                                                                                                                                                  O                       @ 2 0.g.l.N 7 L L 7 4 m m g M r r h : * 3 ;                                                                                                                                                                                                           > 6 2 g 2 # # # 2 ; - ; 3 B H u n R b B B I b D 2                                                                                                                                                                                                                                                                                     ",
"                                                                                                                                                                                                                                                                                                                                                    X       I 2Xq.D 7 7 7 b 7 7 v g g g ; 5 j 5 3 r .                                                                                                                                                                                                           X 6 4 7 2 # . # 2 2 # 2 * x U b u P D S 3.y.R n h . .   X                                                                                                                                                                                                                                                                             ",
"                                                                                                                                                                                                                                                                                                                                                          6 f.0.R n 5 7 m P m b m m J G 3 : 5 5 3 7 .                                                                                                                                                                                                           X 7 2 6 2 X X X ; # 2 # 4 7 R 8.x u x S P u.O.R 8.B #                                                                                                                                                                                                                                                                                 ",
"                                                                                                                                                                                                                                                                                                                                                      O > p.z.W.p.H Y :.k.G j g 7 B 9.J h : 5 : 3 ;                                                                                                                                                             X                                             X X 4 2 2 > O X X # 2 2 # > 2 B u.P x x x b P D U :.7.3                                                                                                                                                                                                                                                                                 ",
"                                                                                                                                                                                                                                                                                                                                                      O 6 2X~.2XU B 8.Y -.h j m 6 G ;.M h 5 ; : 5 #     X     .                                                                                                                                                         X                                         2 7 2 . # . @ @ - , 4 # , 7 K 0.L r T S b O.G.T R I 2                                                                                                                                                                                                                                                                               ",
"                                                                                                                                                                                                                                                                  X                                                                         O           N g.q.B g 7 4 h h M T m j T 9.g 3 5 : : 3                                                                                                                                                                                                                 2 7 2 # X X   X - 4 4 2 2 ; u 8.9.n n B n U j.u.Y 7.b O   X                                                                                 X                                                                                                                                                                                       ",
"                                                                                                                                                                                                                                                                                                                                X         O     O       6 T N N g 4 -.-.G h I h M j.u.5 h h 6 3 3 X                                                                                                                                           X                                                                   > 7 4 # # X +   . 7 7 7 ; 6 5 o.u.T 5 r n u R h.l.h.7.x       X   X                                                                                                                                                                                                                                                                 ",
"                                                                                                                                                                                                                                                                                                                                                      - R l.R h G H :.J g g g 7 j s.9.h j 5 5 3 u .                                                                                                                                                                                                               # 2 1 @ @ X X + @ 4 7 2 ; 2 : b y.l.U u b Y D u.7...7.L 2 O                                                                                               X                                                                                                                                                                         ",
"                                                                                                                                                                                                                                                                                                                                              X   X   B {.9.Z 5 H G H g 2 g 4 g m 9.M g 3 7 M M 5 .                                                                                                                                                                                                                 1 - # X - 1   @ # 3 4 4 : 2 i L l.3.u 5 R O.O.R u N f.R ,                                                                                                                                                                                                                                                                         ",
"                                                                                                                                                                                                                                                                                                                                                X   + R k.I b g.:.-.Y g g h 4 g -.9.m h 3 x B K 3                                                                                                                                                                                                           X     X 1 6 - @ 6 1 X X 2 2 7 4 2 2 b L R O.P x b Z j S b b O.0.O.b # X             O                                                                                                                                                                                                                                                     ",
"                                                                                                                                                                                                                                                                                                                            X         X         # > q.~.I h h :.I G 2 4 M g 4 g :.T 3 4 3 5 n B 3                                                                                                                                                     O                                                             # 6 @ @ # - . X - 6 2 7 3 2 7 b O.3.7.3.R D 5 S 7.U D k.0.T R 3     O                                                                                                                                                                                                                                                             ",
"                                                                                                                                                                                                                                                                                                                                              6 g 9.9Xk.- : - 7 4 g - g m B 7 x Y m - - h h M n ;                                                                                                                                                                                                                   X # @ # # 4 @ X # 7 7 4 6 2 2 4 I T H 3.h.O.j 2 n b L O.T b Y 7.B . X   O                                                                                                                                                                                                                                                         ",
"                                                                                                                            X                                                                                                                                                                                                         O       6 g l.|.I 2 b - 5 I M 4 - g g 7 B 7.h - : 7 7 7 B 3                                                                                                         X                                                                                                             1 2 # # X X 4 h 7 u 5 3 3 7 b P M M R U O.;.7   < 7 I Y n O.s.R 4                                                                                                                                                                                                                                                             ",
"                                                                                                                                                                                                                                                                                                                X                               G I.T Z 5 3 * M 0.M b h h 3 2 N I g - 5 h h h D b                                                                                             X                                           X                                   X                                       X # 1 #     X 3 4 2 u 7 4 7 6 7 I G h j j R h.q.m # * S ..K :.:.R J 7 @   .   X X X O X                                                                                                                                                                                                                                         ",
"                                                                                                                                                                                                                                                                                                                                          + > Y :Xg.u h X # H :.M g h j 7 4 7 U M 2 4 4 h r J ..T .                                                                                                                                                                                                                       @     X # ; g z u 7 7 x 7 7 u 5 4 B j n Y R O.q.D 2 5 h J H 7 G 7.M 3 B B 7       O                                       X                                                                                                                                                                                                 ",
"                                                                                                                                                                                                                                                                                                                                            z {.:XY 7 7 : 3 >.q.U B B 7 , # 7 P g # ; ; 3 7 H O.O.*                                                                                                                                                                                                                           X   @ 7 N m g 4 7 j g 4 5 - ; 5 h h h b M 9.u.H 7 2 h M j Z ;.Y q.b L 7.7 @                                                                                                                                                                                                                                             ",
"                                                                                                                                                                                                                                                                                    X                                                       I Q.j.m j h h K :.H u 5 x 2 7 6 6 B 7 # ; * : n B B 7.7                                                                                                                                                 O         X                                                                     b m B g 7 7 5 g - - 4 ; ; ; 7 B n b n ..7.R 2 ; # 3 T G h I 7 @ 6 -.Y @ O                                                                                                                                                                                                                                         ",
"                                                                                                                                                                                                                                                                                                                O             X       X   2 l.W.U B Z 5 5 H h u 3 3 7 7 x 6 6 N 7 4 2 # 4 B M D 7.b                                                                                         O                                                                                                                                 X   # 4 7 h g h r 5 5 3 - 5 4 - ; u B j n D H D M 3 7 o : j H -.H 2 1 7 H 6.6.2     X   O                                                                                                                                                                         X         X                                           ",
"                                                                                                                                                                                                                                                                                                                                      O   R  X8.7 j M j ..U B U b 7 @ 4 b 7 N Y 6 7 2 2 2 h M n T h                                                                                                                                   X                                   X                                                     X X 2 2 5 3 4 7 ; 5 g 4 - : o 3 7 3 7 7 D M n 2 : h :.5 o g -.-.6 @ 1 b 2 Y 0.@                                                                                                                                                                                                                                       ",
"                                                                                                                                                                                                                                                                            X                 X                                     O + X q.G.Y m j B 9.:.T O.7.h 3 2 3 4 3 m U u * 2 4 2 u n b I 7                                                                       X                                   X                                                                                                                   @ 7 6 g g ; 4 2 3 g 4 # * ; # u u 5 u 7 5 J h 5 4 :.s.- o g M b # # 4 7 1 R L O             X                                                                                                                                             X                 X                                           X           ",
"                                                                                                                                                                                                                                                                                                              X                       # v 9.B D j H s.J h U I H b g 2 6 , 7 R I x 7 g 3 2 2 7 B I 4                                                                                     X                                                                                                                                           4 g ; 5 : ; 4 4 4 4 - # ; h M B 7 r h j U H ; ; h u.Q.g - h Y , @   7 b N 7.2     X                                                                                                                                                                                                                               ",
"                                                                                                    X                                                                                                                                                                                               X                               O , -.T B 7.G ;.9.B I 9.Y D h b 2 ; 2 u I D 5 7 b 7 # @ # 7 7 X                                                                                                                           X         X                                                                                           # 2 7 4 - 4 7 4 4 4 - o ; B M B h 7 B j m Z 5 3 # M '.a.5 - 6 #   X # 7 L I b     O                                                                                                                                                                                                                               ",
"    X                                                               X                                                               X                                                                                                                                                                                               X 7.B h -.:.H g h h :.:.H g 7 4 3 b b b ..:.r w 7 7 * # # 2 2                                                                 X                         X                                                                                                                                         @ 2 4 - 2 4 7 ; 4 ; o ; 6 h 6 6 3 M B J K 3 ; ; M :.I.-.; # O       O 7 N R >                                                                                                                                                                                                                                   ",
"                                                            O                                           X                                                                                                                                                       X                                                   X               2 R 1 2 I H 3 4 4 h Y J 7 h M 3 7 Y n D I.u.M j h 3 o o # 4 6 +                                                                                 O                                             X                                                                                                     # # 1 1 4 7 2 # # - # 7 3 4 - 2 ; m :.:.n @ # g 9.I I g         X X @ , B 6                                                                                                                                                                                     X                 X                           ",
"                                                                                      X                             X                                                                                                                                                         O       O         O     X     X                     @ I b - b H g 4 3 2 I 7.B 7 m h 7 g J n R j.9.Z H h 4 # - 6 1 7 X                                                                                             X                     X                                   X                                                                       X           @ # # - ; # - - @ ; 4 5 ; - 7 G G v 4 ;   j :.4 4       X   O   + z 7                                                                                                                                                                                                                                   ",
"                                                                                                                                                                                                                                                                                                                        X           B # X H G h 6 2 7 O.0.M g H j 4 M H n y.S.O.h M g g - # 2 # 2                                                     X         X       X                                                                                                                                                                   @ @ @ @ - - @ . @ O o - 4 ; . - - ; 2 2   # 2 m Y 1   X           X # >                                                                                                                                             X                                                                   X                 ",
"                                                                                                                                                                                                                                                                          X                                                       b Y # b G 4 h 2 , L Y I n u M m 4 g Z M O.h.n j 5 h h 2 # - ; X                                                                                                                                                                                                                                           X         O   X X X     X - 2 2 X 2 1 - # # X - I 4                   X                 X                                                                                                                                                                                                                 ",
"                                                                                                                                                                                                                                                                                  X                           @   X           O   Y b ; T I 4 g 3 6 U :.H D h M 7 3 B H D ..u.D M 5 h 3 ; 2 , 2 O             X                                                                                                                                                                                                         X       X         O       @ @   X             + # @ > # @ @   # X   1 2                                                                                                                                                                                                                                                       ",
"                                                            X                                                                                                                                                                                                                                                       X     X     b p.g G :.M g 4 6 Y 7.:.B b n D 3 6 I D U G.S.M 7 r 3 3 . @ 6 2 X                                                                                                                                                                                                                     X                           O                         X X             X 7                                                                                                                                                                                                                                                       ",
"                                                                                                                                                                                                                                                                                                        X                       R R h 0.I h 4 - u q.9.O.n 7 B b 7 7 B M D W.h.n M u h 7 . - 7 2                   X                                                                                                                                                                                                                         O                                       X         1 O                                                                                                                                                                                       X                                                             ",
"                                                                                        O                                                                                                                                                                                 X             X                       X             7 Y 4 B n I M # # B 7.J S b 7 h u 4 n G h 8.s.>.h n h K b o # 2 4                             X                                                       X       O                                                                                                                                                               X         O                   X @       O                                                                                                                                                   X                                                                                             ",
"                                                                                                                                                                                                                                                                                    X                           O         X 6 7.B B x R P u 2 S 0.3.S b b # 2 6 ; 2 g M 8.9...h 7 h J b X   2 7 O O                                                                                     X                                                                                                                                               X                             X           X         @       X                                                                                                                                                                   X                                                                             ",
"                                        X                                                                                                                                                                                                                                                                                 3 p.s.D m 0.0.b B f.7.0.U D D 4 2 7 ; ; : H j.s.8.r.i r J Y h . X # 2                                         X                       X                                                                                                                                                                                                       X                                     X                                                                                                                                                                                                                                       ",
"                                                                                                                                                                                                                                                                      X   X                       X                   + I q.3.U x S y.I r 3.R.8.R P I b , # # ; h Y s.Q.h.X.O.j n U T G .     X                                                               X                                                                                                                                                                             +                                                                                                                                                                                                                                                                                                         ",
"                                                                                                                                                                                                                                                                                                                    @ L q.R N D Y 0.O.x I h.7.n D 6 u z 4 # # 4 9.p.;.>.:...s.U n T Z M #                     X                                                                                                                                                                                                                                                                                                                                                                                                                                                                                                                                       ",
"                                                                                                                                                                                                                                                                                                  X     O         6 2.N n 7 B o.R.3.S N u.k.P L n 6 2 6 < # 2 R p.9.R 8.K ..I.K K ..I B X                                                                                                                                                                                                                                                   .               O     X                                                                                                   X                                                     X                                                                                                                         ",
"                                                                                                                                                                                                                                                                                                                O I L i B D q.3.o.u F 7.O...O.Y 7 7 7 ,     2 q.Y I H U n ..,.Z J :.T m X X                                                                                                                                                                                                                                                           O             X                                                                                                                                                                                                                                                                                 ",
"                                                                                                                                                                                                                                        X                                                                     O # Y 7.k.Y D T x 7 x q.s.I 3.o.D x 4 7 4 +   h 0.9.I.Y n b 8.i.Z D ..J h           O                                                                                                                                                                     X                                                 X                                             O                                                                                                                                                                                                                                                                             ",
"                      X                                                                                                                                                                                                                                                                               X         # Y P Y x n b u x 8.0.H n T m b n u 6 4 X   2 I p.:.m 7 x 8.r.j Z n J h X                                                                                                                                                                                                                                                                                                                                                                                                                                                                                                                                                             ",
"                                                                                                                                                                                                                                                                                                        X     , L N 5 u P O.n u N R.R x b I S 7 n 7 b #     # n R D $ u n o.U w j h D 7 X                                                                                                                                                                                                                                   X                                   X                                                                                                                                                                                                                                                                                     ",
"                                                                                                                                                                                                                                                                                                            @ L L b 6 D D Y 6 < D y.n 5 b m 7 b u 7 7 @   # 4 L k.n 5 u 8.+.Z n i b n 2                                 X                                                                                                                                                                                                                                                                                                                                                                                                                                                                                                                             ",
"                                                                                                                                                                                                                                                                                                            2 B 6 > x R B x 3 4 T 8.n 6 n D b b 7 7 2 @ X u 2 B O.j : 5 U T D r M i 3 X   X                                                                                                                                                                                                                                                                                                                                                                                                                                                                                                                                                           ",
"                                                                                                                                                                                                                                                                                                          # B 6   2 6 N 2 m 2 S 3.D u 3 7 B b 7 b 7 + O # 6 x g.O.7 h * n +.D n b 4 #                                                                                                                                                                                                                                                                                                                                                                                                                                                                                                                                                                 ",
"                                                                                                                                                                                                                                                                                                          2 z + # > b b ; 2 # n 7.M 5 3 n b 6 2 b 2 O   # > L W.r.i j r Z ..D M *                                                                                                                                                                                                                                                                                                                                                                                                                                                                                                                                                                     ",
"                                                                                                                                                                                                                                                                                                            #     , L 6 X   X H :.D * ; n 7 2 6 2 #   # z 2 I g.0.n * r Z S u 3 .                                                                                                                                                                                                                                                                                                                                                                                                                                                                                                                                                                     ",
"                                                                                                                                                                                                                                                                                                                  @ 2 #   .   6 M h o * 4 2 2 * X X   # x 2 B R n b r i U B i .                                                                                                                                                                                                                                     X                                                                                                                                                                                                                                                                                                                                 ",
"                                                                                                                                                                                                                                                                                                                              # b # .   2 7 # @       # 6 # n B B D # 3 n h :     X                                                                                                                                                                                                                                                                                                                                                                                                                                                                                                                                                                   ",
"                                                                                                                                                                                                                                                                                                            O         O       > 7       - 6 @     X   # 2 + u N M 7 * & 7 x .                       X                                                                                                                                                                                                                                                                                                                                                                                                                                                                                                                                                 ",
"                                                                                                                                                                                                                                                                                                                              O @ X   X   @ X         X   2 m b * # @ # 7 4                                                                                                                                                                                                                                                                                                                                                                                                                                                                                                                                                                           ",
"                                                                                                                                                                                                                        X                                                                                     X             O                         O   > b 6 X     . # @                                                                             X                                                                                                                                                                                                                                                                                                                                                                                                                                                                                             ",
"                                                                                                                                                                                                                                                                                                                                                          X > X   X                                                                                                                                                                                                                                                                                                                                                                                                                                                                                                                                                                                   ",
"                                                                                                                                                                          X                                                                                                                                                                                                                       O                                                                                                                                                                                                                                                                                                                                                                                                   X                                                                                                                                               ",
"                                                                                                                                                                                                                                                                                                                                                                                                                                                                                                                                                                                                                        X                                                                                                                                                                                                                                                                                                                             ",
"                                                                                                                                                                                                                                                                                                                                                        O         O                                                                                                                                                                                                                                     X                                                                                                                                                                                                                                                                                                                                             ",
"                                                                                                                                                                                                                                                                                                                                                                      X                                                                                                                                                                                                                                                                                                                                                                                                                                                                                                                                                                               ",
"                                                                                                                            X                         X                                                                                                                                                                             X                             X                           X                                                                                                                                                   X                                                       X                                                                                                                                                                               X                                                                                                                                                           ",
"                  O                                 X                                                                 X                                                                                                                                                               X                                                                   X                                                                                                                                                                                               X                                                           X                                                               X                           X             X                                                                                                   X                                                                                                                 ",
"                                                                                                                                                                                                                      X                                                                                                                                                                                                                                                                                                                                                                   X                                                                                                       X                                                                                                                                                                                                                                     X             ",
"                                                                                                                                                                                                                                                                                                                        X                   X                 X                                                                                                                                                                                                                                               X                             X                                                             X                               X                               X                                   X                         X                                                                                                             ",
"                    X                                                               X       X                                                                                     X                                                                                           X                                               X                 X           X               X                                         X     X                     X                                         X                       @                                                               X                                 X                                                             X                                                                                                         X                   X                               X                               X         .                                                         ",
"                                                    X                                                               X                                                                                                                                         X                   X                                                                                                 X                       X     X                           X         X                                                 X                                                                                   X             X     X     X                                 X X                                               X     X X                                                               X                     O                                                                                                                                           ",
"                                                                                                                                                      X                               X                                                       X                                         X                   X                                     X   X   X       X       X                                               X X                                                         .                                                   X           X                       X                                             X                 X                                         X                                                                                                                                                                                                                     @       X X                             ",
"                                                      X                                                                                                       X                         X                                                                                             X                                     X             X   X                                             X               X                                         X             @             X           O               @                                             X                                                         X                               X                           X                                                                   X               X                                                     X                         @                                                                                               ",
"                                                                                                                                                                                                                                                                                                          X                         X                         X           X         @     X                   X   X                                                   X       X                               X                                 X                                 X                                                         X                                                                 X X                           X                                                                 O                                                                                 O                                                   X ",
"        X                                                                                                                                                             X                                                                         X                                 X                             X                               X                           X                                                   X           X           X         X                                   X                                                             X                     X         X       X           X                           @             X           @                   X       X                           X             O                                                           X                                                                                                                         X           ",
"                                  X                                                                                                         X       X                   X                             X                         X                                                                 X                       O                                         X                           X                     O                                                                   X X                                     X                       O               X         X     X                                                                             X                                                                 X                         X   O                                                                   @             X       X                                                               X                   ",
"                                                                      X O                                                     O         X                             X           X       X       X       O             X                                       X         O           X                 O                                   O                                     X                       X                                                               X                       X                           X                                   X           X                       O                                                                                                                   X   O                                                   X     X                                     X                                           X                                             O                             ",
"                                                                                                X             X               X     O           X                                                                                                                         X         X             X                             @         X         X         X                               X                                                 X                                               X                       X         @           X             X                                                   @                         X       X                                                         X                                                               @                         X                                                             X                                                                                 ",
"    O       X                                                 X                                                   X                                         X             O             @         X                                     X             X                                                                             X                                                     X                                                               X             O         X                                   X                               X X                                                                                                     X   X                                                                                             O                                                                                   O                         X                     X               X             X                   ",
"                                    O         X                                               X                       @                                                                                                             O                                                                                     X     X                                 X       @                 @     X X   X                                                           X                     X       X                                                               X         @                     X X                                                     X                                 X                         X   X X                                             X                                     X                                                                                   X     @                                           ",
"      X             X       X       @   X             X     X   X         O X       O     O         X   O                       X   X       O           O           O                 X           X X     X         O     X @     X         @               X     X       X @       X   X         X   X     @       X       X       X       X         X             X             @                           X     @     X @     X         O         X     X     X       X     O     X     @         X   X             O     @ X       X   O       @               X     X             X     X         O   @         X   X   X   X X   X   X       @         X     X       @   X   X         X @         O     X                 @ @       X   @         X X     X   X             X       X       O   X           O     X     O   O       X       X       X       X       X       X       @     X                 X   O         X O       X   X     "
};
