/* XPM */
static char *result[] = {
/* columns rows colors chars-per-pixel */
"459 384 248 2 ",
"   c #010101",
".  c #0A0504",
"X  c #060806",
"o  c #0A0906",
"O  c #060608",
"+  c #0A0709",
"@  c #070908",
"#  c #0C0C0B",
"$  c #130404",
"%  c #1B0304",
"&  c #120907",
"*  c #170708",
"=  c #120D0B",
"-  c #1A0D0B",
";  c #0E100D",
":  c #13110E",
">  c #1A120E",
",  c #0E0E10",
"<  c #120F10",
"1  c #180F11",
"2  c #0F1110",
"3  c #141412",
"4  c #1B1513",
"5  c #161815",
"6  c #1B1916",
"7  c #181718",
"8  c #171919",
"9  c #1C1C1B",
"0  c #260605",
"q  c #230C0C",
"w  c #2C0D0C",
"e  c #340C0B",
"r  c #26110E",
"t  c #221514",
"y  c #2A1413",
"u  c #221A16",
"i  c #291817",
"p  c #231D1B",
"a  c #2A1E1C",
"s  c #301010",
"d  c #341413",
"f  c #391716",
"g  c #331C1B",
"h  c #3C1D1B",
"j  c #1F201D",
"k  c #23211E",
"l  c #2A221E",
"z  c #37221E",
"x  c #1E1E20",
"c  c #271F20",
"v  c #391F20",
"b  c #1F2121",
"n  c #242322",
"m  c #2B2522",
"M  c #272827",
"N  c #2C2926",
"B  c #2C2C2A",
"V  c #322624",
"C  c #3B2423",
"Z  c #322A26",
"A  c #392927",
"S  c #342C2A",
"D  c #3A2D2C",
"F  c #2E302D",
"G  c #393027",
"H  c #34312E",
"J  c #3B312E",
"K  c #2F2E31",
"L  c #362F30",
"P  c #2F3131",
"I  c #343333",
"U  c #3C3432",
"Y  c #383737",
"T  c #3C3935",
"R  c #3C3B3B",
"E  c #461918",
"W  c #431C1C",
"Q  c #501818",
"!  c #48221E",
"~  c #491E20",
"^  c #432422",
"/  c #4B2424",
"(  c #462926",
")  c #432C2B",
"_  c #4C2C2B",
"`  c #572828",
"'  c #542B2B",
"]  c #43332E",
"[  c #4A322D",
"{  c #57312D",
"}  c #572E31",
"|  c #423534",
" . c #4C3533",
".. c #433936",
"X. c #4A3A36",
"o. c #453738",
"O. c #443C3A",
"+. c #4A3D3C",
"@. c #533432",
"#. c #5C3333",
"$. c #553937",
"%. c #533D3B",
"&. c #5B3C3B",
"*. c #632B2B",
"=. c #6D3736",
"-. c #663938",
";. c #3E403D",
":. c #44413E",
">. c #4B413E",
",. c #4C483F",
"<. c #52423D",
"1. c #5B423E",
"2. c #67413D",
"3. c #71413E",
"4. c #3E3E40",
"5. c #483E40",
"6. c #563E41",
"7. c #6A3E41",
"8. c #3F4042",
"9. c #444343",
"0. c #4C4442",
"q. c #4C4945",
"w. c #484748",
"e. c #4C4B4B",
"r. c #524543",
"t. c #5B4543",
"y. c #534945",
"u. c #5B4B46",
"i. c #554748",
"p. c #544C4A",
"a. c #5B4D4B",
"s. c #575047",
"d. c #54514E",
"f. c #5B514D",
"g. c #4E4E50",
"h. c #574F51",
"j. c #545353",
"k. c #5C5452",
"l. c #5C5956",
"z. c #585758",
"x. c #5C5B5B",
"c. c #634543",
"v. c #684745",
"b. c #634D4B",
"n. c #6B4D4B",
"m. c #764948",
"M. c #645047",
"N. c #63524D",
"B. c #6B524D",
"V. c #625553",
"C. c #6B5552",
"Z. c #635956",
"A. c #6B5B55",
"S. c #675658",
"D. c #645B5A",
"F. c #6B5C5B",
"G. c #715050",
"H. c #725452",
"J. c #7A5656",
"K. c #745A55",
"L. c #745D5B",
"P. c #7B5C5A",
"I. c #64615E",
"U. c #6B615E",
"Y. c #73625E",
"T. c #7B635D",
"R. c #5E5E60",
"E. c #695F60",
"W. c #785E61",
"Q. c #5F6160",
"!. c #646363",
"~. c #6D6463",
"^. c #6B6867",
"/. c #6C6B6B",
"(. c #736463",
"). c #7A6563",
"_. c #746966",
"`. c #7B6A65",
"'. c #736769",
"]. c #756B6A",
"[. c #7B6C6B",
"{. c #74716D",
"}. c #7B716E",
"|. c #746F71",
" X c #737373",
".X c #7C7472",
"XX c #7A7877",
"oX c #7B7B7B",
"OX c #864F4E",
"+X c #855959",
"@X c #89635E",
"#X c #836B65",
"$X c #886866",
"%X c #836E6B",
"&X c #946B6A",
"*X c #84726D",
"=X c #8C736D",
"-X c #93756F",
";X c #827473",
":X c #8C7572",
">X c #837976",
",X c #8B7A75",
"<X c #847C7A",
"1X c #8B7C7B",
"2X c #967A76",
"3X c #A37C7C",
"4X c #8A817E",
"5X c #95827B",
"6X c #9C847C",
"7X c #A2877E",
"8X c #7E7E80",
"9X c #987E81",
"0X c #7F8082",
"qX c #848383",
"wX c #8C8584",
"eX c #8C8B8A",
"rX c #948482",
"tX c #998A86",
"yX c #99928D",
"uX c #948E91",
"iX c #959494",
"pX c #9A9898",
"aX c #A58A85",
"sX c #A6948B",
"dX c #AC948C",
"fX c #B3968D",
"gX c #A99A96",
"hX c #B49A94",
"jX c #AAA29B",
"kX c #B7A59B",
"lX c #A9A7A6",
"zX c #B8ABA3",
"xX c #BAB3AB",
"cX c #AFB1B0",
"vX c #B8B7B6",
"bX c #C3AB9E",
"nX c #C3ADA4",
"mX c #C7B4A9",
"MX c #CABCB2",
"NX c #D2BCB1",
"BX c #C9C2BB",
"VX c #D5C3B7",
"CX c #C0C0C0",
"ZX c #C8C7C6",
"AX c #D8D4D1",
"SX c #E3D0C4",
"DX c #DFE1E0",
"FX c #E7E6E6",
/* pixels */
"  X                                                                                                                                                                       X                     X       X       X                                                                                                                 X           X                               X                   X           X   X                           X                                   X                                                                                                                     X   X                     O                                         X X                         X                                                                                                     X                         X                                                                                             X       X       ",
"                                                                                                                                                                                                                                                                                                        X         X                                                               X                                                       X                             X         X                                                                                                                                                     X                                                                         X                                                                                                                                                     X                                                                             ",
"                                                                                                                                                                                                                                                                                                                                        X                                                                   X     X                                                                                       X                                                             X                                                                     X                                 X     X                 X                                                                                             X                                                                                                                                       X       ",
"                                                                                                                                                                                                                                                                                                                X                                                       X           O                                                                                                                                                                                             X                     X       X                                             X         O                         O               X                               X                                                                   X                   X                                                                                                           ",
"                                                                                                                                                                                                                                                                                                                      X                                                                                                                                                                 @                 X                                                               X                                                               X               X               X                                     X                                                                                                                                 X                           X                                                                       ",
"                                                                                                                                                                                                                                                                                                                                                                                                                      X                                                   X                                                                                                           X           X X                                                                                                                                                                                                                                                                                                                                                 ",
"                                                                                                                                                                                                                                                                            X                                                             X                             X                                 X                         X                   X             X                               X                               X                                 X               X               X                                                                                             X                         X             X                                                                                                                                                                                                       ",
"                                                                                                                                                                                                                                  O           X                                                                                               X   X             X                                                                           X                                                                                                                                                                 X           X           O                         X       X           X   X               O                                                                                                                                                                                                                                             ",
"                                                                                                                                                                                            X       X                                                                                                                                                 X X                                       X                                   X                                                   X                                                                                 X                             X                 X             X                                               X       X     X                                                                                                                                                         X                                                                                     ",
"                                                                                                X                                                                                                                               X         X                                                                                                                                                                     X                                                                                                                                                                                 X                                                                     X                     X                                                                                                                                                                               X                                                                       ",
"                                                                                                                                                                      X                                                                                                                         X                                 X       X                                                 X                 X                                                       X                                                                                                                   X O           X                             X               X                                   X                                                             X             X                                   X                                                                                                                               X           ",
"                                                                                                                                                                                                                                                                                                                                                                                        X                 X               X                                                                                                                                                                       X                                                       X                                                                                                                                                                                                                                                                                           ",
"                                                                                                                                                                                                                                                                      O                                                                                 X                                                               X                                                                                                                                                                                                                                                 X                                                                                                                         X                   X                                 X                                     X                                                     ",
"                                                                                                                                                                                                                          X                                                                                               X                                                                             X                                               X                                                           X                                                                                                   X         X           X         X         X                                                     X                                                                                                                                                                                                                             ",
"                                                                                                                                                                                                                                                                                                                                                                                                    X                     X                                                                                                                                                     X         X                                   X                                                                                         X                                                                                                                                                                                                                             ",
"                                                                                                                                                                                                                                                                                                                          X                                                               X                                                                                                   X                               X                                                         X                         X X                                                               X         O X                                                                                                                             X                                                                                                                       ",
"                                                                                                                                                                                                                                                                                  X                                                                   X                                                                                                                     O                     X         X         X                                             X                                           X                                                                                                                                     X                                                                                                                                                                                             X ",
"                                                                                                                                                                            X                                                                                                                                                                                                                                                                                                                                                                                                                                                                                       X                                                                                                   X                                                                                                                                                                             ",
"                                                                                                                                                                                                            X                                                                                                                                                                                                             X                                                                                                                 O O                                           X                                                                                                                           X                                                                                                                                                                                                                               ",
"                                                                                                                                                                                                                                                                                                                          X                                                                                                                                                                                                                                                     X                                                       X                                                                                                                                                                                                                                                                                                             ",
"                                                                                                                                                                                                                                                                                                                                                                                                                                                                                                              X     O         O                                                                                                                                                 X                                                                                                                                                                                                                                                                     ",
"                                                                                                                                                                                                                                                                                                                                                                                                                                      X                                                                 X                                                                                                                   X                                                                                                                                                                                                                                                                                                                         ",
"                                                                                                                                                                                                                                                                                                                                                                                                        X                                                                                                                                                         X       X                                   X                                                                                                                                                                                                                                                                                                                                       ",
"                                                                                                                                                                                                                                                                                                                                                                  X                                                                                       X                     X                                                       X                 O                                                                                                                       X                                                                                                                                                                                                                                                                   ",
"                                                                                                                                                                                                                                                                                                                                                                                                                                                                                                            X X   O       X         X         X                                                                                                                                                                                                                                                                                                                                                                                                       ",
"                                                                                                                                                                                                                                                                                                                                                                                                                                                                          X                               X X X       X       X                                       O                                                                   X                                                                                                                                                                                                                                                                                                           ",
"                                                                                                                                                                                                                                                                                                                                                                                                                                      X                   X     X                     O               X   X o 5 n T T U k 6 = X   o X       X           X                                                                                                                                                                                                                                                                                                                                                                                             ",
"                                                                                                                                                                                                                                                                                                                                                                                                                                                                                          X   X   X   X j z.yXlXcXcXxXlXlXgXeX4XU.T :       X .         X                                 X                                                                                                                                                                                                                                                                                                                                                           ",
"                                                                                                                                                                                                                                                                                                                                                                                                                                                      X                                   O O   X O Y eXBXCXvXcXjXjXjXjXkXjXzXjXkXzXpXl.> . X X X       X                                                                                                                                                                                                                                                                                                                                                                                             ",
"                                                                                                                                                                                                                                                                                                                                                                                                                                                                                              O n iXAXZXcXpXyXyXpXyXsXjXkXjXzXzXjXjXkXkXjXf.. X   X   X   X                                                                                                                                                                                                                                                                                                                                                                                           ",
"                                                                                                                                                                                                                                                                                                                                                                                                                                                                                        X O , !.AXZXvXjXyXyXyX7XsXjXzXkXkXmXxXzXzXzXkXkXkXxX4Xk X . X             X                                                                                                                                                                                                                                                                                                                                                                                   ",
"                                                                                                                                                                                                                                                                                                                                                                                                                                                  X                               @   O X n lXFXZXjXiXeXyXyXyXyXsXjXbXzXzXzXmXmXmXmXxXzXzXzXxXzXO.. o o     O                                                                                                                                                                                                                                                                                                                                                                                         ",
"                                                                                                                                                                                                                                                                                                                                                                                                                                          X                                       X @ X B vXDXMXlXeXeXwX4X5XyXyXsXjXkXzXbXbXmXmXmXmXmXmXxXbXxXMXjX,.; ; X                                                                                                                                                                                                                                                                                                                                                                                             ",
"                                                                                                                                                                                                                                                                                                                                                                                                                                                                                      P AXDXvXlXeXeXuX1X4X4X5XsXsXjXkXzXzXmXbXmXmXbXmXbXmXxXmXbXMXxX,.;   X     X                                                                                                                                                                                                                                                                                                                                                                                     ",
"                                                                                                                                                                                                                                                                                                                                                                                                                                                                              O   X 5 cXDXvXjXeX4XwX<X<X4X4X5XsXsXjXkXkXkXmXmXVXVXNXmXmXMXmXMXmXxXBXlXN   X X                                                                                                                                                                                                                                                                                                                                                                                         ",
"                                                                                                                                                                                                                                                                                                                                                                                                                                                                    X   X         o eXFXvXcXiXXXoX].}.>X4X4X7XyXsXfXfXzXkXkXkXVXVXVXVXNXMXMXmXNXBXMXBXjXk X   X                                                                                                                                                                                                                                                                                                                                                                                       ",
"                                                                                                                                                                                                                                                                                                                                                                                                                                        X                                       X ;.FXZXvX4XoX>X<X_.`._.*X4XyXsXsXfXkXkXbXxXmXVXNXVXNXVXVXmXmXmXMXVXMXVXoX5 X X                                                                                                                                                                                                                                                                                                                                                                                       ",
"                                                                                                                                                                                                                                                                                                                                                                                                                                                                                X cXDXcXpX<X4X}._.U.Y.U.T.4X5XyX7XgXkXjXmXVXVXVXVXSXSXVXNXmXbXbXxXVXVXBXMXT X X                                                                                   X                                                                                                                                                                                                                                                                                                   ",
"                                                                                                                                                                                                                                                                                                                                                                                                                                                                      X     O   ;.DXvXpXeX<X7X/.f.s.Z.Y.T.=X6X7XsXgXkXkXzXmXmXmXVXSXSXSXNXbXbXbXmXVXVXBXxXqX; X X                                                                                                                                                                                                                                                                                                                                                                                     ",
"                                                                                                                                                                                                                                                                                                                                                                                                                                                                              2 cXAXvXjXoX{.4X{.,.1.M.I.`.4X5X7XsXsXfXfXkXzXbXkXmXSXSXVXVXbXbXbXmXVXSXMXxXxX;.X                                                                           X                                                                                                                                                                                                                                                                                                           ",
"                                                                                                                                                                                                                                                                                                                                                                                                                                                                            X I DXvXxXlX^._.4X,.,.,.A.A.Y.*X:X2X7XjX7XsXkXkXkXkXbXmXVXSXVXbXbXkXkXMXSXVXxXMX{.;   X                                                                                                                                                                                                                                                                                                                                                                                   ",
"                                                                                                                                                                                                                                                                                                                                                                                                                                                                              !.ZXcXpXeXl.s.Y.Z.<.1.s.A.C.#X=X=X5X7X7X7XkXkXfXhXbXbXVXSXSXbXbXfX7XmXMXmXxXxXjX5                                                                                                                                 X                                                                                                                                                                                                                                                     ",
"                                                                                                                                                                                                                                                                                                                                                                                                                                                                            @ uXvXpXyX{.I.,.U.`.M.A.A.2.M.T.-X#X5X5X-X6XhXsX7X7XbXbXVXVXmXfXfX7XkXVXNXkXkXkXjXG                                                                                                                                                                                                                                                                                                                                                                                       ",
"                                                                                                                                                                                                                                                                                                                                                                                                                                                                      X     b vXcX4XlXyXl._.s.Y.A.`.T.A.A.T.$X=X=X-X@X6XfX7X6XjXbXbXNXNXsX7XsX7X7XmX7X5XkXjXkXs.                                                                                                                                                                                                                                                                                                                                                                                      ",
"                                                                                                                                                                                                                                                                                                                                                                                                                                                        X                 O 8.DXcXeXlXpXd.,.s.,.1.#XT.#XT.T.T.H.P.=X%X-X5X-X2XfXfXbXbXfXsX7X-X6XkXfX6X=XkXbXjXI.  .                                                                                                                                                                                                                                                                                                                                                                                   ",
"                                                                                                                                                                                                                                                                                                                                                                                                                                                                      O   O x.AXcX4X{.pXoXF G s.,.A.T.T.:X:X#XH.M.T.H.H.B.=X7X6X-XsXfXsXfX-X-XbXbX7X=X7XkXjXkX{..                                                                                                                                                                                                                                                                                                                                                                                     ",
"                                                                                                                                                                                                                                                                                                                                                                                                                      X                                     X             O /.DXcX{.;.yXlXl.,.s.,.2.`.`.=X=X2X#Xn.c.1.n.H.7XdX6X7X7XfX7X7X6X7XbXbX-X=XbXbXkXjXqX= .                                                                                                                                                                                                                                                   X                                                                                                                               ",
"                                                                                                                                                                                                                                                                                                                                                                                                                                                  O                         oXFXCXl.F l.jXl.N.M.>.,.1.#X2X:X2XdX#Xn.2.$X7XaX7X2XfX7X7X6XfXfXmXbXbX=X=XfXbXkXxX7X4 . .                         X                                                                                                                                                                                                                                                                                                                                                       ",
"                                                                                                                                                                                                                                                                                                                                                                                                                                            X             .             X @ 8XDXpXq.T /.4X:.J +.] ( <.2.aXaXaXsX2Xn.G.2XhXfXaXdX7X2X6XfXhXbXVXNXbX7X6X5X7X7XbX7XD - .                   O                                                             X                                   X                                                                                                                                                                                                                                                           ",
"                                                                                                                                                                                                                                                                                                                                                                                                                                                                X     X b w.iXDX/.H ;.jXeXT m r.,.z G 1.2XrXfXnXsX6.@.2XaXhXnXaX%XT.-XhXfXfXfXNXmXfX5X@X@X6XfX7XrX1X-                     O                                                                               X X               X                                                                                                                                                                                                                                                         ",
"                                                                                                                                                                                                                                                                                                                                                                                                        X                                                             ; qXw.0XZXx.N ;.cX_.Z m +.<.] ] [ K.#X:XdXhXG. .$XdXdXmX3Xn.2.H.=X2X-XsXkXhX7X7XT.T.7X7X6XsXzXu.. . X                                     X                                                                                                                                                                                                                                                                                                                                     ",
"                                                                                                                                                                                                                                                                                                                                                                                                                  O                                 O     O         X b g.; 8.CXQ.k j.wX:.5 > V G G <.<.6.t.H.2X-Xn.( 6.&X3XhXhXn.1.[ M.T.#X`.6XfX7XhX=X@X7X7X5X-X%XA.$                                                                                                                                                                                                                                                                                                                                                                               ",
"                                                                                                                                                                                                                                                                                                                                                                                                                                                                      w.;.X F qXd.F  Xl.9 6 : 4 u G .. . .z [ b.v._ v f 6.9XaXdXv.( )  .[ z G <.#X7X7X7X5XT.5X6XK.A.N..                                                                                                                     X                                                                                                                                                                                                                                                         ",
"                                                                                                                                                                                                                                                                                                                                                                                                              X                                                       M Y 2 ;.oX{.e.eXM o : o o > l m i l l z )  .6.W.) ~ n.:X&X$.[ G r > - r d ( 5X7X6XT.#X7X6XH.T.G .                 O                                                                                                                                                                                                                                                                                                                                                             ",
"                                                                                                                                                                                                                                                                                                                                                                                                                                                                  O   # b j F pXXXXXeXj o o . . ; = > > r > % r g b.9X+X_ _ G.W.1.<.z - * * u i g M.5X7X5X5X7X5XB.B.-                                                                                                                                                                                                                                                                                                                                                                                 ",
"                                                                                                                                                                                                                                                                                                                                                                                                                          O         O       O             X             M ;.F qX^.iX Xj . X o X X X     o . . > v S.9XgX3X6.C @.z i z % * * r z g ,.7XbX7X6X7X7XT.1..                                   X                         X                                       O                                                                                                                                                                                                                                                                           ",
"                                                                                                                                                                                                                                                                                                                                                                                                                                      X             X                   3 K M !.E.XXg.3   .   .           . * i o.a.'.hXmXW.( ) g - y r % * * y l 1.aXkXkX2XrX%XC.z .                   O                                                 X             X             X                           X     X                                                                                                                                                                                                                                             ",
"                                                                                                                                                                                                                            X                                                                                                                                                                                                                             O               , R w.uXqXL 7 o . X .   X X X   . < c ) E.[.tXgX9X) v g i A | i t y g ( K.2XdXdXaX2X:X).& . .                   O               X                                                                 X                                                                                                                                                                                                                                                                         ",
"                                                                                                                                                                                                                                                                                                                                                                                                                              X     X               X                     x |.!.lX8Xc c = =   X X     . + - p p D a.S.9XsXrX%X+.D C A | [ v a ] B.5X5XdX2XdX2XsXV..                                   X                       X       X                                                                                                                                                                                           X                                   X                                                                               ",
"                                                                                                                                                                                                                                                                                                                                                                                                              X         X                                                 b /.|.ZXuX4.c = 3 = o # . o # 1 m V A D D C b.tXsX2XS.b.[ ) [ 6.S.c.@.M.6XsXdXaXkXhXdX).-                                                                                                           X                 X                                                                                           X                           X                             X                                                                                               ",
"                                                                                                                                                                                                                                                                                                                                                                                            X     X                         X                                   O         x 9. XCXeX5.1 # = 1 7 o X . o p Z J D V 1 q c ).zX9Xu.b.B.S.K.b.L.v.&.B.6XfXkXnXkXfX:X`.>                                                                                                 X                 @             X                                                                                                                             X                                                                                                                   ",
"                                                                                                                                                                                                                                                                                                                                                                                                                              X                                         # b !.lXlX8X4.c c D D m > = > u c m D m t . * % %.tXsXL.G.=X=X$X#X:X2XK.H.$X7XnXmXzXaX$.A * .                                                                                         X     O                         O         O                                                                                                                                                                                                                                             ",
"                                                                                                                                                                                                                                                        X                                                                                                                                                             X                                               O O , eXcXuXh.5.c D 5.o.p - 1 p m a S +.V * * * -  .gXkX9XT.=XaX#XG.$X2XP.n.P.-XkXnXNX:Xz V . .                                           X         X                     O                                                                                                                                                                 X       X                           X       X                                                                                       ",
"                                                                                                                                                                                                                                                                                                                                                                                                                        X     X O                 X                   O O x vXCXpXg.5.S V S m * + 4 p m m D o.c * . * * 6.hXkXaX$XG.$XJ.@.@.c.H.K.K.&XfXdXdXB.t.U.-                                                                   X                                                                           X                                                                                                                                                                                                                                   ",
"                                                                                                                                                                                                                                                                                                                                                                                                              X                                                     O   # n iXpX Xx.D.L V c u * & 1 u V v c o.D v 1 * v  .;X3X9X#X$X&X$X~ r v 6.@X$X2XaXaX#X) <.;Xt                                               X O                                                                                                                                                                                                                                                                                                                                 ",
"                                                                                                                                                                                                                                                                                                                                                                        X       X               X     O O                     X                   X           O @ @ @ , 8 8 R R.z.d.p.L c t . * = = * 1 t A D D | t 1 ) $.G.7.J.&X&XJ.c.( q * i S.=X$XaXaXv.@.F.(.-                                                                                                     X                                                                                                                                                                                                                                                                             ",
"                                                                                                                                                                                                                                                                                                                                                                                                                                X   X                 @ 3 @   O 2 o   # 8 # , x R ^.Y D L 1 * = & . . * i D D V v y q y v _ ) 6.J.n.6.~ o.* q q D V.H.@XH._ ^ 6.Z $ . . .   .   X X                                                                                                                                                                                                                           X                                                                                                                                       ",
"                                                                                                                                                                                                                                                                                                                                                                                                                                        X           X @ 2 3 2 @ x 3 8 9 n 9 # 9 p I 9.H L 1 & 4 = - & 1 1 v D A | i.o. . . .:X+X@Xb.6.$.6.) * * * i C 6._  .%.a.o.p = # o 3 5 # o X   @ o @ O @ @ X # O X                                                                                                                                                                                                                                                                                                                                             ",
"                                                                                                                                                                                                                                                                                                                                                                        X                                 O                                 O ,         2 2 2 2 j j B k 9 8 # b ; M R k 6 > : > a S c 4 V t q A 6.h.6.E.).6.tXP.6.} 6.W.+.a.t = * * * y g ^  .L.Y._.d.U M l 5 5 j : o 5 5 ; ; 3 X ; j # X   X                                                                                                                               X                                                                                                             X                                                                                           ",
"                                                                                                                                                                                                                                                                                                                                                        O                                                     O     X               O         @ @     #   2 j 3 o j B k b B I R 9.H I p 4 4 = + m k.y.4 t t $ t D 6.g  .6.V W.H.6.W.6.b.) o.A * * $ * y g 6.W.V.U.}.(.>X.XI.:.k 5 ; ; 3 ; ; ; o ; 9 5 X ;     X O               X     X                                                                                                                                           X                             X                                                                                                                                     ",
"                                                                                                                                                                                                                                                                                                                                                                              X                 O O                             X             o 3       ; 2 2 3 9 w.g.z.w.z.j.9.d.w.z.S 5 : # # 6 0.+.L o.4 t t c W.| 5.V.t o.i.b.%X) | i | i.- * t %  .$.b.W.b.u.u.f._.}.XX~.e.H j 3 j 3 o 3 3 B Y M 5 j ; @ X       O O               X                                                                                                                                                                                                     X                                                                                                       ",
"                                                                                                                                                                                                                                                                                                                                                                  X                       X           O               X     X             X     # n o @ X j M j. X/. Xx.9.9.R 4.x.j. XH : : o : 3 I k Z S.7 4 V t 5.t V h.= A 6.C E.6.V p 6.+.- 1 V ) c.v.H.:X:X%XZ.l.U.Y._.U.{.].q.k 5 k 5 ; ; B Y B j j 3 @ ; 2 #       X                                                                               .                                                                                                                                                                                                                                           ",
"X                                                                                                                                                                                                                                                                                                                                                                                                           X                                   , K x x M R.|. X X/.!.I M F I z.^.;.!.R 9 : # 3 3 c S 4 0.l 4 0.u S * . U * U +.D F.D r p +.V . y +.7.6.-.#X$X9XsX4XT.Y.Y._.U._.4X{.U.,.F M k F ;.I ;.T B F Y B n 5 O     X                           X                                                                                                                                                                                                                                                                                               ",
"                                                                                                                                                                                                                                                                                                                                                                                                                          # O O X X o @   o @   O 7 4.0XqXE.4.g.R.9.K n m M Y d.e.n j.^.6 7 3 = 7 < 7 7 D 4 7 O.c L + * o.+ Z +.m U > $ 4 >.i $ q b.H.J.H.-X2X:XaX6X5X5XtX>X4X4X.X4XXXI.,.N Z I :.H ;.I N I R n o 2 o = # O X                                                                                                                                                                 X X                                                                                                                                                     ",
"                                                                                                                                                                                                                                                                                                                                                                                                                    # o o X o # ; 3 n 8 3 2 3 2 , w.qXiXg.Y e.g.B p n n k k Y T S p j.x.6 9 5 : 3 # = 9 I 9 = a t A 1 = +.* t N & $ $ . 4 ).i $ i 7.G.&XJ.$X2X$X:X:X5XsXjXyX4X5XrX4X.X_._.s.:.:.H G I H N I N 5 # 7 6 5 7 o <   X                                                                                                                                                                                                                                                                                                                     ",
"                                                                                                                                                                                                                                                                                                                                                                                                                # 2 3 3 7 b k n n 2 j M M # , 9 Q. Xz.g.w.Q.e.M 9 p n 9 k S I n n 3 XXD.= 4 : = # o o = k a = 1 . p < - B = a t . . . . i (.V q ) b.J.3X$Xn.P.$XK.#X%X4X7XgXgXpXyXyX4X}..XY.U.,.:.,.q.:.0.q.q.:.T M 9 # # = # 7 : .                                                                                                       X                                                                                                                                                                                                           ",
"X                                                                                                                                                                                                                                                                                                                                                                                             O               X @ 5 ; ; 9 n k n b 8 2 n M 3 7 j.8Xw.M Q.x.w.M 8 9 9 6 9 m H B n p < 8XD.7 4 4 = = & = = = 1 + = & u . . 4 . l l . . . . 1 b.A q v.W.+X3X=XG.G.J.T.T.#X#X5XyXsXzXjX5X4X4X_.`.`.l.y.p.p.0...d.k.l.l.I.d.n 7 6 3 ; 5 X                                                                                   X                                                                                   X                                                                                                                                           ",
"                                                                                                                                                                                                                                                                                                                                                                    X   X           X             X   X ; @ @ # ; j b M 9 9 9 3 b b I F P P w.w.R w./.g.B b 8 8 7 3 4 u l N l : 3 B vXh.a u - 1 = = = = . 3 = = : 4 & . # . > > . . . . 1 6.g v 7.%X&X&X@X7.6.n.A.B.T.#X#X-X=X7XyX5X=X4X5X*X}._.f.,...+.y.,.O.d.y.l.Z.~.d.6 X 2 j 9 X                                                                                                                                                                                                                                                                                                                 ",
"                                                                                                                                                                                                                                                                                                                                                              O                                       @ 8 5 j n 5 9 b Y Y 4.9.9.P M P P n I 8.M R /.g.K 9 9 n 9 5 : 6 9 k 9 6 5 = I uX5.c c 1 a 4 = & < = p : & : : o & & & 3 = . . . + q 6.v _ 6.&X-X+XH.@.@.c.B.M.K.T.T.T.*X5X6XsX5X5X5X=X_.Y.F.r.>.u.V.y.>.O.q.:.,.D.{.I.N 3 9 6 X                                                                                                                   X                                                                                                                                                                                             ",
"X                                                                                                                                                                                                                                                                                                                                                   X                                     O       X   X X ; j F k M e.!./.j.j.4.B j j 8 2 k b M I Y M 8 9 M n 5 5 7 9 9 5 : 5 ; . p 0.L 5.Y c p m 1 = < : 9 6 o X & & o = + = = O   * $ C H.} G.+X2X$X7.+X7.h / $.B.B.K.T.=X#X#X*X6X5X4X4X4X#X4X*XZ.f.a.r.>.| p.S.f.f.I.{.XX{.F 7 # o                                                                                                                       X                                                                                                                                                                                         ",
"                                                                                                                                                                                                                                                                                                                                                                O                           X         O O O # M Q./.x.4.B M n b M B n 3 3 3 7 n b 9 9 9 n 9 9 6 3 j j 6 6 3 = O . + 1 1 i.i.c 7 i p a 1 = 3 7 o o o o o & . . o . & * t ) P.v.&X3XhX7.} m.v.~ d z [ 2.K.K.@X=XT.T.T.#XY.).`.`.,X%XU.E.%X).6.r.S.F.S.k.S.!.U.I.k.Z : : .                   O                       X                                                               X                         X                                                                                                                                                                         ",
"                                                                                                                                                                                                                                                                                                                                                                              X   X               @ # o @ # b qXoX8.P B b M n n B B x 3 2 2 9 n M 9 n 9 8 9 k 9 9 j 6 j 5 # # .     + & D 5.c V N p N 4 1 u Y 4 o : = & : & $ = < * t +.t.G.+X3X2X3X#.7.-.7.@.h w z [ M.n.n.K.P.A.B.M.K.K.B.C.%X;X%X,X).'.V.r.y.E.1X<X].U.Z.q.k.d.M 5 X                                                                                                                                                                                                                                                                                                               ",
"                                                                                                                                                                                                                                                                                                                                                                O                                 X O 3 O 8.lXoXY I 4.P M 8 8 9 M n 9 3 3 3 9 x 9 b n 7 5 9 6 9 6 5 6 : : ; #       + 4 c L c V V a m 3 < 7 5.M & > & & p a & - p t A H.b.G.&X&X&X7.*.OXm.7.m.~ w w f _ 2.M.G.T.P.M.1.1.1.<.t.B.Y.5XsX*XW.i.+.6.E.9X1X;X_..XF.y.f.d.H #   X   X               O                                                                                                                                                                                               X                                                                                       ",
"                                                                                                                                                                                                                                                                                                                                                          X             X                     O @ @ # # g.iXj.Y Y B K M M j j j M 9 n 7 3 9 9 7 7 c 9 9 9 3 5 5 : 5 ; : ; o .         1 p & p U S p N 4 1 = B L N > > l a...| r.A C +.b.n.2X2XaX&X-.*.7.@X#.7.} f w 0 f z [ X.B.B.2.1.c.B.1.%.u.K.,XrX:XS.b.V.}.>X.X9X[.U.[.D.U.d.d.9.9 o                                                                                                                                                                                                                                                                                                             ",
"X                                                                                                                                                                                                                                                                                                                                                                       X                       O , , w.lXz.K K M n M M n p p B n l n k 7 p x 8 9 9 9 7 3 5 7 3 6 3 # ; # X o X   .   = * . 1 m L c u c 1 * t V O.i 4 p O.U | u.C ) n.H.+X3X3XfX+X*.=.3.&X=.` ` W f w r s d z ) X.$.X.1.A.B.2.K.W.W.aX9XH.'.%XtX9XgXlXaX.XS.V.S.k.9.q.T B o                                                                                                                                                                                                                                                                                                           ",
"                                                                                                                                                                                                                                                                                                                                                                                              # 2 O K eXz.Y 8.4.H Y B a n B Y H H B B 9 9 9 9 9 5 7 < , = 5 7 3 3 ; : : . .     . X . + $ . = - A c 1 V c + < 1 m 4 - t a r y g v  .$X=X+X3X3X+X7.OX=.*.OX=.~ ~ f w f r q w r r g [ [ [ 1.n.#X6X:X$X9X%XH.;X:XtXgXtXhXlX;XS.a.r.r.+.5.q.T n 1                                                                                                                                                                                                                                                                                                         ",
"                                                                                                                                                                                                                                                                                                                                                                                            o 9 b M eXQ.R Q.R.4.Y S c c m S U D H H B N c n n 7 : # 3 < = 3 3 3 # # o o X         X   * * . * 1 V c c c c 1 1 t 4 $ 1 i i t y y ( 6.2X&X@X3X+X=.` m.=.*.OX+XOX*.1.h r f r - * r y z [ [ [  .=XaX6X`.).W.b.b.b.%XgXgXrX9X,X'.V.i.i.f.0.+.U n c ,                                                                                                                                                                                                                                                                                                       ",
"                                                                                                                                                                                                                                                                                                                                                                  X                       X 2 n M R.Q.8.!.R.4.M n n S N N B m B S H Y M M n 9 7 7 # , 3 # # o # O o X X X .   .     o - . + , 1 1 c 5.U c 1 1 c 4 * & & - i y g @.W.@X2X3X+X#.=.` *.=.Q =.OXOX7.{ { z f z r q - r y i ( _ %.H.=X#X$X:Xb.L.G.%.6.u.).%X1X;X;X[.u.+.k.a.k.0.7 3 3 3 O                                                                                                                                                                                                                                                                                                   ",
"X                                                                                                                                                                                                                                                                                                                                                                                         # x 8 b !.z././.;.n 9 c n N N m N Z m S I S k 9 9 9 3 5 : : 3 = # # # # # o O           + & . & . $ 1 * 1 L 5.c * 1 t A 1 * * $ t q s @.P.&XfX&X` ~ =.Q Q OX*.*.m.+X7.` / ^ f v v t y g g g _ %.@.n.n.%X:XK.n.t.b.r. .6. .%.S.,XE.W.r.o...p.Z.d.m 3 # 9 @                                                                                                                                                                                                                                                                                                   ",
"                                                                                                                                                                                                                                                                                                                                                                                      O 3 8 7 x R.R. Xj.Y B 9 c n n p c m k l m m m 9 6 : : 3 9 7 7 7 3 # X O     O X X X   . . . . . $ . . + 1 + + 1 S c V L V c t - * q q q v H.G.=XaX} E m.` *.*.OX=.Q *.7.&X6X@X$X-XP.b.n.) A v ( 6.v.6.1.t.C.L.t.Y.:XrXaXF.5.| ) +.b.`.V.f.>.U U V.k.d.9 # X o @                                                                                     X                                                                                                                                                                                                           ",
"                                                                                                                                                                                                                                                                                                                                                                                    O , 3 , 2 8 !.R.g.b k 9 9 9 7 9 c 9 l k p p u 9 4 = # o # 5 7 3 7 3 < , o O X   . . + # + = & $ * & . . $ 1 + O + c 5.L h.| c - - g y d ~ t.P.#X-X@.0 ~ m.*.Q OX*.*.Q Q ~ OX3X6X3X2X:XW.a._ v ) %.v.b.c.b.t.v.$.%.C.9XhXhXgXrX).6.o.+.o.p.b.r...D Y q./.Y 3 = 3 7   O                                                                                                                                                                                                                                                                                             ",
"X                                                                                                                                                                                                                                                                                                                                                                                     , , 2 x g.Q.8.Y b 9 9 n 9 p 9 p 9 u u k 6 p u p : 5 o o ; 7 3 3 9 9 3 , O       o   O + 4 < & & . . . 1 1 =   + 7 5.V o.D v o.) A @.6.n.$X3XdX6.0 w ~ 7.` Q =.OXQ =.Q Q ~ ` #.{ _ s g y y v b.b.b.@.%.b.$. . .X.X.W.9XuXsXgXrX[.E.+.A Z 0.p.0.O.S +.x.z.6 o 3 3 O                                                                                                                                                                                                                                                                                               ",
"                                                                                                                                                                                                                                                                                                                                                                                  O o 3 x b M /.4.b b x 8 9 5 6 9 7 7 5 4 6 9 9 p M N k : : ; : 3 3 < 7 9 9 3 O         .   . . + $ = + . . = 4 . . + . p c t c C 5.) 6.$XL.J.:XaX=Xq 0 w ' ` E *.=.*.*.*.*.*.E ~ w 0 q * * w g  .b.C.v.6.b.t.) c ) u. .u.,XzXnXgX1X(.[.V.D D Z ..0.w.U H ..e.I 3 3 3                                                                                                                                                                                                                                                                                                 ",
"                                                                                                                                                                                                                                                                                                                                                                                  , 7 3 8 x g.j.M b M 8 x 8 : 5 4 7 5 3 5 : 3 9 9 N m k k 6 6 : # < , 3 7 7 3 , O     X     . * & = o . . . + 1 + . +   . i L c V g c _ b.7.c.&X2Xh % 0 w ' ` e Q =.Q =.OXQ *.OX&Xn.$.s c w s 6.n.v.6.C.b.+.%.D | %.6.b.V.).rXzXsX].S.f.f.>.D D Z S +.T Y Z +.q.3 O 3                                                                                                                                                                                                                                                                                                 ",
"                                                                                                                                                                                                                                                                                                                                                              X                   # , 3 8 , j.j.Y 8.b 8 3 3 7 7 3 ; 3 3 : : : 5 9 k m H m k k > = = 3 3 2 8 9 2 # .       # # : 1 + $ .   . = 3 . = + . . < c c c g i ( 7.c.n.W.@.q % * w _ E e Q =.=.*.7.=.=.m.3XaX%Xv q t ( G.H.@.$.a.) v C Z  .t.+.%.b. .N.[.;X%X(.r.r.+.o.V Z Z D T U N I T 4 = # 3                       X                                                                                                                                                                                                                                                                       ",
"                                                                                                                                                                                                                                                                                                                                                                    O             X O # 8 B R.8.z.4.8 8 8 3 3 ; o 3 : # : # : 7 5 p k m l N l j 7 # # 3 # 8 7 x 9 # X X . # = =   . .   . + = o + . + . . 1 1   * 1 c t v 6.) ( ) i % % q @.` e e Q OX=.~ ~ ` } 7.J.G.^ d ^ c.G.c.c.a.C i t a - i J u.a.W.6.D  .r.(.V.a.>.a.0.Z i N c T O.U S R L O # 7 O O                                                                                                                                                                                                                                                                                           ",
"                                                                                                                                                                                                                                                                                                                                                                                  @ 2 9 3 Y w.4.4.c x 7 9 2 , # , 3 , O @ # 3 3 4 9 p p k l u l = # o , = # 3 7 9 5 # o o . # . . .   . . = 3 + . = = O $ : > . . . $ $ $ - % r o.t % % q @.7.w % 0 m.$XQ e ` 7.6.E 7.5./ G.W.W.).&. .y & - - * = i D p.b.a.) a A D 5.o.6.5.0.D i 4 5 6 Z T G H I 5 j 5                                             X                                                                                                                                                                                                                                                 ",
"                                                                                                                                                                                                                                                                                                                                                                                O , 3 7 8 I e.Y b x n 7 2 2 < , 3 , # O @ , 3 # 3 9 p p 5 9 p u : # # = 3 # # 3 5 9 9 o o X .     X + + O 1 1 . . 1 < # + o * .   . . $ . $ % i i.- $ % q ) 6.y 0 % ` 3X6.e } +X7.} ' ~ 6.+XW.&XP.z q * . - t > = - i  .o. .+.C c v A 5.| D J | l t > 6 6 I Y H B k j n 3 X                           X                 X                     X                                                                                                                                                                                                                       ",
"                                                                                                                                                                                                                                                                                                                                                                              X 3 x , 2 x w.j.K 8 K n , 2 3 7 < # 2 # @ # 3 ; # : 9 3 7 p l k 5 = # # 3 3 o O O : 9 9 7 # . + .   . O + = = O     = # . = . - - . . . .   . $ c 6.* * q q g @.s % % 0 v.$Xe W 7.+X6.} } n.G.7.W.<.r - * * - & - - & - z r.] +.+.A t c o.5.) Z U J u = k 9 N ;.N n 7 7 B n #   X                                   X                                                                                                                                                                                                                                                   ",
"                                                                                                                                                                                                                                                                                                                                                                          X @ ; 8 8 K x 4./.I x K K 1 # # 3 < , 3 # @ @ , # o # < 3 9 p p n 9 # : o 2 # # o X . o = 7 x 9 = +   . + + 1 1 #     . & #   & : - a * . +   . . . g A . $ q q % _ v $ % q 0 J.J.W f ~ ' } $X&X$XJ.6.[  . .A V t - . - 4 = t S | A +.5.V c V o.D J J >.Z = 5 6 k F B Y 9 3 8 8 @ X                                                                                                                                                                                                                                                                                         ",
"                                                                                                                                                                                                                                                                                                                                                                          # @ # , M M M w.z.n x M 7 + , + < # 3 , O # , 2 @ ; 2 # 9 n 9 9 9 : : # o o o o X     @ o : 9 c 9 = . . . < 1 1         = =   & > & p = $ . . . . . C V $ % y 0 * ~ 6.% q q % / hX7.E v ~ #.+X$X3X7.A d X.B.1.Y.f.Z k 4 > = * > a z l J U A V l C N J ....k > j j k B O.n 3 8 # O @                                                                                                                                                                                                                                                                                         ",
"                                                                                                                                                                                                                                                                                                    X                                                                 X o   O   b x b b z.I , 2 8 O O + < # < < # # , , 2 # 2 , 7 9 9 7 7 : 5 : # o ; o X   X X X o o : 8 k n 7 = 1 1 1 & .       > > . & > $ p u - $ . . . - i.g . t  .y q q o.q % 0 0 s &X3X7.#.v.+X@X3XW.G.$.( ) z G X. .G J V 4 > = > > 6 a a V D c l V J l k T Z : 5 j I N Y I , 2     X                                                                                                                                                                                         X                                                           X                                   ",
"                                                                                                                                                                                                                                                                                                                                      X                             X X @   O X P K 2 x 4.b 2 7 3 # O 7 , , 3 # X @ , 2 @ @ @ 2 9 7 7 : ; ; ; @ X ; ; @ X         X X o 3 j l 9 7 4 4 & .         4 p . & - - a g D & $ . . - V.t * v 7.v 0 q ~ h s w d d 6.&X@XJ.3X2X+XP.J.aXP.K.K.K.<.A r - a p t 6 > > = t p l a c p 4 Z J Z N G F 5 3 k ;.F H B 7 2   X                                                                                                                                                                                                                                                                                           ",
"X                                                                                                                                                                                                                                                                                                                                                                 O           ; K b 2 b M x 8 , o # # = o # # O     , , @ o ; 3 2 3 : # 3 o # o X o ; @ X   X X X   o ; : : 5 a m 4 4 + +   +   . 4 i . & & * A V X.q % . . & 0.q * _ 6.v e 0 ~ 7.v s f ~ 7.&X3X+X+X@XG.#.n.&XP.T.=XaX:X`.u.l 4 - & = 6 4 : : 3 6 4 4 a k k l l k l j k j k I Y B I P 3 X @   @           X                                                                                                                                                                                                                                                                           ",
"                                                                                                                                                                                                                                                                                                                                                                          X O 3 I 9 3 8 M b b 2 , 3 3 , , o @ X o # # @ # # # , 2 # , 3 o # # o o ; o X   X X X X ; # # : 5 : j u u 6 4 : = + . * 1 t 1 i * 1 5.C | V % . . . g 1 q 7.7.~ f w ~ #.} #.-.7.+X+X3X2X7.7.} { 2.2.n.K.-X5X:X6X4Xf.G t = > 5 4 3 : > > ; ; : 6 4 6 k j 5 5 l k j N N j I Y k   X X o X                                                                                                                                                                                                                                                                                     ",
"                                                                                                                                                                                                                                                            X                                                                                                                 7 B 9 7 P K x 8 8 7 7 3 7 3 X @ o # # # # , # , # # 3 , , # # # # o o X X X X o o : 3 > 5 : > : : 6 : > k m i p - 1 c t 1 V * * ) C y C % . $ . * . q H.6.~ } ~ ~ } ` v.$Xn.J.m.J.7.7.6.7.J.J.K.#X7X7X#XB.T.[.u.J Z 4 : : > : # : : o & & : 4 6 6 k : o j 5 j N N M H Y :.:     X                                                                                                                                                                                         X                                   X                                                         ",
"                                                                                                                                                                                                              X                                                                                                                                                           X   , 9 2 9 e.Y 2 x 3 3 3 , 3 @ @ X # # X @ , o # # # ; # 3 # o # : o X o o o o : 5 : > : : > : > ; : & 4 4 u p u a u V 5.v g D 1 * } C w  .y $ .   $ + y n.6.~ 7.+X7.7.} 7.n.v.J.K.{ / f ~ #.G.J.2.M.5XaX#XB.M.u.,.G V l l p > ; o : : > o ; ; : : : ; ; ; : : 5 ;.N N H N q.m ;   @           X                                                                                                                                                                                 X                                                                                         ",
"X                                                                                                                                                                                                                     X     X                                                                                                                                                 2 3 3 w.e.K n x 3 3 < 2 O @   O @ X X O # # # # , # # # o o : # o X o ; : : : > j k 4 j j : > > > 6 u & > 4 u t p g 6.5.6.S.v q 6.6.f  .A q $ . . * s W.7./ 7.J.7.=.7.m.#.' &._ ! ~ 0 s h z ( _ 1.#XT.M.M.M.Y.[.A.u.D 6 p 4 o o o o ; ; ; : ; o : : ; & : 5 5 N F k I R p.Q.N                                               O                                                                                                             X                                       X                                                                                     ",
"                                                                                                                                                                                            X                       X                                                                       X                                                                           X   O # 8 8.8Xx.P B 8 3 8 8 3 X @ @ @ @ # @ @ # , # # # ; o # o o @ X   o ; ; ; : 6 6 6 6 l Z l 6 : : > u u > > t > r r i A  .6.H.6.7.W.6.~ _ v v q $ $ * d G.G.7.7.7.` -.J.7.` ! ! ! ( _ f f f d 0 f ( B.L.Y.Y.=XY.Y.M.s.s.;.G N 6 : : ; ; ; ; ; ; o ; 3 ; o ; : 5 k k l H 0.d.^.z.3                                             X                                                                                                                                                                                       X                                                   ",
"                                                                                                                                                X                                                                                                                                                                                                           X                 , j./.!.w.P b 2 8 j 5 ; @ o ; @ @ @ # # # # @ , , # # : X @ X o # ; ; ; : 5 u > 4 6 k l l u u u u u > t r i i i r y v ( C @.6.W.:X6.e v ( 7.A v q * s 7.7.7.7.7.` ` / E v e ! 2.2.#.n.n.&.1.c.M. .[ C >.M.T.M.<.<.,.f.,.;.N N 6 ; X X X ; ; o ; ; 3 : : ; 5 5 : 6 m :.z.9.E./.I X X                                                                     X                                                                                                                                                                                                               ",
"                                                                                                                                                                                                                              X                           X       X       X         X                                                                     O                 2 4.iXz.w.8.Y x # 2 5 o @ @ @ @ @ @ @ ; o X @ , , @ o o X X X @ # # ; ; : : ; 5 4 k k N Z N l k k l l u u l t y r r t g ) ^ v ~ 7.J.7.` f ~ @.} v.i * s 7.6.~ 7.` E e f e e e ! 2.3.v.G.H.M.B.T.#XK.u.( G ] G g l l C S l k : : : ; ; ; ; ; ; o ; ; ; j : j 6 5 4 Z k :.l.i.x.x.p.n 3           X       X                       O                                                                                                       X                         X                                         X                                                             ",
"                                                                                                                                                                                                              X                   X             X                                         X       X                           X                                       X   @ K qXR.4.4.g.P x 8 8 # o ; ; @ X ; @ @ o X @ @ # # @ @ @ X X X o = # ; : 5 : : > 4 4 u k l j k u u u t u r l y i i i f d g d v _ @.+X7./ } ~ ~ f ' s 0 s E 7.*.~ E ~ ` ~ e e ! 1.[ 2.-.-.$.-.M.v.T.L.Y.M.u.1.,.>.<.>.0.J G l u 5 ; o X o X o ; ; : ; ; ; : N N j l Z 0.Y 0.p.q.l.I.Y 7 #                                                                                                                                                                 X                     O         X                                                                                 ",
"                                                                                                                                                                                                                      X                                                                                                                                             O   @ 8  XXXK M Y Y n 3 5 ; , 8 8 @ @ @ 2 @ @ X @ @ @ # # # @ @ O o # # 3 2 2 3 7 5 9 9 u 6 4 5 : = = > = > - > t i z C C ( C h h h f f W / ` { J.+Xm.' W d 0 w E ` ~ E e e m.&X} f ! ! { 3.G.$.2.P.T.#X-X`.`.M.,.A.A.,.M.M.Z.s.T Z j o X X   o o o o ; ; ; X o ; l :.:.9.T k.9.T U q.~.g.9.3 ; @                                       X                                                                                                                                                                                                                                         ",
"                                                                                                                                                                                                                                                          X                                                                                               .           O @ M  X8.b Y M P F 5 ; ; 2 x 8 @ ; ; ; O   X   O @ @ # 2 @ @ # # @ o # # ; 3 5 : : 5 3 = & = = & > 4 t t t k i i C ) z ( ( f w s W d e e E ` =.OX+X-.e w E / ` ~ } 7.Q 0 f +Xm.Q ! ! { 2.3.-.B.#X$X=X=X`.A.M.K.M.M.,.,.,.y.,.k k 6 o o X o X X ; ; X : : 5 ; # : T d.y.O.d.D.l.I K l.k.z.I @                     O                 X                                                                                                                                 O                                                                                                         ",
"  X                                                                                                                                                                                                                                                                             X                                                                     O         O   O 8 , z.e.x 4.8.8 P M o X ; M x @ O # ; # X       , # @ # O @ @ @ O @ ; o X @ o o # o # = 3 : 5 u k k l l a u u u l G z z h h f s s e e e / *.=.3.=.OXm.f 0 E #.} ` ` -.7.E 0 E &XJ.2.=.{ { v.v.c.K.T.Y.A.M.s.s.2.s.:.X.,.:.F l j : X X @ O o X X @ ; ; ; 5 k 6 ; & k q.y.:.p.~.{.k.I K 9.!.R 2 # O                                                                                                                                                                                                                                                                               ",
"                                                                                                                                                                                                                                                                                                                                                            O     @ 2 8 8.8XP b 8.M R 8.n ; ; u M 3 @ @ @ # X X X X # @ # #       # X X X @ o X @ o 3 ; = 5 9 9 j k k k u k l l l u i A A [ [ @._ h ^ W ' / ` =.+X&XOXOX&X7Xm.E } m.-.-.=.OXOX+X*.e =.&X3.2.-.m.$XG.@.$.c.A.s.1.1.,.,.,.] ,.G l k l k o   X @ # X X X @ o ; o 3 j B m : 5 Z j.l.h.k.^.!.E.S Y z.z.b   X X                                                                                                                                                                                                                                                                             ",
"                                                                                                                                                                                                                                                                                                                                                        .   X   O O 5 2 Q.x.B g.8.8.z.F j ; ; 5 3 o ; o o o o X X X   X @     @ X @ @   @ X # @ 2 2 3 ; 3 5 6 5 6 j k 6 k k l Z z p i l D A [ %._ W f / { -.=.=.=.m.OXm.OX&X3.E E ` *.-.m.3.OX@X@XE e 2.2.` 3.M.+XH.[ @.,.2.,.M.M.s.,.,.G N u k l j :     X X o @     @ X X X : k F J F p p O.'.~.k.S.~.oXh.I Y e.;.7 ; @ X                                                                                                                         X                                       .                                                                                                         ",
"                                                                                                                                                                                                                                                                                                                                                                  X # R 0XP 8.Q.Y 8.K 8 : ; 5 6 ; ; : ; ; X o X   @ @ X           5 M @ @   @ O # 3 2 # ; : 5 5 : 6 k k N l k l l l l G  .] _ $._ [ @.! / / ` ` =.OXOX+XOX&X*.e e f E ' =.=.3.3.m.*.E E 3.{ 2.2.n.v.[ [ ! ] ,.M.s.s.,.G u l N G N ; ;         X @ X O   @ X X o : B m ..O.N V 0.E.l.k.k./.'.!.U q.z.Y 3 @ # O   X                                                                                                                                         X     X                                                                                                                     ",
"                                                                                                                                                                                                                                                                                                                                  O                       +   O @ @ @ R.j.P j.e.M 8 2 2 : 5 6 : 5 3 5 : ; ; o X X o o   X     X   9 I 3 o ; o @ # # # 3 ; : : 5 5 5 u k k l k l l u l V D ) C h z [ $./ ! f E / *.*.` *.*.-./ e 0 e e e E e E Q Q { ` ` m.m.2.2.v.K.M.( ( >.<.>.G G l G G ;.;.N 6 5 ; X         X ; @ @ O ; @ o : p S S 5.X.V m 5.E.E.k.^.^..Xh.:.d.:.H 2 # ; X O @ X                                                                                                                                                         O                                                                                                       ",
"                                                                                                                                                                                                                                                                                                                                                                O # P /.;. XXXb 5 2 2 8 j j 6 j k 6 : : : ; o o o ; @ X O       O @ P M @ ; # @ @ @   # # # # ; : : > k k 6 k k u > t 4 4 4 r r s h _ ' #.' / *.=.*.*.=.=.! E E ! ! ` ! Q E E E ! *.2.#.2.2.2.2.K.T.2.G z >.G l u G :.:.;.G l u 5 6 X             X # X   o o   o : u o.U 5.+.U V r.E.'.~.D.'.^.f.e.y.l.9.# @     @ O                                                                                                                     X         +                                                                                                                                 ",
"X                                                                                                                                                                                                                                                                                                                                                         X X X @ 8  Xz.8.iXY 2 5 5 5 5 5 j k k j 6 j 5 ; ; ; ; o o X X X X     X X I I # # @ ; @ @ @ @ 3 # o o ; ; : 6 6 u 6 6 j > u i l l A A v v ) _ @.#./ ~ ` -.=.+X&Xm.` f ! [ ! ' #.{ *.2.{ { { { 2.2.{ { M.2.[ z z z G G >.f.s.>.G l l 6 6 ;                 X O X o # X X o : k J J >.r.D V 5.E.].k.k.S.k.>.y.!.].9.9   X O       X                                                                                                                                                                                                                                                           ",
"                                                                                                                                                                                                                                                                                                                                          O                 X @ @ M /.K pX X2 2 5 k k 5 6 j j 6 6 6 j : ; ; : ; o ; X X X         # n R 3 o   @ # @ ; # @ , # ; : ; : : 5 > > ; > k k l J G U X.A C v f d W / } -.Q E } =.7./ e w W d E ! ` { { { -.! f ! ( { 1.$.1.<.G ] :.2.,.,.s.>.J G k 6 ; 3 o     X             X #     . # o # : m J V ..5.D c 5.E.D.V.x.~.0.U V.].XXe.;   X X                                                                                                                                                                           X                                                                                     ",
"                                                                                                                                                                                                                                                                                                                        X                       X   X     X @ 2 ; g.R./.pXM 8 8 j N j j N j 5 k u j 5 ; ; 5 5 ; X o X X           @ 2 M 2 @ o # @ @ @ 2 # o # # ; : ; : : ; : : > > > > 4 t a A A C ) d s h / 7.m.m.=.*.v.OX/ w 0 w f e f ! / ! ! ! f ! z ! 1.>.[ <.1.M.,.M.N.,.,.U G G G 5 : 5 5 X                     # o   o o   o = k N V Z o.5.L c 5.[.[.V.V.p.U r.F. XU.T 6 X : # O @   X                                                                                                                                       X                                                                                                               ",
"X                                                                                                                                                                                                                                         X                                                                                                                 @ @ b !.j.vX9.5 2 b k j j G N j 5 k u 5 : : : 5 : ; o X X X             X b n @ o 2 2 O X 3 2 @ o # ; : ; ; : : > : = : = = $ & & - r i g i y d f / } } *.` ` { ! 0 q w r r w f h f e f z z ! 1.M.M.M.C.A.s.K.A.,.;.G G >.G l j 5 k 5 X                       X   X o o X o : 5 k G L o.y.O.D p.].~.D.0.0.5.(.k.D.~.9.m n #   @ X   o X                                                                                                                                                                                                                                                   ",
"                                                                                                                                                                                                                                                                                                                    X                             X       O @ @ R I 0XqX5 5 j j j j j j j k j u : 5 5 5 5 5 5 ; o o X             X @ 8 M 2 , ; ; ; @ 8 b 3 @ 3 : # o ; : ; : 5 : 9 6 4 > - & & & * i z y z h h #.' ` } ` ` ' f w h f f d d e h d ! ! ( 2.{ 1.M.K.A.M.1.1.<.G ] ] ,.,.;.Z k : j #                           o X # # o X o ; 4 l V S o.+.>.J +.F.[.0.o.o.k.S.k.].p.q.j.B # o @ 2 8 @                                                                             X                                       X             X               O                                                                                               ",
"X                                                                                                                                                                                                                                                                                                                                   O                     @ @ 8 P z.lXj 3 b M 3 N j 5 5 N 6 u 5 : : 6 6 6 : ; ; # o                   @ j 9 2 ; M 3 @ 2 9 7 # o ; o ; : ; : : : 6 j u k l u k > t l r q q q d w W #.-.+XJ.+X_ f ! <.! z h ! [ ! ! z ! >.[ [ <.2.A.K.A.<.,.:.,.,.>.>.>.G l 6 6 5 X     X                     o # o : 3   X o & 7 M V Z U O.o.D w.h.E.+.J D k.k.D.F.q.x.0.9.9 # @ 9 8 @                                                                         X               X                               O                                                                                                                       ",
"                                                                                                                                                                                                                                                                                                                                                  X     @ # 2 w.j.qXj.8 j b 2 M F j 5 k j 6 u 6 : u l 5 3 : ; o # X       O             8 j ; ; Y j 2 @ 6 9 3 ; o ; ; : : ; ; : 5 k k u k l k t 4 g V i t g q 0 w ~ ' v.v.m./ e f ( ! z z ! ! z d z [ <.<.<.,.2.T.s.<.] ,.,.A.,.,.:.:.N l l 6 ;                                 # o : # o   = = 7 m V N o.y.+.Z o.h.Y S o.r.S.k.p.a.d.p.z.R 9 3 b 7 o   X                                                     X                       X                               X             X                                                                                                                 ",
"                                                                                                                                                                                                                              X                                                                                               X                         O 2 z.j.!.0X5 2 5 j M I G 6 k 6 6 k : : 5 u u 5 5 : o ; o                     X @ b 3 2 M Y , 7 X 9 : : 3 ; ; ; ; ; ; : : 3 > u l k i V D V D C y q q q d C ' #.{ { d w r d f f z ! [ ! z G ] ( <.[ >.,.[ :.:.:.1.A.1.,.:.,.G N G N 6 X                                 X : # # # X   = = u p m Z o.5.O.D D U V V w.o.p.0.V.~.f.x.d.8.M n M b #                                                                                                 X                                                                                                                                             ",
"                                                                                                                                                                                                                                                                                                                                                    X X 2 /.oXY R.8.2 2 , 8 4.K k 9 k 6 p 9 > = : 6 4 4 : : ; ; X                       @ b 7 3 n M o 3 + , + , 3 7 3 3 3 3 3 3 : > 5 5 > r t m D ..<.r.) y q * q ( v.2.^ _ f s r q d ! ^ ) @.X.z i i y a g a z z X.<.>.,.u.:.Z :.G l N ;.j ;                                     # 3 O X o . X = # 4 p Z U U D a 9 c c p V c D T V.D.D.p.:.q.I P M M 2                                                                                                                                                                                                                                               ",
"                                                                                                                                                                                                                                                                                                                                                    X   Y eX8.P 8.x 8 8 2 K K x 4 k u k u : = 3 4 4 4 5 ; # o X                       O X 2 n x e.j 3   , + 1 O # 7 3 # 3 3 4 7 6 5 4 > > > > > t l A +.r.a. .r r w @.c._ _ ^ w 0 q % z z l z g r > - t i l z l G <.,.G ] ] ..G l l G G l 6 X X                                     o 3 3 O < O = o o : 4 Z V D B l p 9 4 7 a c A p.[.D.p.O.p.0.R M M 7 X #                                                                                                                                                                                                                                           ",
"                                                                                                                                                                                                                                                                                                                                O                 o X n 0X;.j 8.4.8 b 8 7 K M 8 j k l 4 : > 5 p : 4 : # o # o                             o 9 Y x.K x , , # 7 , # 3 9 < : 3 : 5 4 5 6 6 5 5 r > > > > r V %.r.t.g r z @.t.$. .q * 0 r i y q q - - t r u G G l ] X.,.>.H G >.] l l G Z N G 5 X                 X                       X # , o # O o o o = = 7 N Z m 9 3 = 7 p a l p.wX].k.0.D.q.w.9.B 5 # o O                                                                                                                                                                                                                                         ",
"                                                                                                                                                                                                                                                                                                        X                           O   X     X X   6 qXx.M b Y 8 b 8 8 P M 9 8 k k 6 : > 4 6 6 7 5 : # o X                                 7 R e.K I , + , , < # # 1 7 # = 5 : 5 5 > > u 9 k 6 p u t > > t i ] A r r G $.[ [ r % - - - - - > - u z l l G z G G z U G z G :.Z l Z :.l F k ; X X     X                                     3 3 # = X # o = = = 6 p n a 4 4 = 5 m k d.].D.l.y.y.l.:.e.I M # o                                                                                                                                                                                                                                           ",
"X                                                                                                                                                                                                                                                                                                                                   @ @   O O 2   B eXz.Y M 9 b 2 3 3 9 I n 9 b k 6 : : : 6 4 5 : : # o X                       O O   O   O 2 e.Y x O.x < # # 3 < # 3 9 3 # 3 3 6 5 3 5 6 u k u a l l p > - - * t r i z X.) z > * 1 q - r & - k l l z N l l l G Z G J m l l l l G l l N 4 X                                               X O 3 3 o o o O # 3 # 4 6 p 6 4 4 4 p N k.].~.S.0.O.q.q.T H T k ;                                                                                                                                                                                                                                           ",
"                                                                                                                                                                                                                                                                                                                                  O @ ; , @   8 |.qXQ.R R n 2 8 5 # 7 B n 9 n p j > = > 4 5 : : : : o X                           +         X 4.9.K M 7 7 o @ 3 7 < , 7 3 # # # o o ; : 5 : 4 k 5 p Z V m t t > > & - r C ] A - - a t = & & - l u u u l u 4 u l l N m 6 4 u l ] :.l G G =                                                     , 3 3 3 # 3 o : # : k 9 4 4 : : 4 N k.~.(.].p.l.D.q.q.:.T F ; X                                                                                                                                                                                                                                         ",
"                                                                                                                                                                                                                                                                                                                          O X     2 8 , 8 @ x eXiXw.4.I P 8 8 9 2 , 5 b 9 6 7 4 : : : 3 : # = ; ; # X             O O O                 X   X M j.I K 1 n 3 , 8 7 = o 7 9 3 # = ; o o ; ; ; & 4 u u m m Z k p > > & > - l  .] a 4 a u & & > > t u u u u u > 4 u 6 6 > > : > G s.J Z :.Z X                       X                               @ 2 # 3 # # . # : k m 6 4 4 4 > n 0.h.S.;XD.S.D.d.l.e.Y R n 9 9 X                                                                                                                                                                                                                                     ",
"                                                                                                                                                                                                                                                                                                                          3 3 X 2 3 8 , O 4.pXQ.8.Y 9.F 8 3 5 2 , 2 3 7 7 6 : = & : > : & o o : ; o                       X                   2 9.k M M c 9 2 , p 9 3 # 9 6 # o ; ; o & ; ; ; ; : 4 4 t k i t > t > i a V D D V i p p > & = = * & > ; : : : : & o = : & > u :.,.G S T m X                                                     X   3 M 7 : 3 3 : k 5 l p 7 : : 6 p O.+.y.].[.<XV.a.f.e.R R F N M 3                         X                               X                                                                                                                                                                           ",
"  X                                                                                                                                                                                                                                                                                                                       8 , @ ; b b 2 b iXQ.F P I Y n 9 2 3 o @ 2 8 2 3 : # : o : & ; # # < < # X                           X               , T N 9 F 5 5 j ; 8 n 9 : 5 : : # # : o o o o o & o > 4 > > > & & & t u m a V o.c p t u 4 $ * p 4 & . . . . # & .   # & = k ,.t.:.J ..T 5                                                     O   X , 9.n : 3 : 6 G B p : 6 ; & : l ..,.>.S..XrX[.f.l.k.9.O.n j 9 c O                                                                                                                                                                                                                                   ",
"                                                                                                                                                                                                                                                                                                                        o 3 O # j b b M  Xj.8.P Y 4.B b 8 3 2 @ , 2 , 2 # : : o : ; : o o = # O                                               @ j N N ;.9 ; n 6 # n 9 5 : # : : : o o o ; o o & = o & # . = > & = l V a i t V a u Z V 1 4 N D t & o o o o & .   & & t G :.s.>.| s.s.J .                                                             M j.6 3 > 6 U ,.U > 4 : 6 > k J >.X.+.D..X|.]._.D.O.Y S H 5 3 X                                                                                                                                                                                                                                   ",
"  X                                                                                                                                                                                                                                                                                                                     , x 3 8 P I b ;.g.P Y F F R F n 9 2 3 # ; 2 # o # = # # o ; o o # # O                                                   o M B d.k 3 5 6 : : 7 6 6 3 : 5 5 ; o ; ; ; o ; o = . & . = & & r i D | c - t 1 a o.D 4 t | 0.c > - > o & = 9 p p m J r.,...G ,.s.u.N X                                         O                   3 R 7 7 4 : u H T m 4 : : > 4 m U U U r.V.<X_.].~.:.n R Y 2 3 #                                                                                                                                                                                                                                   ",
"                                                                                                                                                                                                                                                                                                                X   X X 2 7 b n ;.P P g.;.F 8.M B B n B n 3 o : @ # # @ o # o # o o ; ; #                                                         9 l.H H 3 ; j 5 5 : 7 7 3 : 6 6 6 4 : > ; ; > & > > u u k a l a > a D c - * $ p o.V t V ..U D l k l i l J ..O.T q.....z ] ,.f.,.:.:                                                             X   p M 5 6 6 = t l T l : : : 4 m U S o.+.+.'.]._.k.+.:.T Y k 9 ,                                                                         X                                                                                                                                                         ",
"                                                                                                                                                                                                                                                                                            X                         @ 8 8 M K Y b Y g.R 9.Y H N B Z N k : ; # X o o # X O o o o o # : X                                                       X ; :.I I j 6 k n : 5 9 : 5 6 3 : : 4 6 k 6 6 > > > : k Z Z T +.D V c i c * + & l Z u 4 >.O.+.a.G l l A U 0.f.:.| J G l G s.A.,...H X                                                         O   X O = M 5 7 l u t 4 l m 9 = : = c Z c | X.o.k._._.D.0.,.:.I n 9 X                                                                                                                                                                                                                                   ",
"                                                                                                                                                                                                                                                                                                                  X   7 8 8 b 4.8.P 8.P P 9.H B N H J M k : # o # o o o X . O O o : o X                                                       X   o b N w.Y : 9 N j : 5 > # : 5 : : ; 6 u u k N l l 4 t 4 i t J U V D l A 4 . & l k > p | S D 0.G J y.X.O.o.O.G l l Z U ,.I.f.>.,.l X                                                           X     o I 9.p S D J l > > k k & 1 1 p Z V Z | y.p.}.U.r.:.k.q.m 6 @ X                       X                                                                                                                                                                                                         ",
"                                                                                                                                                                                                                                                                                                                  X O 8 x 8 M w.Y B 4.I Y 8.Y B B U U Z m 5 # ; @ X o o .   o . o o X     X                                   X                   @ 3 I I B 9 2 j M H 3 4 : : > 5 4 : : 5 6 u k N l k u > l a 4 p m l N p =     > : = 4 m | J Z D O.d.+.0.0.J Z Z ..Z.N.N.,.>...,.:                                                                 . X B E.5.N Z o.U m 4 5 u > o = 4 m V c A o.F.}.S.>.:.Z.p.H 9 o @                                                                                                                                                                                                                                 ",
"                                                                                                  X                                                                                                                                                                                                                 , x b x M 8.I Y 8.Y P P I R U G I H Z 5 : ; o o @ X o o o X o X               X                                           X O   @ P ;.8 n 3 7 5 n k 5 4 u 9 6 > 4 > : 5 : u u l l l l > 4 t > 4 = 4 o   X . o # = # > a u 4 p Z U Y o.V V +.l.V.U.M.f.,.] ,.T o                                                           X         O 4.4.n n m S V J l > 5 : = 4 9 m p c c V.}.].j.y.k.9.R R 2 O         O                                                                                                                                                                                                                       ",
"X                                                                                                                                                                                                                                                                                                                 o , x K 8 x Y 8.9.P K K b I 5.H U ..S Z 5 # o # @ # # # O   # #                                                                 . # 9 9.9 9 6 9 3 5 j n 4 4 p k u k 6 u 4 : > u l G l u : ; ; & o o o X       X o o o o . . . . & = p m G T p.l.y.U.C.y.J T y.T .                                                           X           n w.B L 7 c c D | p 4 4 7 4 7 p a i m 0..X<XS.0.p.h.5.9.9 X                                                                                                                                                                                                                                 ",
"                                                                                                                                                                                                                                                                                                              X O o M 7 x x M x 8.Y M M Y M M O.9.o.:.D l 5 & o o 3 2 # # o o # @ X                                                                 O O M K j 9 F 6 6 : j 9 9 4 u 6 6 u k 4 > k 6 u u u 4 o o & & : ; ; X       o ; ; o o . .     . o 4 l l m ..>.s.] J J | :.q.N                                                                   X     3 K n c c c u p S a 1 3 a u 4 4 : p p c h.[.~..XD.~.0.9.R o X                                                                                                                                                                                                                               ",
"                                                                                                                                                                                                                                                                                                        X     X X 8 I x 7 x 7 x Y b M B I n M 0.p.0.O.U l 5 # o # 2 , o @ # , #                                                                     O   , 9.M 3 n B k 5 : : p 6 4 6 > 5 4 > 4 > 6 6 5 : o o ; ; o 4 : : X     X o ; : ; o o o X   . . o u 4 6 m l k i N U d.q.U :                                                                           7 n 7 7 V p u m m 4 = 4 p 7 3 + 4 4 - c 0..X4X[.{.0.U :.9 X                                                                                                                                                                                                                               ",
"                                                                                                                                                                                                                                                                                                                  9 K 7 x M x 4.P 9 b 9 P R m 9.f.0.O.T k = : o # # , o O # #             X                                                           O   n I 5 : n 9 5 : 6 5 4 6 : > 6 5 6 5 = ; ; ; : ; ; ; ; : : : : X X X X ; ; ; : : & o & .     . . 5 4 4 l l S :.,.q.H H                                                                               3 c 9 u 7 - 7 u a 7 = = = = : > 6 p c u p.wX.X].k.O.j.d.:                                                                                                                                                                                                                               ",
"X                                                                                                                                                                                                                                                                                                               O 8 8 b 3 x 4.w.b 9 9 9 F :.S U f.0.U U u : : : = # : 3 # < #                                                                               Y R j 7 ; o ; 5 j 5 5 6 6 5 # : o o o o ; ; X ; ; > : : ; ; o o o o : ; : > : : o ; o X X   . : 4 p l H G H G m F :                                                               X           X X   < x 7 < 4 : 4 p V > & . = = . 4 a m u a k..X^._.l.l.I.O.o X                                                                                                                                                                                                                           ",
"                                                                                                                                                                                                                                                                                                              X @ 8 Y b M 4.4.K 9 8 9 9 F T B Z 9.+.| D u > : 6 7 9 9 # # 3     X               X                                             O         O   n w.9 3 n 2 o ; 5 : ; : ; ; X X o o o o ; ; : ; : > > > > ; o o o o : 5 5 5 4 : > : > o . X   X   - : k 4 j 5 N k                                                                                     7 7 7 7 = = 4 m a p & = = o = 4 S m D J 0.U.<XZ.d.k./.9                                                                                                                                                                                                                             ",
"                                                                                                                                                                                                                                                                          X                   X           X     O b 8.F P j.K x 9 9 6 M n ;.H N 0.d.O.m 6 : : 3 6 N k : : # @   O                     X                                                     + 4.9 7 x 9 3 ; o   X   X X   o o ; : ; ; > > : : 5 6 5 5 ; o o = o 5 u u 6 u 6 u 6 : 5 : o o   . + X o & : 6 M o                                                                                     # 7 6 5 = 3 4 4 n c 7 & o & = = p l J o.V f.<Xk.f.q.D.R X                                                                                                                                                                                                                           ",
"X                                                                                                                                                                                                                                                                                                               @ 8 F B R K x , 6 3 5 k N w.:.S 0.V.O.p > : : : 9 k 6 5 8 o                                                                                 c lXR , # @ 3 2 o       X X X o o o : : : 6 : j u 6 u u 6 : o ; : : : 6 6 k k k k j 5 5 > # +       X ; j l N #                       X                                                                 o 9 7 # # 4 4 1 4 c u > . + 3 4 > | a.O.U F.p.V..XZ.{.6   X                                                                                                                     X                                                                                                 ",
"                                                                                                                                                                                                                                                                                                              X ; b B R 8.M j 5 5 6 9 n Y :.q.T X.,.:.> 4 : : 5 M B 6 5 6 o                                                                               O  XcXe.M 3 O   @ O     X X   X o # o o ; ; : : 6 u u 6 j 5 ; o ; ; > : 5 6 6 k u u : : : =   .       # : k S j                                                                                             = 9 : # # 7 # : 9 N 6 > o & 5 > V a.k.+.k.a.k.<X~. Xq.X                                                                                                                                                                                                                         ",
"                                                                                                                                                                                                                                                                                                X               8 M b 8.B b n ; = 6 9 Y O.O.p.q.:.,.l k k 6 : 6 n a : 9 : o                                       X                                     O 4.CXw.8.n # # @ @ X     X X   X X X o o ; o o ; : > 4 6 5 : o o o o : > : > : : 6 5 > : # = o @ .     : l m B o                                                                                               # 9 3 = # 7 : : p p 6 > = > 4 4 J S.0.o.D.~.>X~.U. X9     X                                                                                                                                                                                                                   ",
"                                                                                                                                                                                                                                                                                                              X j b b P 8 j j 2 # 7 9 O.R :.0.0.G G l k 6 6 4 > p n 6 5 3 o                                                                             , pXeXM 8.I @ 3 # @ o   X     X X o o # o o X o ; ; > ; & ; ; o o ; ; : : ; : : > > > : : 4 5 > ; X   X k Z N p                                 X                                                                 o 7 7 3 # 2 3 = 7 4 p 4 o > : m p.s.X.a.[.XX_.Z.}.T     X                                                                                                                                                                                                                   ",
"                                                                                                                                                                                                                                                                          X                                   X 5 M 8.P M 5 8 2 5 6 B I T O.+.D S l k 6 : > 6 4 l k 7 > # X   X             X                             X                             P AX/.4.R.z.x O @ O @ # .     X . X X o o ; ; o ; ; o ; ; ; o o o o ; ; : > > 5 > 5 u j u l p p 5 o   X l N :.N                                                                                                     X 9 9 7 ; 8 9 3 : 6 p : = 4 5 ..l.| O.].}._.~..X^.o                                                                                                                                                                                                                       ",
"                                                                                                                                                                                                                                                                                                                8 M R I b 5 8 8 7 n m T 0.+.0.o.J p u u u 5 > 6 l 4 5 5 o   X                                                                         X /.lXR.g.e.e.n , @ X @ @ @ O   O @ @ @ ; ; ; o : : : ; > > ; ; o ; : : ; 5 u 6 u u 6 G z l j l G l : o = m I j.I                                                                                                       O 3 b 8 2 7 5 = 9 7 4 = : 4 l ,.f.O.U.].D.].}..Xk                                                                                       X                                                                                                         X                     ",
"                                                                                                                                                                                                                                                                                                              o @ F g.b M 8 9 3 9 N S y.k.5.0.| Z a l u k 6 6 l a 4 7 3   X X                                                                         9 cXeX/.R.M K n , ; @ O @ O O o # @ 2 o # ; 2 3 3 : 6 6 5 6 u ; o ; : : 6 k l Z l l G G l Z G Z N m : = l H 0.p.p..                       X                                                     X         O               X 3 3 9 : 9 9 = 4 p 4 : u > l l.r.p.}.U..X]. Xq.  X O                                                                                                                                                                                                                 ",
"                                                                                                                                                                                                                                                                                    X                 X         2 ;.x.M n 9 9 8 6 m I i.k.r.O.c V N A l u 4 6 l 6 : : o               O   X                             X                           X I pX!.R.4.K P b # # o , @ @ O @ @ # , ; @ ; 3 : 3 : 5 6 u j u > ; o ; > k Z N Z G G G :.G G G G Z p > : S H :.0.k.n         X                                     X                     X                     O     O         X 5 9 4 n p 3 p p 5 5 4 k :.u.0.F.}.>X<XD.~.4                                                                                                                                                                                                                     ",
"                                                                                                                                                                                                                                                              X     X                                       X   3 /.I x N 9 x x 9 B T O.u.0.D a Z l m a l l k 6 6 4 #                                                               X                  XiXz.w.8 8 b 9 5 2 @ # # @ O @ o O # ; 2 ; o ; 5 : 6 u k k N 4 : o ; : k k N G G G :.;.G G ;.N k m 4 l H Z T Y l.0.o                                                                                                             o k 6 p M 6 l 4 u > u V V.>.p.>X[.<X~.[.w..                                                                                                                                                       X                                                           ",
"                                                                                                                                                                                                                                                                                                          O O   B z.j 5 j k 7 9 p I U 0.y.U m L c a t c Z H m : 7 <       X                                                   O .                 O b iX8Xj.Y x @ , , 8 8 # @ o @ , @ @ o o # # o ; # ; : 6 5 k k k k : & : 6 k l N ;.G N l N k ;.G N ;.F l J | G U O.q.q.o                                                                                                   O   X     O # 9 3 n n 9 6 k 6 a l u.D.y.].;X}.F.[.~.=                                                                                                               X                     X                                                                             ",
"                                                                                                                                                                                                                                                                                                              X  XY 9 9 n n 7 9 B Y | 0.| V D A c t V m V U 4 7 4 X   X     X                                                         O O         O /.lX8X/.g.8 @ @ O 3 3 # o X o ; , # # o O O O @ o o X # : : 6 = : o & 6 > 4 N l l k k k G N u G G G Z J ,.G ..d.q.O.d.k                                     X         O   X                 X                                         O 7 9 5 b B k j N l l D U.f.Z.<X[.E.~.'.K                                                                                                                       O                     X               X                                                     ",
"                                                                                                                                                                                                                                                                                                      O O   @ 8 oXn b n M M p N N Y O.H m U ..i t N D p S a = 3 O                                                       X           X   X   X     , 0XiX X Xw.x @ # O o 2 2 3 # X @ , 2 , # 2 O # @ o o X X 5 N j o o o o : : : j k N N N k k k F s.s.:.G :...G J U.0...s.l.o                                                                                                               O 3 b 8 P M k k Z k Z a.F.r.(.|.].E.'.p.+                                                                                                                     X                                                                                           ",
"                                                                                                                                                                                                                                                                                                              R 0X8 F j n Y c B I 0.+.m N D m 4 u V m U n = 7         X                                                                           O 8X8Xz.R.Y b x 2 X O X   # 3 ;   O # # @ # 3 # @ @   o # ; N N : : o = o : : k 5 4 k G k G G ;.s.,.G l T J ..V.k.y.y.l.U.U                           O                 O                                                         X       X   2 M b M N 4 N m m U k.f.w.~.1X'.^.|.9                                                                                                                                                                                                                 ",
"                                                                                                                                                                                                                                                  X                                                         @ g.!.9 I n F H M S 0.0.U c V N 4 p 4 m S S 7 p X                                                                           X         o /. XQ.Q.P 8 9 9 2 # # O o 3 5 O   o # # o : 3 # @ o ; o X ; 5 m 9 k k 6 k J ;.l l G G k N ,.l.,.;.l G ;.G ,.Y.>Xs.] Z.l.I.o   O                         X                       X       X                               X     X           @ O 2 b b I S p n V m 5.(.r.F.wX'.E.8Xw..                                                                                                                                                                                                               ",
"                                                                                                                                                                                                                                                                        X     X                             O  Xg.M e.k B R n D y.5.a m D 4 a 4 p m n p 9 :                                                   O         O         .   X           o w. XQ.9.B 8 j n 6 7 , o   o 2 2 @ # X X ; ; 3 8 9 j j 5 : # X : o 9 k u 9 Z N ;.I :.;.:.d.I.l.,.;.;.G :.G A.{.>X>.<.,.V.I.k                                         X               X     X   X       X   X                                 O @ @ M I M B k Z m V V.~.a.;X.XE.;X|.4                                                                             X                                                 X           X                                                                   ",
"                                                                                                                                                                                                                                              X                                                         O     qXw.R z.k M :.l Z 0.o.c U a m u c m 6 7 9 3                                                             X               X   @ @       P R M B M x n 7 5 9 9 2 # @   X ; 2 o @ o : p 9 6 m N N N k l j 5 : = o # : F ,.;.G H l.4XI.,.G ;.N G G ,.,.I.,.G >.<.,.f.k                                   X             X                                   X                         O     O 2 Y P n U U l V 5.S.r.F.].E.[..XO.      O                                                 X                                     X               X                 X                               X                                             ",
"  X                                                                                                                                                                                                                                                                                                       O x iXF R w.k I :.Z ..5.V U V D m p V u 4 p 7         X                                     X                           X         X   X @ M B 9 M 2 3 7 7 7 9 n 9 9 2 ; @ X ; 5 o ; ; 9 k n k H :.R q.I.I.d.u : : : 6 d.5X{.4XU.U.}.l.;.G k k u ,.,.;.] ,.U.f.l.:.d.l                                                                       X                                     X   O     O 3 K B K U B N D Z.f.y.'.'.E.|..X9                                                                                                   X     X                                                                                                   ",
"                                                                                                                                                                                                                                                                                                            Y 8XY R :.a 9.0.Z o.o.D o.U Z p m p 4 u 4                                                                         X X   X   X X   . X # g.j.b 2 2 # # 7 : 3 n M N I : 9 9   ; : : ; 6 k N Z U T ..a.{.>X>Xw.4 a p m l.4XyXjX].~.Y.,.;.N l l H s.J k G U.`.}.f.,.:.: X                               X           O                         X                                                 # b K I B M S m r.a.r.(.E.E.'.8Xh.O                                                                                                                                                                                                           ",
"                                                                                                                                                                                                                                              X                                                             /.R.Y Q.Y M 0.q.D r.U O.o.D a A Z p p p X                                                                               .     X X X   P pX/.8.Y 5 O # 3 # ; 6 j n Y I : b ; X : j 5 j j N B U ..:.>.f.>X^.p.Z c l o.].`.5XtX(.f.s.,...l l J :.l 4 l u.Y._.}.U.Z.G o                                                         O               X     X                 X                   @   O # 9 K Y V L V D i.i.p.'.S.E.[..XI                                                 X                 X             O               O                   X                                                                                     ",
"                                                                                                                                                                                                                                                            X                                             o !.9.B j.I n 0.+.+.+.+.X.| V V U m p 4 X                     X                                                     O X   .     X   X @ x.qXR.Q.;.j 2 o # ; ; 5 5 9 U d.N 9 M o ; : j j k n m J o.0.r.f.].[.+.U A D G U.}.`.[.Y.I.s.>.J N l ] N 4 > z Z.T.Z.Z.l.,.j o X                         X             O                                       X                           X     X       O , K 5.K V m L p.p.D.'.E.'.|.!.|.7 O                                                                   X                                                                                                                                   ",
"                                                                                                                                                                                          X                                                                                                         X   X 9 XXM R P M B q.p.V.U +.r.) V Z V a a o                                                           X                       X   X   O X x iXR.4.w.P Y 8 # X o 3 : 6 5 S :.Y : B Z o o 3 5 j l N S ..0.r.r.a.a.i.+.Z J +.u.f.u.Y.Y.I.s.] J J G k 4 4 j l ,.,.,.s.,.G G X                                                     O         O                                                         O @ O n 4.I L c D i.[.a.S.[.|.|.'.<X~.+                                                                                     X                                                                                                                 ",
"                                                                                                                                                                                                X                                                                                           X             B  Xw.e.M Y B e.k.a.r.a.+.D V S l M 4 X                   X                                                     X       X   X X X X # Y eXj.8.8.Y 9.9 # ; # o o 3 5 6 N T H n :.3 # 3 : j k l S J ....>.y.o.+.+.C D  .f.u.u.u.1.,.>.J G G j > 4 z l G ,.>.,.;.l G :.: X                                   X       O         X                                                         O         # o # M Y L a N D.].D.|.k.E.E.E.>X8XL                                                                               X                   O                                                                                                   ",
"                                                                                                                                                                                                                                                                                                          g. X9.w.M P I .XV.f.%.a.A Z ] A l p                                                                         X                   . . o /.eXg.g.n F F 6 # # o # X X : 9 j T I : k Y # # : : > k V S J D ..X. .| D V V U ] ,.1.,.>.>.,.J l l l k Z S l J G G l l G ,.,.k                                                             X   O           X       X                                       X   3 T H B i.].U.S.E.5.h.'.XX.X<Xh.                                                                    X               O                                                                                                                 ",
"                                                                                                                                                                                                                      X                                                                                 , oX X;.B B M 9.<Xk.u.r.+.) A D V 4 =                                                                       O             @   X   X X :  X XR I M I F 6 # # o o X # X # 5 N I j 5 ;.N # : : : 4 u Z S J o.O.0.o.Z Z D U ] X.] :...>.J H l J ,.J V m k l 6 j u ;.:.G ,.;.o                                                                 O   X       O                                                 6 ;.N U <X[.;Xk.i.5.i.'.wX.X.X~.7                                     X   X                                     X                                                                                                                     ",
"                                                                                                                                                                                                                                                                                                        x pXz.;.j R S k.[.a.a.a.| A U U m +             O     O                                           X               X   X     X   X   X 8 qXQ.I P M R M 7 6 3 o ; o 3 5 # X : B F k N j.M = > 5 4 6 k V m S ..o.| m D D O.:.J J G ] :.T G q.d.>.T S G S u u l G G ;.G ,.s.4 X X     X         X                             O X                       O                                                   ; R T k.<X.X].f.i.k.'.;X[.[.1XqXp   X                                                   X       X         O             X                 X                                                                                           ",
"                                                                                                                                                                                                                                                                                                X       M eXR j M Y Y Z.k.r.(.a.] | ..S >                                                                                               X X X 6 ^.g.g.R B n 9 7 3 3 ; ; ; j ;.j o o 5 N ;.j R d.: . = 5 k l N k l G S m i l S ..X.T X.y.y.>.O.:.l.>.J U U y.H > & :.:.G ;.,.q.e.p X X                                                                                                                           5 l._.(.].U.~.S.S.].(.;XF.'.].XXY X                                                         X                                                                                                                                         ",
"                                                                                                                                                                                                                                                                                                        e.XXb 8 w.M T ~.p.i.F.0.| +.Z l # X           X                                                                             X     @ @ b z.j. XI B 9 3 8 3 9 8 ; 3 j ,.,.; ; ; 5 T I k q.J o o = 5 m G H :.:.0.D k l l J y.y.q.f.s.J J q.:.N 0.O.O.f.H 4 N l.s.;.,.l.,.,.k .                                                                       X                                                   X q. XXXI.I.f.]._.(.].F.'.[.D.(.4XZ.+ .   .                                                                                                                                                                                             ",
"                                                                                                                                                                                      X                                                                                                                 Q.!.M M 5.p L l.r.N.S. .| | Z 4 .                                                                       X     O           X   X X X X I /. Xj.F g.L 9 n 5 b 5 3 5 j :.I.k j o : 5 H T 0.I.k . & . > l T d.0.i.>.l l G :.0.y.r.0.X.G d.y.k.q.y.0...:.l u G ^.s.G ;.s.,.;.N o X                                     @   O                                                                               I {.I.U.~._.>X.XF.(.;X%X%X).V.S.>XF.+ .                   X                                                                                                                                                                             ",
"                                                                                                                                                          X                                                                                                                                       X   9 iXR 9 B K K D.p.0.V.a. .>.G 9 o                       X       X     X           X                   X               X     X   X   X X P x./.P e.qXK B B j b 6 3 j 3 N I.T k : o o j O.I ,.q.p X o # # u O.+.U O.G u l J >.Y +.U Z J 0.>.~.V.+.U 0.H : u l I.^.;.;.,.,.s.T X .     .                 O     X                         X   X         X                                                 F XX{.!.(.~.}.rX4X].F.%X,X[.1XF.F.[.(..                                                                                         X                                                                                                         ",
"X                                                                                                                                                                                                                                                                                                   @ 8.eXY 8 g.S I D.p.r.f.u...:.m . .               X X               X   X                           .                         X       O O x x.!.8.lXQ.B B M n j 5 5 k j G I.s.N F : : o Z r.l :.d.j   # = 4 N J D 0.,.G m S o.U D Z U m D J a.r.H >.>.l 7 4 l ,.I.:.;.s.,.s.,.: X X                 X   X                                                                                       X     9 XX}.~.Z.].D.].tXtXrX'.'.).[.9X`.'.;X~.:                                                                                                     X                                                                                             ",
"                                                                                                                                                                                                                                                                                                O   @ eXz.M x.e.K k.k.y.f.(.r.G T >       X                                             O                                                   O 3 z.8.g.iXP b I k 9 B j 3 k N N l.I.k H ;.: o # N k : I I k     : m O.O.O.y...A l m V a N Z Z J a._.O.X.f...p a - l I.Y.,.Y.{.s.;.w.k                                                                                                                     = d.Y.l.d.S.f.a.a._.,XrX[.W.;X1X;X%XW.'..Xl .                                                   X                                                                                                                                             ",
"                                                                                                                                                                                                                                                                                              X     x eXF j /.Y S k.k.+.V.).+.A G X   X                               X                           O                                       O + n w.4.!./.n F I N k q.k 3 k N l ,.l.l N :.H . + 4 N : 6 H w.M k : n U o.>.o.U Z m m V S D V m O.(.Z.r.| ..l m D t Z }.{.s.{.}.s.:.:.j   X                                                                                                     O     X   m y.U._.D.V.A.N.r.f.a.`.1X[.'.;XtX1X%XW.E.>XB .                                                                                 X                                                                                                       X       ",
"                                                                                                                                                                                  X                                                                                                               O oX!.7 g.!.M w.h.i.+.k.a.D ..k X                                                                           O           X                   c 8.j.pXx.B I H k H e.N 6 j l l :.^.G u ;.a.U + . 5 F j 5 k k I l p m I :.+.0.a.r.+.V m S V D +.D.p.| ..l t J D p m U.(.:.l.y.T ,.T m o             O               O                                                                               O 9.p.0.Z.}.D.<.a.r.%.r.Y.Z.[.1XW.[.9XtX;X[.;XrX5.                                                                                                                                                                                                  ",
"  X                                                                                                                                                                                                                                                                                           @ @ 8 pX4.M 0Xw.N o.w.+.r.F.0.Z D 5     X                                                                         X         X       O           7 O./.iXO.I M M S q.j.n 7 l 9 l T ].o.a U p.l.9 + X k F : # X 6 j M N H T >.0.p.V.f.| m T J ..X.+...<.T i i :.l k l Z.U.Z.{.>.U T G j X                   X                                                                                   O   O Y l.U r.V.a.+.X.A D C +.V.Y.}.1X1X1X1X1X[.).<XrXV..                                                                                                                                                                                                 ",
"                                                                                                                                                                                                                                                                                                  x.eX4.eX!.B w.5.i.h.6.S.O.m D >                                                     X   X   X                         O   X     O           9 9.XX/.R S c L L j.d.n n n l J Z k.0.p D U O.5.=   ; N ; # # : 5 n l k S q.u.y.Y.}.F.X.| S D S J | >.S k | N.t l N 0.k.Z.~.>...q.T N X                       X       X   X                                                                       1 p.0.S.[.V.r.%.%.V C o.] <.+.`.[.rXtX1XrXrX,X1X}.'.=                                                                                                                                                                                                 ",
"  X                                                                                                                                                                                                                                                                                     X     @ , 8Xz.z.eXw.U q.i.F.V.i.i.A Z U 4                           X                                         X                                   X   M w.XX'.I I B S c q.D n Z D m Z Z i.0.c Z ..V U U o . m F : 3 6 m m k l J ..>.f.Z.Y.A.>...S l C J V z u i y.s.> u a O.f.f.s.T T y.:.;.#           X                                                                                               4.D D S.(.F.r.| D p a | o.] D <.V.1XtX1X1XyXrXrX;X(.<                                                                                                                                                                                                 ",
"              O                                                                                                                                                                                                                                                                                 4.iXY |.j.N :.T +.E.a.i.a.D m Z l                                         X                           X                                     # K x.pXg.I 5.B x o.p.M M U ..D J o.V.F.D Z ..Z U r.m   # H j # 9 Z k u Z H ..U X.f.u.,.J ] J V l Z G k t i ,.J > u a +.}.f.f.f.:.q.q.e.D X                   O                                                               O                   R p.Z Z o.%.<.D A g - 4 i | F.V.r.o.'.uX<X,X5X1XrX>X[.c                           X                                                                                                                                                                     ",
"                                                                                                                                                                                                                                                                                        X     X !.!.w.XXY Y d.U T y.O.r.F.D p Z n                                   X                                                                       7 K !.XXY I B S B E.5.m D J U | 0.>.f.].+.Z V V Z ..J = = n k X # 4 N n N G ..| X.y.y...J ..] S m A l > u A ,.z u l l ,.(.f.s.l.y.:.q.d.:.:                                                                         X                           7 x.B c p A V a Z A 4 - - = t y.].F.+.i.wXwXrX;X).W.[.;XV                                                                                                                                                                                                 ",
"                                                                                                                                                                                                                                                                                    X   X   O 8 eXg.eXj.N U e.O.D O.i.i.V.J a U m                                                   X                                                     O 8 9.eX/.5.Y S z.8X|.U U O.U o.q.a.0.r.U.y.m S Z A S O.H # o 6 X # 9 m N G S D | >.>.>.] J G J J G l l l l z ,.G u l l f.Z.>.T Z.f.>.:.q.q.I                                                                                                   # !.B M 7 a U V 1 - & . . # = . t X.].V.+.V.1X1X`.).S.;X;Xo.                                                  O                                                                                                                                             ",
"                                                                                                                                                                                                                        X                                                                 X   9.8XY x.R S T G O.5.o.N.(.f.) a U p                                                         X                     X                         # 2 R.8XE.w.w.0XoXXXT L R +.U >.q.V.i.f.f.0.A o.U D o.O.r.p . 6 9 ; 6 a N T S A o.>.| T ....Z V Z V a k C l 4 X.l > l l ,.U.>.>.~.y.O.,.d.q.:.4               X       X         X                                                               R.9.9 M T N Z a o . .       . o o i a.h.| 6.`.1X`.%Xb.F.(.O.                                                                                                  X                                                                                             ",
"                                                                                                                                                                                                                                                                                      X   X 2  Xj.4.P Y I H >.0.r.J +.E.S.i.V Z p                                                 X     X                               X                 # K  XqXg.w.!.pXR.e.n B +.O.U ..>.y.q.r.V.V.U o.p.u.f.r.f.U . o 9 3 : 5 k m m N J G J X.| U Z V m k t i >.G l l u = u G l.Z.O.U V.f.>...q.q.q.H X                                                                       O                     I  XB M +.:.Z 4 # . X X X         : : U a.0.D r.%X).b.i.b.V.S.=                                                                                                                                                                                               ",
"                                                                                                                                                                                                                                                                                        O   7 !.B n n N Z V | V.o.+.U +.i.F.U V 4                                                                                                         5 9.8X X9.R  X/./.9.p Z 0.0.O.>.X.0.O.r.V.k.+.o.i.a.'.E.i.o.3 & = 3 o : 6 u u k Z Z ;...J G l l l t - > X.0.p t u = p V y.(.U N r.E.0.<.,.T q.T 6                                                                                             j.Y 9 B U o.9 . .   X .   X       . = 4 V o.D o.W.'.b.i.E.(.].V                                                                                                                                                                                               ",
"X                                                                                                                                                                                                                                                                                   X       , 8.M B x B U c m 5.p.U +.0.0.S.V.) = +                                                                                                 X X # j w.0Xj.I x./.!.oXM M U O.+.+.+.o.>.<.a.b.S.i.| i.k..XL.S.O.a 5 o : : : 5 u 6 k N G G G H Z p u u a 4 > l <.l - > - p U U Z.U Z o.p.k.l.q.T :.;.H X   X                                                                                     B Y 3 M :.R M # X X X                 . = p U D o.| '.%XV.L.1X[.r..                                                                                                                                                                                             ",
"                X                                                                                                                                                                                                                                                                       O   # B M x 9 B O.Z m Z +.f.+.+.| X.V.5.p &   .   X                                             X                                 X       X   # 7 9 w. Xg.4.E./.^.0.m m O.O...| +.X.+.a.S.a.F.N.| r.V.).%XE.D p Z j : : ; 6 6 6 6 l N G G l z l u u o.A > r q.>.4 - - t | Z y.~.V O.D r.(.,.T :.T T : X   X                                                                           O       Y 6 3 j Y B #   O X X                 . B D c c ) ) %X[.b.S.%X[.a..                                                                                                                                                                                             ",
"                                                                                                                                                                                                                                                                                      X   O X M Y M M l B +.Z m a | 0.5. .+.i.V.V.c                                                                                                 O 3 9 M  X XE.K w.!.j.l 6 p U +.U >.+.X.r.b.S.E.:X[.5.6.S.).1XF.) U f.Z = ; : 5 : 6 u k l N l F l u > u O.p.k & Z f.4 & = p f.r.Z p.U D O.0.}.f.T ,.d.I B #                                                                                   X B n 7 9 5 9 # . X X O   O         X     = w.5.m c o.h.;X9X%XW.L.(.F.>                                                                                                                                                                                             ",
"  X         O                                                                                                                                                                                                                                                                             O @ M Y n Y m S O.>.Z p i S X.r.+.+.i.'.S.c ,                                                                       X                   . # c M w.8X|.x.I w.'.w.9 t M o.U D O.r.+.>.u.N.(.1XrXf.r.L.;X[.t.) r.a.>.u : : 5 5 : 5 k k k l N k & = : m r.| = t O.a + * m S.p.V 0.5.C J k.`._.y.:.y.Y H 4 X X .                                                                       O     ; B # 2 2 X X X   O X O                   + R 0.U o.U i.'.1X1X).W.'..XV .                                                                                                                                                                                           ",
"                                                                                                                                                                                                                                                                                      X   O @ P B c L B p J O...D a l Z o.O.+.o.i.h.E.L +     .                                                                                   O 3 3 M E. XR.w.5.|.x.R c p 7 H D J ] +.r.<.a.Z.*X;XyXY.a.L.:X).t.V.).a.f.l & ; ; : : : 6 j u j 4 : ; = o > S +.a 4 Z t . - a k.(.0.D +.S Z p.U.yXU.q.q.O.U H X                                                                                 M 9 3 7           O   O O         X         9 L S +.D A N.E.W.W.1X%X*Xo.                                                                                                                                                                                            ",
"X                                                                                                                                                                                                                                                                                           O Y K B 5.B m Z O.>.+.J m a A ) X.o.6.| h.i.4 #                                                                                       , 7 7 K |.8X5.4.5.'.e.c 4 t p U ..D ..X.<.u.u.A.;X1XrX(.r.S.%XW.(.aX).a.>.p . ; ; ; ; : 5 : j j : : : : & & u S J u p u & = c 0.(.S.m m U A O.p.wXXXi.q.q.T :.p               O                                                               o 9 2 8 o             X       X         O   O   B N I N A o.k.6.b.%X%X].+.. .                                                                                                                                                                                         ",
"                                                                                                                                                                                                                                                                                          O   w.R n B L l m p +.o. .| V a V A r.6.i.h.D.N   X                                                                                 X O , 7 , 4.!.x.L M 4.j.L V 7 4 a ....J O.>.N.F.b.a.`.*X;X*Xr.u.S.F.,XtX*XF.] 4 & X o o ; : 5 : : : o & 4 k : o - > J Z t u & - N o.[.[.D u Z O.+.>.^._.d.X.y.0.0.R #                                                                             , o # #   X O           X                       3 B M t c t V +.o.N.L.).C.1                                                                                                                                                                                           ",
"                                                                                                                                                                                                                                                                                        O   O z.Y 9 9 U m p m o.+.U  .A m a l D 5.i.k.'.p.7   .                                                                               X X 3 5 j I x.z.B M :.s.T :.9 4 m U o.S G >.Y.F.a.a.).;X>X).6.a.F.Y.5X5X5XZ.C t . X X @   o # # # o @ # p S 9 . + = Z D Z u = - V 0.].;X+.i l a.r.0.y.~.~.0.,...q.0.7                                                                           X # # 5 X           .                         X   : N n = 4 4 i D 6.%.N.'.).o.*     X                                                                                                                                                                                   ",
"                                                                                                                                                                                                                                                                                          O 3 /.K c R Y I a l m o.U Z V Z m C g  .i.+.i.S.p.<                                                                         @ @     @ ; 5 5 9 g./.w.I F I q.d.U H l Z D o.D U u.Y.;XA.u.A.(.1X`.i.6.S.*X4X;X`.,.Z l # X X . X   X   O .   X 7 N n : o & p D | p - = Z r.~.].0.p p +.~.U.0.Z.{.p.O.:.O.i.L                                                                             X ; o     O             O                       . 1 = 4 p - t a | o.+.W.[.F.4 .                                                                                                                                                                                       ",
"                                                                                                                                                                                                                                                                                    X       9 j.n K h.Y S a m a D o.| V Z m Z c U +.5.| i.S.U                                                                                 O 2 j 2 j !.!.T R j M ,.;.k k l l U ..Z +.y.}.5XF.a.t.S.;X'.i.5.E.5X,X}.A.] X.S > o X X   X       O     o N T l & = p N U p * - Z +.(.F.+.D p D _.].k.0.Z.y.O.:.p.q.:.=                                                                           o # X         X                 X               O 3 . 3 4 6 6 u m V Z t.L.F.5.1 + +                                                                                                                                                                                   ",
"                                                                                                                                                                                                                                                                                        O   8 I 7 n 5.O.Y p V m o.o.o.A m i V m m Z c Z o.h.k.w.#                                                         X     X           X X ; 5 j n z.x.9.n k I j.Z : 6 5 V O.D A +.f.}.1XU.+.r.V.].;X6.%.b.1XrXT.1.>.J V u o o X         X   X O o 9 R I 5 = p B U m & p V | V.~.0.o.c N Z.~.k.r.0.~.y.| q.q.q.M o                                                                       X 3 #                 .                   X       , n , o # 4 4 4 p t A +.a.S.).k.& .                                                                                                                                                                                   ",
"X                                                                                                                                                                                                                                                                                         @ 8 9.n M M :.q.l p V o. .) | m u u 4 i t > i 6 U e.].9.5                 X     X             X           X                     @ X O 3 M j M j.9.;.F M P d.H 6 4 4 l 0.o.A >.V.<X,XN.X.u.S.%X1XS.+.N.rXrXV.+.X.] i 9 ;     X         O   X o ; N H p 4 4 p Z m - p U X.S.E.r.o.Z V u.(.+.+.O.~.k...O.T q.I o                                                     O                   2 #                                             # F 8 o : : # : 7 m i | t.a.S.[.c + .                                                                                                                                                                                 ",
"                                                                                                                                                                                                                                                                                    O   O o R w.n M l q.p.S m J +.D Z | l 4 : > 6 5 : 5 4 a B e.l.9.n                                                               X         X j M b ;.Q.H ;.B H ^.Q.I k 9 l l O.J S O.F.5X1Xf...+.F.E.1X(.o.i.2X`.<.u.s.J l 9 o       X     X   X   O X 6 Z H 4 t u A V 4 a X.r.V.a.o.r.S m D S.k.0.U O.].q.T Y O.R 6   X X                                                                     O                                               8 j ; # # : # 1 p A +.W.S.(.1XO.. .                                                                                                                                                                                 ",
"                                                                                                                                                                                                                                                                                      X X o 4.w.7 p M i.+.l A r.r.| ) Z u = = 4 6 : . & > 6 6 S x.q.q.N #   X                                                   X           O ; j j j j.l.e.:.k ;. Xd.j k 4 l Z J G D +.D.4X>Xk...o.V.).[.S.o.+.Y.S.<.V.t.| U 9 :     @ X         X   X o o p S a t p m a - p O.p.A.a.) X.J S V f.Z.+.U ..k.Z.O.:.:.R 9 . X X                                                                                                                     2 H j 3 ; : : 3 p O.N.W.V.S.;X5..   O                                                                                                                                                                               ",
"                                                                                                                                                                                                                                                                                          O R R n n M 9.:.p D p.0.o.D p t > = : = = # # o 4 : p O.q.O.q.p #                                                               X O b F M F /.!.j.I M I j.q.M N k k Z | G D +.A.;X4XV.U U +.~.'.[. .+.L.N.N.u.a...J l 3       # X         X   X : 4 S o.a 4 a p - p ..a.(.u.V J ..>.A O.].i.U D O.;Xi.T e...I # X                                                                       X         X                                     @ k j j ; ; 3 3 m D f.r.(.).'.D +   X   O                                                                                                                                                                           ",
"                                                                                                                                                                                                                                                                                    X   O # R M B m k +.U N S o.r.V a t u = & 3 3 = : : : # & : 4 m M O.n #   X X                                                         X o n P j M j.x.w.n n B w.j.B F l l J o.U o.a.D.1XyXF.U U  .a.S.W.o.+.C.u.C.*XZ.| D Z o       3 @       X X X X o > N ,.J k i p q a G r.(.t.a A >.F.+.O.[.S.U i.i.^.j.T :.T ;.3 o X                                                 O .                                             X                   o ; 3 j 3 j o ; l k G X.V.).f.4 + .     X                                                                                                                                                                           ",
"                                                                                                                                                                                                                                                                                          3 I x B n I Y S Z | | D V a a p 4 4 ; # o o : # : # & : k l N H o   X                                                             X M M 9 K e.R R n b I !.R B M M N J O.+.a.V.E.rX1XV.D V O.i.N.'.6.%.N.Y.,X;XZ.| D H o       ; 2 X O   X X @ o # & k J >.J u p - a A ] F.r.p A a.h.h.S k.p.D D.4XZ.i.T X.Y I k X                                   X           O                 X                                                   X @ j X : 3 # ; 5 : m l A a.).S.- +                                                                                     X                                                                                             ",
"X                                                                                                                                                                                                                                                                         X               8 5.M M I h.Y 0.D D Z A A a V p u 7 .           X X # # 5 6 : n 9   X                                                       X   . : B B b B 4.B w.n k R z.B n j M N N O.0.i.E.[.1X;Xr.D D | i.a.S.o.| V.[.rX<Xu.J D Z .       @ 8 @ @ X X o ; # : : > l >.u.V t 1 a Z U F.a.t l r.f.(.+.o.U N q..X(.0...,.:.H B ; X                                                                                                                     X 6 o : k # o ; 5 l l A b.E.S.4 $ O O                                                                                                                                     X                 X                       ",
"                                                                                                                                                                                                                                                                                  @   O   8 9.M M Y h.5.p.o.D U i.| o.J m : .     X             : 6 = 6 n Y 3 X X X                                                     X   7 j B I I R j.9.k j 8.I 9 c 6 k k H 0.+.O.(.}.}.F.+.o.A | i.V.i.D | L.(.1X].+.D U m X       @ 8 2 2 ; o ; : 5 6 > u 4 J >.J 4 = i Z U S.a.u p o.0.(.E.D U V m :.0.+.J :.0.U R k o                   O                                                                                                 ; k X 9 N o   o l T l | 6.i.E.o.=                                                                                                                                                                                   ",
"                                                                                                                                                                                                                                                                              O       O O 9 Y b K x K L o.A v o.6.6.5.o.c +       X       X O   o 3 o # n K B O   X               X                                         ; n F N N ;.z.;.n B e.M 9 9 n 9 l B k.0.>.F.'.[.S.o.| ] o.r.r.N.o.| S.(.,XF.O...U m   X     X 2 2 2 3 ; ; ; 6 k 4 5 u k | >.m : p D o.f.u.t p D | V.D.S l S p U r.p.H X.q.:.:.H ; X   O                                       O                                                                       o 9 # m 6 . . . U o.A D +.5.W.].4                                                                                                                                                                                   ",
"                                                                                                                                                                                                                                                                                          B 9.Y Y c 4.D.w.L | o.o.o.D D t             X           3 3 X 3 3 w.M X   X                             X                     X X 9 F k N :./.Q.q.j F Y n 9 n n 9 9 N 0.0.0.a.}.rXa.+.%.o.o.r.i.V.o. .5.).(.r.+.O.U k           ; 8 2 5 ; @ 3 3 k m u u l k X.m > a J o.V.a.p t V D 5.i.Z +.O.U ..>.Z.q.J T q...T 3 X                         X                                                                     O                       9 w.: + o a Y c c v o.6.a.).a .                                                                                                                                                                                 ",
"                                                                                                                                                                                                                                                                          O           O O w.R.Y K 4.w.h.k.A  .6.%.D | V & .                       , 9 X # # K z.o X   X X                                             X   X n F F F XXoX!.F j M M 9 9 k n 6 l S O...o.0.|.[.r.o.5.X.D | a.i.| U 6.V.b.o.r.o.J a           X j 2 j 5 ; ; 3 l B l u l l l l 4 p Z U a.a.a 4 i Z 5.V.| q.l.U S S k.Z.>...:.:.H 5 .   X               O X                             X                   X           X                               X   I Y # # . B O.c c V h.V.i.V.4                                                                                                                                                                                   ",
"                                                                                                                                                                                                                                                                                        x g.K x M w.5.S k.S.S.6.t. .D i .                     X   X , # , 2 = Y ;.X X                                       O           X : j M j ;.eXx.x.I 9 j j 9 5 n k 9 m T O.J o.y.(.k.X.X.F.u.D ..i.V.o.) r.A.%.r.+.| ..9   .       X b 8 2 j 5 3 : j B S l u r l t - m V Z r.V.a 1 4 i 0.E.w.D D.O.J ..k..XU.:.d.q.T H #                           X         O                                                                         O   @ Y q.;   . 3 U a A 1 i 6.t.+.o.= .                                                                                                             X                               X                                   ",
"                                                                                                                                                                                                                                                        X       O             O X     X j.R 8 , I g.Y c 5.1XtXE.+.o.D - .                           X O < X # # R 9   X                     X                       X # 2 8 n n F l.{./. XB j j M 9 j j k 9 m H T U 5.a.].f.X.r.).S.o.O.r.D. .S | %.|  .o.D U 1         X X 9 9 3 j 9 7 # 5 m H Z p u p 6 = a D Z r.S.V 1 - t ..k.f.O.p.o.o.x.y.].Z.:.>.,.;.I j X   X         X                             O             .                                                       3 R.M X   o H i.m m V g  .6.D i                                                                               X                                                                                                     ",
"X                                                                                                                                                                                                                                                                                     , j.x 8 # c K S c V E.1XL.X.r.V .                                 O # = # 9 k                                             X     # @ 2 j 5 N j.d.qXx.M j M b j 9 b 6 k m H ..O.p..XU.r.r.a.).S.o.+.+.a.+.Z ] J +.+.o.S D =           X ; 9 5 9 n 6 # 3 4 Z Z k k 4 4 * 4 Z V X.f.U 4 4 p Z p.a.J i.O.D i.f.:.0.U Y G ,.;.l X X             . X     X               O                                                                   X X X g.n   o   # d.:.H a.>.m | c S 4 .                                                             X                                                                                                                     ",
"                                                                                                                                                                                                                                                                                      3 q.9 , 3 U U c c V 6.E.b.6.o.u     O                               X # # X 6 X                                                 O X @ 5 j ;./.Q.{.8.8 j M b 3 9 7 5 9 n B U D k.[.V.U r.i.'.F.o.| +.l.a.o.]  .V.a.J D D #             @ 9 6 5 j 6 3 5 : k N N l u t = t m m Z 5.a - 4 p m O.0.Z f.k.U O.>.| >.J H ;.;.;.n # X X             X                                                           X                       X X X   2 j.Y o   @   6 H 4 l ..U A c V | =                                                                                                                                                                                     ",
"                                                                                                                                                                                                                                                                          X           < B 6 5 9 k.L D ) D o.S.F.5.S = .                   X                   @ : : X                                 X       @ X       @ ; 2 8 w./.oXQ.B n b j x 9 9 7 7 6 7 S O.O.k.~.0.| o.r.1X).o.D o.S.F.X.0.V.S.+.U Y B X           X O 9 k : 5 k : : > 4 l m m 4 > = p V c a V l : > i c D p.O.r.D.0.0.f.,...:.T F G ;.F n o o   X                           O     X                                               X             X   8 e.n   X     9 l.6   :   p 7 V A | =                                                                                                 X                                                                                   ",
"                                                                                                                                                                                                                            X                             X X       O           O     + H 9 4 Z i.5.5.+.C +.6.6.+.1 .     .                                   X ; 3                                                   X   3 5 b ;.oX XY b M 8 b x 7 3 8 7 3 7 S o.w.D.k...o.J +.;X[.o.o.o.h.S.o.5.(.S.+.D H l             @ X 8 N 5 : 6 : # & : 9 k k u > = u m p t u a 4 > p p U k.r.p..XV...p.s.,.:.J J ;.I H I 5 o                             X                                 X                             X   O   M Q.8   o X     w.w.#     . 1 * S V c .                                                                 X       X   X   X   O       O                                     X                                                 ",
"X                                                                                                                                                                                                                       X                                                             O n 7 9 ~.k.V o.| +.i.r.o.A & +       O                                   X 3 #                                 X X     O X         ; j j 8. Xz.Y B b j j 5 3 2 8 9 7 7 n U h..XF.X.o...+.'.'.6.+.| 6.b.o.i.b.p.o.U U 7       X       X # B j # : : o # = & 6 k k : # 4 l a 4 4 p : 4 a i D k.p.0.].(.p.U.k.y.q.:.J :.;.N I j ;                         X     .                                       O           X               8 R j o X o @   M  Xk X , @ . 1 V Y c c                                                         X                                                                                                                             ",
"                                                                                                                                                                                                                                      X                                                 7 1 L |.6.o.o.o.6.a.6.U 1 .             X                               o 7 ;                                                 X X ; 5 5 ;.g.;.F Y b M j 9 5 3 9 3 3 3 l L k.rXD.0.U o.%.[.%X6.+.) 6.(.i.r.V.+.U I H =                 X k k : o : ; o # o > k 4 : * 4 V V p p p p : 4 m D 0.u...Z.f.k.[.D.y.>.,.;.:.;.G B 5 3 @ o     O       X                                                               O             O 9 9.2 j o X X o 8 /.;.: 2 6 o + c L L c <   O                                                                                       X                                                                                           ",
"                                                                                                                                                                                                                                                                                        < 9 '.k.V.a.c.%.5.6.J V $   .                                     X       ; 3 X                                                 X o 5 n e.8.8.Q.8.8 b j 9 ; 2 9 9 3 b n O.p.|.F.k.U  .a.1X;XV.6.| 5.%Xi.+.r.X.U D B .                   # B 6 o ; o # o # : > u 4 * 4 V Z Z Z p u > > m G O.O...>.I.f.F.[.D.>.>.:.G G ;.B 9 2 # #                               O     X   X         O                                 O 3 P Y 8 3 3 # X X   o !.z.9 8 o 3 # 7 U 1 L L                             X                           X                                           X                       X                                                           ",
"                                                                                                                                                                                                                                                                                      X 6 XXi.w.W.E.H.i.| ) U 4                     X                             # <                                     X           @ o ; 5 M e.;.g.oXB j 9 b b 3 3 9 n 9 n 5.q.i.>X[.F.o.r.V.1X,XE.S. .5.%XS.o.0.>.U S m           O         # B n # X # # o . # = 4 > = 4 m V J Z l k > : k l :.>.X.y.I.Z.~.<X_.a.y.,.H G F k 3 5 @ @                   X   O         X   O                                       o 7 3 j P M M 3 X @ O O X X X R e.j j n 5 ;   F B . O.c         X                                     X         X                                                                                                                               ",
"                                                                                                                                                                                                                                                                                X       l.oX5.'.(.a.V.6.| o.m . .         O                                 X     # 3           X                                     X ; ; 3 n ;.;.!.e.b 8 M 8 9 7 8 x j k B p.q.l.].D.D.:.u.`.1X*XL.F.+.r.(.V.+.i.+.Z A 4                   O O 9 M ,   o 3 # # > # > = = 6 S l H Z k k 4 > 4 k Z :...u.f.[.D.;X}.k.,.s.I N T F j j ; X X                                                 O                         O # # ; ; @   2 ; O 8 8 @ X w.e.3 9 n M 3 ; 9 R j # B ,         X         X                                                           X                                                               X                                         ",
"                                                                                                                                                                                                                      X                                                       X       # oXY 5.,X`.V.6.| A V = X       X                                   X       O O                         O       X   X           X   ; 9 n w.^.XXR b 9 b 8 x 8 9 9 9 b I j.j.^.}.F.p.o.V.1XrX;XF.S.6.i.%Xi.O.o.U Z m .                       X 9 7 o O 7 # o : : # = o 4 m G B Z k l u 4 4 k G | >.O.p.U.U.].}.l.>.q.:.F T ;.k ; 2 ; X       X                                                                     O       @ @ @ X O 3 2 8 5.w.7 9 j b 3 ; # :.I ; X # X     X                                                       X                                                                                                                           ",
"                                                                                                                                                                                                            X                               X   X                                     !.D.T F..XW.6.o.5.D =             X                                                                       X             X           ; 5 5 ;. XQ.P M 8 8 x x 8 7 9 9 M B 9.a._..XD.>.0.k.1XrX;XF.E.i.r.(.a.O.O.D Z p                           3 x o # # 3 o o # o = = : u B N N k j N l : t H J >.O.>.Z.A.(.U.l.,.,.s.H Z ;.;.n : 3 o   X X             X   X                                                           O X   X   X   3 x.g., n 3 o ; ; o T Y 9 # X     X                                                                                       X                                                                                               ",
"X                                                                                                                                                                                                                                                                       X X       X 9 XXV U E.1XE.o.| o.p                 O                                                         X                               X     @ 5 9 j./.Y P M 8 9 b 8 2 8 x 9 B I q.Z.~.D.p.u.>.a.<XyX.XV.F.a.>.A.r.o.o.Z m =                       O   O 7 o X = 3 o o o o o o = 6 G N N u k N l k p l T U >.r.Z.Z.I.U.V.s.y.d.:.N ;.q.H F ; @       X               X                           X                         O       X O X X O 7 e.9.3 n <     3 ; n g.j ,     X       X                                               X                         X                                                                                                         ",
"                                                                                                                                                                                                                                                                              X     I 8.c V 5.(.6.o.| m =           O                                                                                                     o 9 9 j.Q.;.I 9 x 9 b 8 , , 9 n n H w.~.k.0.U.i.y.k.<X1XS.S.[.V.r.u...+.J m l .                             , = X . # o X . # # o o 4 k k l k u l N G k p k T O.0.V.k.U._.s.f.>.k.q.N N :.N F ; X   X                                                       X                   O O   X     @ 8 x.B X < #   + @   3 j.k # 3                                                   X                                                                                                                                             ",
"        O                                                                                                                                                                                       X                                                                               X O U 3 c N | i.6.6.L p .                       X                                                                     X X                 3 9 9 8.w.Y b b n 9 8 3 3 7 b 9 M N w.l.p.0.k.0.a.a.<X;XS.V.(.A.r.u.o.0.U Z p                               # , X X # # o @ # # . # 4 l k l u u N l G G p p T O.+.a.u.D.~.f.r.,.p.p.T Y R j j #     X                 X                                                       O O   O     X B e.9   X           X Y M o o               X                                                                                                       X                                                                           ",
"                                                                                                                                                                                                                                                                          X       M Y 9 m U S 5.5.) c V =                                                                     X     X                                   @ o # 5 8.g.P b 8 9 7 8 8 7 7 x x m Y p.'.h.+.o.+.f..X;X,XV.b.Y.a.N.y.X.o.U D 9 .                             X # o X # # o X X o o # 9 N u 5 6 6 l k ;.:.S p D :.+.0.>.r.V.f.q.:.y.l.T H e.n ; 3 @                                 .                       X           .   X         O 2 8 M 5 #           X     Y Y # o X                       X                                                                                                                                                                           ",
"  X                                                                                                                                                                                                             X                                                               + B n p p V A 6.r.D i I p                                                                             X                                 @ # , 2 e.Q.P 8 8 8 8 x 8 8 8 9 j N I k.l.k.5.D O.Z.1X<X;XZ.C.U.a.V.<.| U Z D : .   .                           # : o O # @ . X o o o 9 j 5 5 5 5 l l G :.:.l u J U T O.0.V.f.0.+.p.k.:.N :.M o @       X                                         X             X                   O 2 9 , @ X         O   X   9 P #   O             X                                                                                                                                                                                       ",
"            O                                                                                                                                                                                                                                                                   . 7 l p c L D 5.| V p +.0.#               O                                                                 O                             @ # , 8.j.M b j 8 3 8 8 2 7 8 9 B Y p.S.'.O.D ..].XX(.[.F._.A.N.Y.+.G U D Z +     X                             5 # X o o o o X X # k N 5 ; : 5 l l ;.G ,.G u l J ....>.a.p.0.d.q.d.:.Z T Y ; X             X                                           X                           #                       9 n O O                                                   X     O         X           X   X                                                                                                                     ",
"                                                                                                                                                                                                                            X                                             .       # n N V U ) o.J t 4 D i.#                                           X               X                         X             @ X         # 2 # Y ;.8 M 9 8 5 9 8 3 2 j 9 B Y f.x.a.U U +._.].C.}.A.[.A.a.(.X.C J U c . .   X   X                         3 3 o @ # o o X X o j N : ; : : k N T J :.G j l J r.O.>.0.0.f.k.q.p.T H :.q.j o     X         X               X                 X                                         X               # 9 @ O                                                                                           X X                                                                                                             ",
"X                                                                                                                                                                                                       X                                     X                                   # M m A +.+.a.5.t 4 u S N     X                   X                                                                                       @ 2 F P b b b 8 9 j j 3 5 8 9 B O.j.p.U N O.0._.[.F.(.U.4XA.a.U.,.S U D 4   +   .                             @ o O X o o X     X 5 k ; ; ; 4 k N T T J ;.Z k N ..T O.O...q.f.0.q.U Z ;.j.k X       X                                                                 O                     O           O                                                                     X                                                                                                                                           ",
"                                                                                                                                                                                                                                                                                  1 c p V D +.S.i.i 1 4 p 0.n #                                                                               X .                           O o B R B M 9 9 3 9 3 ; 5 8 9 N Y p.0.S S ..O.<X.XF.(.`.4X(.N.(.o.C S N .     O   X .                           , # X + #   X X X 5 F 5 X ; : j N H ..:.:.J k 6 l Z J O.T >.d.0.p.T Z I d.F X                                                                                                             X                                   X                 X   O                                                                                                                                                     ",
"                                                                                                                                                                                                                                                                                  o K U D o.W.S.W.J * i 6 O.0.n #         X                               X                               X                   X               X j R n M 9 5 9 9 9 3 5 8 5 l Y k.0.n m O.k.>X^.S.5X;X1X_.f.A.+.A U 4 . . X   .   X                           O o   + O o X X   4 N : ; o ; j N G >.>.T H l 6 u l Z U U +.>.>.y.H Z :.l.:.X                                                                                                                                                                                                                                                                                                                             ",
"                                                                                                                                                                                                                                                                                  o 9.U L 6.%XW.L.| 4 = u m S I Y Y K o                                                       X                                       X       X j Y M n 9 j n k 9 7 # 3 3 9 Y d.H k N :.D.].S.F.tX*X>X(.M.N...A A o   . . X X                           X   X O # X . @ o X   3 j ; ; X o : l G ..:.J N l 5 t l Z S S ..0.+.:.S m ;.j.:.#     X                                       @                           O                                                                                   X                                                                                                                                                               ",
"                                                                                                                                                                                                                                                                              X X o R I c +.E.$XC.Z.m * + 6 7 a M Z q.9.;.M X X       X                                             O                                     O   X 3 I B 6 n j n k n 7 3 # 3 9 I p.N l p :..X].a.(.<X;X,XY.N.f.] S 6 o .             X                           # , O X o o   X 3 j ; ; o ; 6 6 l >.,...Z J l > 4 p S N U ....T Z l T :.p.5 X                                               @   O         X                     @                                           X                                                                                                                                                                                           ",
"X                                                                                                                                                                                                                                                                                 O c p c ) b.S.t.V.o.= . # 7 M k 9 n c n I M n 7                                           X                                     O         O + 5 ;.P M n k k n B 9 : 7 = 9 M Y N M Z :.{.S.p.F.].`.}.A.f.<...Z : . X     O   X     X                   X     # 5 ; X X o   o 6 j ; o = o 5 u 9 D +.o.S m Z p 4 4 l m m Z c A m a S ..9.6                                                                                                                                                                                                                                                                                                                             ",
"                                                                                                                                                      X                                                                                                                     X X   + c p Z D o.t.<.r.o.> . . . : 6 k n 5 3 ; 7 9 M x 7 o O X         X   X                       X                                           . O ; ;.Y n N n k l B 9 : 7 9 6 9 9 m n m :.k.f.].D.;XF.(.N.V.| o.m X     X       .                               X ; 3 = o X o o j j ; 6 o # ; l p n +.0.O.Z V l 3 4 4 4 m m a m m S T T T k                                                                                                                                                     X                               X                                                                                                                                       ",
"                                                                                                                                                                                                                                                                            O     O m p a Z | i.r.o.U p o # . O X ; 5 5 3 9 9 2 # , 3 n 7 # O                                                                     X     X     O ; F I F B m k N S p 6 5 7 7 9 7 M p M 5.S.{.<X(.U.Z.(.U.u.X.J 4           O .   O                         X   X X 5 2 o X X o j j o 6 : : 6 4 u p U r.r.o.J D p 7 p u U L m m D >.:.T 9.B X                                                                                                                                                                                                                                                                                                                           ",
"X                                                                                                                                                                                                                                                                                   7 p 1 a Z X.<.| o.+.=   X         . O 2 # 3 3 #                                                                                         X X X k F k m k k m N p 3 3 7 < 7 9 I L a H O.}._.(.A.(.[.Z.f.X.J :     X   X         X O                             # 7 3 o o o 9 k : 6 3 : : k 9 a m U r...U O.D p c D +.o.D D O.O.y.>.9.K X                                                                                                                                                                                                                                                                                                                           ",
"                                                                                                                                                                                                                                                                          O     X O 7 # 5 u l J J Z U o.m o .         X               X                                                             O       O               X   X j F B M n c B N 9 7 c 9 9 9 9 I N 3 l H Z.(.a.V.).(.F.V.X.S >               X                     X             X 8 3 o o # n k 5 k : : : k m a N A y.r.O.o.D c a B O.U Z Z S o.0.O.I I X                                                                                                                                                                                                                                                                                                                           ",
"                                                                                                                                                                                                                                                                                    2 3 = > 4 a A J V o.w.n       X                                                                                               X           X # ; B k n p 9 c m 7 9 c c x 9 n B S M N N ..p.S.;X[.Y.V.y.X.J #                     X                             X o 3 ; ; 3 n N : k 6 : 4 k G m m Z U 0.0.U L a p t Z D a V U U T R Y M o                                                                                                                                                           X                                                                                                                                                               ",
"X                                                                                                                                                                                                                                                                             O     3 7 + = = 4 a D D B O.Y 7                                                                                   O                         X   @ @ # k k 5 > 4 9 Z p 7 9 c 9 9 9 R :.T N H O.p.[.[.%XF.u.X...S .                 O                             O X X   3 5 3 : n N : l k 4 4 6 I Z l Z U r.+.D L m 9 p m D m m S Z Y O.B n X                                                                                                                                                                                                                                                                                                                           ",
"                                                                                                                                                                                                                                                                                X   # 7 # o : : 7 p p U D I 0.B                                                                           X                                   X X ; n k : 5 3 1 M p p p n n B I I S U N m i.+.E.E.(.a.u.>.G l X                                   O                   3 9 # ; k G 6 F l 4 6 4 N +.l a U 0.D.p.Z D l p a N c V D Z N S B m X                                                                                                                                   X                                                                                                                                                                                       ",
"                                                                                                                                                                                                                                                                                X   o 9 3 # ; 6 : > = k U m H j.n O     O   O                               X                                                                     o 9 5 ; 5 3 p D m l m S N H O.S 6 k k p Z U r.Y.U.a.a.o.S p                                                 X       X 2 3 : k I 5 ;.N > 6 u k >.Z p m o..X~.o.m m c p l S H T S k B I n X                                                                                                                                                                                                                                                                                                                           ",
"                                                                                                                                                                                                                                                                                      3 3 o : n 6 o o # j l 5 n 9.n                                                                                                               X b n 5 3 4 N O.N H T T S V T 0.S N l M l o.k.Z.u.r.r.U G 7                                     X     O     X O X @ X o 3 3 j G 5 I N : k k u Z O.l l Z k.[.i.V A m p 5 l U 9.H l Z Y M .                                                                                                                                 X                                                                                                                                                                                         ",
"                                                                                                                                                                                                                                                                                  X   X @ @ # 5 6 o # # 5 j 9 9 M I ,     X                                                                                                     O o B Y 9 3 = n R M H O...O.0.O.I.d.U 4 p D ..k.p.+...U Z B .                               X             X           X ; j ; 6 F 5 H F 6 k l 6 4 T J 4 a S p.p.N V n 4 = p S T n 5 m S m                                                                                                                                                                                                                                                                                                                             ",
"                                                                                                                                                                                                                                                                                          # o # N :   X X o # n M M Y 1                                       X                                                               X   # M Y N 7 c z.+.S N O.>.T 0.o.y.{.l.T Y y.r.r.X.| o.V m l .                                                     O   X X ; 5 9 H 5 F H 6 k l l 4 p U m p U 0.U U N Z 6 = 3 4 Z l p n S n                                                                                                                                                                                                                                                                                                                             ",
"X                                                                                                                                                                                                                                                                                         O # # N j X X       : 9 9 c M O     X                                                                                                   3 n R g.R g.iX9.N Y 0.k.r.0.D m J H ..>.p.| ..O.o.J Z N 4                                       X       X   O O X   X X X 5 6 H 5 l ;.u j l G p 4 m +.c c m V S N m m 4 5 4 l m p M S n X                       X                                                                                                                                                                                                                                                                                                   ",
"                                                                                                                                                                                                                                                                                          X # o 5 F X X X     . o M 9 n B 7                                                                                                   X   7 n 9.^.5.XXgX9.J J 0.i.0.a.~.p...p Z N U D A o.A U V m =                               O   .   X   X   X     X     X     ; M F 5 k :.k 6 j l m p 4 Z U a a a S c c B 9 : = 9 p 4 9 B N X                                                                                                                                                                                                                                                                                                                           ",
"                                                                                                                                                                                                                                                                                            o 2 # M :     X X   X # 7 9 M I 6 #   O                                                                                             . 3 9 9.g.4.^.yXU Y D o.r.+.r.F..Xa.| Z C m J J Z U Z a m &                           O                   X         O X X X ; k N ; k ;.l 6 k k m V p 4 V O.m a S B N m 6 = 4 c N p a Y M                                                                                                                                                                                                                                                                                                                             ",
"                                                                                                                                                                                                                                                                                      X       o o n I o       X       o X 3 3 l n 3 3 X                                                                                           # 7 9.w.9.iX.XT Z N O.i.f.S.F.].F.Z.,.l A D Z m Z a m N o                                                   O . O X X X X X k N 5 5 I k u k l m D A a 4 S o.Z B S L c n 4 4 p B a M Y M X                                                                             X                                                 X                                                                                                                                                                                           ",
"                                                                                                                                                                                                                                                                                      X       X   3 Y 7                   @ O o , @ X X                                                                                           7 n 9.g.R.lXg.B Z S o.S.a.F.a.V.y.r.>.] X.:.z G l l l m                                                   X   X X   O o X o 6 n 5 7 n p 5 u n l D D D a 4 Z 0.T D M l M p p l S n m I k                                                                                                                                                                                                                                                                                                                             ",
"                                                                                                                                                                                                                                                                                                O   9 Y #   @             X @                                 X                                                               X X n K 4.4./.qX9.N U Z O.0.(.1X'.C.r.u.>.:.1.] G l 4 i G n                                                     .   X X   . O   # n 9 6 k p 4 4 l m S Z D D p 4 D U Z l l m m m N m k U T 9                                                                                         X                                                                                                                                                                                                                                   ",
"                                                                                                                                                                                                                                                                                          X       O = Y M X @ O     O                                                                                                           O b B Y 4.!.z.M B Z G D ] V.1X,XC.,.N.s.] :.] l 4 u Z :.p                                                     X O   X @   O X # k j 4 9 6 5 4 l V Z V Z J S p p D w.U S Z k k N l M :.:.k                                                                                                                                                                                                                                                                                                                             ",
"                                                                                                                                                                                                                                                                                                  O   3 j 8     O                               X                 X                                         .                   O 3 M M 9./.Y m m k Z H S ..Z.L.M.A.A.1.] ] ] u u l | 0.4                                                               O X     5 k 5 u k 4 4 k k Z V D D | J i m +.+.U :.Z Z H I l Y w.p   X             X                                                                                                                                                                                                                                                                                                           ",
"                                                                                                                                                                                                                                                                                                  O   @ ; n @ X X     O                                                                                                       X # 7 B M Y w.M x l 9 N G +.| a.N.u.K.Z.f.X.<.S l u D T | >                                                             O       X 3 M 5 6 k 5 5 4 p l m V D D U S N D O.O...:.p.J H c U R 7                                                                                                                                                                                                                                                                                                                             ",
"                                                                                                                                                                                                                                                                                                        X @ 5 2                                                                                                                 o 3 b b Y Y M n m p l V D )  .<.u.M.u.X.<...A C +.X...T o   X                                                             X   . # n k 5 j 6 4 4 9 a c V A V D Z U D D L N :.I.l.S D M +.9               X                                         X                           X     O                                                                                                                                                                                                                                 ",
"                                                                                                                                                                                                                                                                                                            X o                                                                                                                 o 3 9 9 B M n B n l l t u l z | u.U.M.,.,.] G X.s.:.] U o     .                                                               X o N k 5 5 5 : : 4 k c V N V A V D o.U V m S r.k.J N U T 7                                   X             X                                                                                                                                                                                                                                                                           ",
"                                                                                                                                                                                                                                                                X                                     X                                                                                                                           7 9 M P n 9 M k p k l z l z l ..u.u.1.<.G G X.<.] ..Z                                                                         n  X;.3 6 : : 4 : u p p V V V V V V D Z a Z Z 0.+.H D I =               X                                                                                                                                                                                                                                                                                                             ",
"                                                                                                                                                                                                                                                                                                                                                                                                                              X X : j M N j 5 j p 4 > i z l l A ] <.<.<.X.z ] J >...>.l   X               X                                                   X j.ZX X5 5 5 3 : > 9 l k l l i l V N D Z c J A >.u.,.H H =                                                                                                                                                                                                                                                                                                                             ",
"                                                                                                                                                                                                                                          O           X X                                                                                                                                                                       X ; ; j j 5 6 u l p l l m Z ] z G >.z ] ] G G z G ..:.9 X     X     X                                                       M  XvXjXeXM ; : 3 : : > > u l r r u l a a m a | U >.q.f.H S o                   X                                                           X                     X                                                                                                                                                                   X                         X                         ",
"                                                                                                                                                                                                                                                                        O X                         O                                                                                                                         X   : ; j N j 5 6 6 k k l k l l z r u z ] ..G S l G z G >                                                                   R iXvXvXcXCX;.: 5 : : # & : t l l k l a u u p u V U >.G ,.U N =                 X                                                                                                                                                                                                                                                                                                           ",
"                                                                                                                                                                                                                                                                                                                                                                                                                                o 3 5 N N j 5 : : 6 5 k l u > 5 6 u r l G z A S l Z G o X X                                                             , |.iXlXiXlX4Xd.: : # o # o o : u k z l m u u u a u o.0.U 0.f.H # X   X                   X                                                                                                                                                                                                                                                                                                   ",
"                                                                                                                                                                                                                                                    X   X                                                                                                                                                                       @ 2 5 F N 5 5 : : > ; > & > r G u & > u z l z l l l N : X   X                               X                           9.!.qXlXQ.;.H ;.3 : o X o # # = > 4 k l 4 u > a i l >.O.D y.D.:.#                                                     X                                                                                                                                                                                                                                                                       ",
"                                                                                                                                                                                                                                            X                                                 X                                                                                                                             X   @ 5 P Y F ; 5 ; : > 5 : & 4 l :.G > > r 6 u > u u l G 6   X                                                           I j.5.!.E.I M ; P n o O o . X . = = = > 5 p 4 a a p O.Z.y.U +.D.d.#                                                                     X     X                                                                                                                                                                                                                                                 ",
"                                                                                                                                                                                                                                                                                X                                                                                                             X                                   j g.;.N j 5 : ; ; ; ; 5 l G G l > & : > & & u : l Z k       X                       X                             o e.e.g.^.g.7 2 o 6 n : O X o X X o # o : 5 9 9 p u p >.D.u.| J p.e.5   X           X       X                                   X                         X                                                                                                           X                                                             X                                                             ",
"                                                                                                                                                                                                                                                                                                                                                                                                                                # M 8.P N ;.j u : ; : > u k u > l 4 > ; u > > : u l k G 3                                                           Y R R R 9.Y 9 9 ; ; B 9 O O X   X . # o o > c m i S Z X.q.X.X.U >.d.n                               X     X     O                                     X                                                                                                                                                   X     X                                                                                 ",
"                                                                                                                                                                                                                                                                                                                                                                                                                        X   X X 8 8 8.P F I 6 9 9 : : : > 4 > 4 u 4 6 p k 4 : u k k l J k             X                                 X       X j 9.F k k j j M 7 o o j 9 @ O       .   . = . 4 k l z H >.>.J ,...,.y.M         X                                                                                       X                                                                                               X                                                               X                                                           ",
"                                                                                                                                                                                                                                                                                X                                                                                                                                             ; 8 b w.P n M 5 9 k : o o o = : > 4 = u m 9 > 6 l u l Z H H o   X O         X       O     O         X       X   X X j F j j : ; 6 9 5 o   : 5 3 o # X +   O . . # & : & u m >.G :.u.,.O.Y j                 X                                               X                                                                                           X                                                                                                                                                               ",
"                                                                                                                                                                                                                              O                   X                                                                                                                                                                       X X @ j B I M 9 N 6 6 9 5 : ; = # = : : 4 6 p : : 4 l 6 l G N G :   X             X     O                       X o B ;.;.M 5 k 5 3 5 9 = # X 3 5 3 3 3 o o   . X   . o . o & u Z G ..:.,...I 5     X   X       X     X                           X                       X                                                                                                                                         O               X                                                                                       ",
"                                                                                                                                                                                                                                                                                                                                                                                                    X O     X     X       X   X n M 9 8 j M 7 5 : : : o o . o # # 6 l > > & u k k l Z N S 6 X X X O     O       .   X               X   X 3  XBXcXI.q.l j 3 3 : # . O # X j 9 o 3 7 3 X X o o # : o & & & l J H J T H H : X         X                     O             X         X       X   X                                                                                                                                                     X                                                                                                 ",
"                                                                                                                                                                                                                                                                                                                                                                                                  O           X           X X X 9 j j ; 8 b 2 8 : ; 3 ; o o o o : n 6 # > 5 k u k k Z N J p                 X   X     O             X   5 yXZXvXXX,.g.F k k 5 : o o X X o 9 8 2 o 7 9 # X X o : : : & > 4 l :.G U J Z F o X     X X       O                                           X           X                                                                                                               X                               X                                                                                                   ",
"                                                                                                                                                                                                                      X                                                                                                                                                                                 @                 X X @ j 3 ; ; 5 9 # 8 3 ; : @ o X X X 5 j 5 = : u 9 : k S J m D l               O   O X     X X             X M eXXXQ.;.I I j M M j : 5 o X X X : 9 2 # 3 7 #   . o : & 4 j : > l N I T F I N @                                                                                                                                                         X               X                                                                                                                                                   ",
"                                                                                                                                                                                                                                                                                                                                                                                                            O               X o 3 ; 3 ; 8 j ; 5 3 ; ; o o X X X 3 3 & = 6 9 9 > t G U N n p                   X O                   X o {. Xk N :.T N j j j 5 6 6 ; X X X 6 9 2 , 3 7 # . X X o ; > 6 > : j N l N T T k                                                                       @                                                                                                                                                 O                                                                                                     ",
"                                                                                                                                                                                                                                                  X               X             X                                                                                                     .               .                     # 2 3 3 5 ; j j @ 2 ; ; o ; o X X o 6 : # : = k > & : N S N n p             X         O   X     O         , I M H :.H 5 j M j : : k k 6 : ; o 5 9 2 @ , < 3 o X o o ; : : : ; > 4 l H G I j               X   X                 O                                                                                                                                                                                                                                                                                         ",
"                                                                                                                                                                                                                                                                                                                                                                                                                    X     X # 3 2 2 7 , 8 7 @ 3 2 # @ @ ; @ O @ ; # : 6 9 9 : : 4 p N n M a                       X     O             O 9 M 7 7 m m 9 9 k : 5 k k 9 : # o 2 9 , # # # , # . X X o # 5 : : : : j M N M o           X X                                                                                                                                                                                                                                                                                                                 ",
"X                                                                                                                                                                                                                                                           X                                                                                                                         X                                     @ ; 3 8 x 3 3 8 # 2 2 ; # o @ @ @ # ; 5 6 6 k 5 o o = p u p N 7                   O   X X         O         9 7 M ^.^.R I Y k 3 # 3 3 o X o @ @ 3 3 # , # # # . X o o . o # : o = ; : k 5                                   X                 .                             X                                                                                                                                                                                   X                                                         ",
"                                                                                                                                                                                                              X         X                                                                                                                                                                           O O X             X X X @ o 3 9 b 3 3 7 # # 2 o # o o     X o 9 j 5 6 : o X o p p c Z 7                   X                     X O o F pXeXz.H R x.m 3 3 ; ; X .   O X 3 , # # # # . X . o X X X . o o   ; ; :               X       X                             O                             X                                                                                                                         X         .                                                                                                           ",
"                                                                                                                                                                                                                                                                                                                                                                                        O                               X   X X o 9 9 7 3 8 # , ; ; ; o o X X o ; 6 5 k k # o o # 6 p m m =                       O     X             o 3 4X8XO.Y j.x.:.M 3 6 : o X O X o O o # # @ # O X X   o . X X X o o o : ; X                               X             O                                                                                                                                                             X                                                                                                                       ",
"                                                                                                                                                                                                                                                                                            X                                                                                                                   X         X O @ ; j 8 # 3 5 # , # # , o # X @ # ; 6 6 k k # X = > u 6 p p X                   O       O             X X e.lXD.I e.!.w.m 3 3 2 2 ; o   o . X O 3 , # # O O X X   . X X o O o # 2 o                                                                                                                                                                     X                                                                             X                                                                                 ",
"                                                                                                    X                                                                                           X                                                                                                                                                                                             X       . .             X     O O # 8 3 , , 9 o # @ o # @ o ; < 9 6 4 6 p 6 # . = : : 6 m k                           .     X           @  X/.R B T R n 3 9 3 3 9 7 ; # o O X # # , O O @ O X O   X o X o @ 2 3 3 X             X X                                             X                                                                                                                                     O                                                                                                                                 ",
"                                                                                                                                                                                                                                                                                                                                                                                                                            @ # @ 2 8 2 , 9 # @ # # 2 @ o o < n 4 5 6 m k : & & = k p m k                             O X           X 6 l.M m k 9 9 : 9 8 # # 7 9 = 3 o O X O # # O O o #   O .   X X # o ; o     X                                       X                       O                                                                                                                                                                       X                                                                                           ",
"                                                                                                                                                                                                                                      X                                                                                                                                                                                 O     2 @ ; 8 2 , 9 # @ @ # # #   O + 3 4 5 6 m k > : o : 9 l k 7                                           X I :.j n 5 5 j 9 5 7 : : 3 2 3 , # o O # , # , o . o O O X X # o ; o       X                                                                         X                                   X                                                                                                                                                           X                                                           ",
"                                                                                                                                                                                          X                           X                                                                                                                               X                           X                                         O < 2 , 8 5 2 b 2 # # @ @ # @ @ # , 7 6 p S p = 4 : > k n m =                                           @ 9.F 5 3 8 b n 8 3 2 2 5 3 3 # , @ # o @ @ # @ @ @ @ X O # # , , X       X                     X                     X                                                                                                                           X                         X                                                                                                                                     ",
"                                                                                                                                                                                                                                                          X                                                                                 X                           O                     X   X     X                     X   @ @ 9 8 b 3 , # @ # O @ @ # # 9 7 7 B p = 6 4 : 5 n S #                                 X         X Y n 8 9 3 7 9 , 2 o # # 2 , # # # o ; @ @ # 2 2 2 # @ # # # +                           X                   X                                                                                                       X                 X                                         X       X             X                                                                                                         ",
"                                                                                                                                                                                                                                                                                                                                                                                                                X                 O @ 7 9 9 2 @ # @ # O @ # # , j k 7 S c = 7 7 o 3 p k X                                             M 9 3 3 , # o # # # # # # # # , # # o 2 ; 2 2 2 # # o @   X             X   X                                                                                   X                                                                                   X                 X                                                                                                                                         ",
"                                                                                                                                                                            X                                                                                                                                                                                                             X           X                             # 8 2 8 3 @ @ # # @ @ # # # 9 j 3 N m 3 1 9 = 4 p 7                                               j b 2 , , # ; @ 2 # @ @ # # # 2 # # 2 2 2 @ , #         X         X               X                                                     X                                                                                                                                                                                                                                                                       ",
"                                                                                                                                                                                                                                                                                                                                                                                                        X                       @   O 3 3 9 8 2 # # # O @ # , 2 9 M 7 N m 4 3 p = 3 4 O                                         X     3 b ; # # , # @ O @ @ @ # # # # @ o 3 < X   O X               X                               X                                           X                                                                                                                                                                                                                                                                     ",
"                                                                                                                                                                                                                                                                                                                                                                                                                              O     2 3 2 x 8 @ , @ @ O   @ 2 , 3 n 4 n M = 1 p 4 7 <                                                 X b 2 # # @ @ # # # @ ; @ @ # , # 9 M 3   X         X         O   X     X X                                                                                                                                                                                                                                                                                                                                     ",
"                                                                                                                                                                                                                                                                                                                                                              X           X                                                       O # 3 @ 3 8 @ @ @ @ @ @ @ 3 2 3 9 4 7 N t 3 p p 9 O                                                   8 8 # , ; @ @ # @ , @ @ o # o # 9 B : X X                                                                                                                                                                                                                                                                                                                                                                     ",
"  X                                                                                                                                                                                                                                                                                                                                                                               X                                                       3 b @ # 2 @ O # @ @ # , 3 < 3 N m 4 p 9 3 O                                                   o 9 # @ 2 @ # @ @ # ; 2 # # : 5 n 5 5                     X                                                                                                                                                                                                                                                                                                                                                   ",
"                                                                                                                                                                                                                                                                                                                                                                                                                                  X       o b ; @ # + X O # @ # o 7 1 = c B 4 9 9 X                                                       9 # # @ ; o ; @ @ ; @ o o ; k N H 9 o                   X                                                                                                                                           X                                                                                                                                                                                                       ",
"                                                                                                                                                                                                                                                                                                                                                        X                                                                                 O 5 2 @ #   X X X O # o # ; < 3 N c 9 4   O                                         X           7 3 # @ 2 o @ ; @ ; @ o : n 9 H T M X                                                                                                                                                                                   X                     X                                                                                                                                                             ",
"                                                                                                                                                                                                                                                                                                                                                                                                                                          X 8 j @ @   O O   O # # # # # = c M c 1   .                                                     O 8 @ @ # # @ @ @ @ ; # 7 p n O.S k o                         X                                                                                                                                                                                                                                                                                                                                             ",
"                                                                                                                                                                                                                                                                                                                                                                          X                                                                 8 b , , X O O X   # , # , < # x L m =                                                           7 o X @ @ @ # @ @ O # # 3 3 k B H :                                                                                                                                                                                                                                                                                                                                                                       ",
"                                                                                                                                                                                                                                                                                                                                                                                                                                    O       3 x # # @ @ @ @ @ @ # o O 3 = 9 I m +   O                                                       : # @ @ # @ # o @ o o , 7 3 u m N 4                                                                                                                                                                                                                                                                                                                                                                       ",
"                                                                                                                                                                                                                                                                                                                                                                                                                                              n , # #   @ @ X @ @ , , # # 3 M m + .                                                         o 9 # @ # @ @ @ o @ 3 # = 3 S S m 3                                                                                                                                                                                                                                                                                                                                                                       ",
"                                                                                                                                                                                                                                                                                                                                                                                                                                              b 9 # # O   @ @ @ # 3 # = = = l D * X                                     X                     3 , # 2 @ # # @ @ o # o 5 N :.N >                                                                                                                                                                                                                                                                                                                                               X                       ",
"                                                                                                                                                                                                                                                                                                                                                                                  X                                                           8 7 , o   @ @   O # 3 k 8 = = 9 U 3                                                             7 3 O @ , # @ # @ # 5 9 = 5 H m n O X                                                                                                                                                                                                                                                                                                                                                                   ",
"                                                                                                                                                                                                                                                                                                                      X                                                                                                                   X   8 7 + , O O O O o # 2 n j 4 > 6 S 4         X                                         X         7 7 o O # # # , # 3 7 p 5 p m m H #                                                                                                                                                                                                                                                                                                                                                                     ",
"X                                                                                                                                                                                                                                                                                                                                                                                                                                   X       X @ 7 O , , @   O # # # 6 m p : u n 3                                                             = 7 O O @ o : < # = # : 4 5 p k N 3                                                                                                                                                                                                                                                                                                                                                                     ",
"                                                                                                                                                                                                                                                                                                                                                                                                                                              O x , , O O   @ # # o 9 l k > 5 Z 3     X                       X                           O   o 7 # # # O # # < 9 9 j : 6 N m N 7                                                                                                                                                                                                                                                                                                                                                                     ",
"                                                                                                                                                                                                                                                                                                                                                                                                                                        X     O M 3 , , X # O o o 3 # 6 m 6 6 N 9                                                               9 7 O # X O   < k j k : : M N H p   . .                                                                                                                                                                                                                                                                                                                                                               ",
"                                                                                                                                                                                                                                                                                                                                                                                                                                                x 3 O + X o . o o # : > l p 6 l 6 .                                                             3 5 O # O O # O 6 6 N M k m k M 7 .                                                                                                                                                                                                                                                                                                                                                                   ",
"                                                                                                                                                                                                                                                                                                                                                                                                                                              . 3 7 O +     X   # o . : 6 p : 9 N + X                                                       O   @ M 3 @ # X = # o ; ; k k Z k N M . .                                                                                                                                                                                                                                                                                                                                                                 ",
"                                                                                                                                                                                                                                                                                                                                                                                                                                              O M n + + X O   # # o # & 4 u : u N =   .                   X                       X             o M 7 , . X X X o X X o : j 4 m M =                                                                                                                                                                                                                                                                                                                                                                   ",
"                                                                                                                                                                                                                                                                                                                                                                                                                                              O Y K , O X     O : # : o : 9 > 7 N m o     X                                           X         o 9 1 3 o O o O 3 # : : o 6 H 4 Z p                                                                                                                                                                 X                                                                                                                                                                                                 ",
"X                                                                                                                                                                                                                                                                                                                                                                                                                                     O     O # R x < #   O O O o # : # 5 k > : l J l X     X       X                             O         O X O n 3 < # O   , 5 j # # o 6 U l B k                                                                                           X                                                                                                                                                                                                                                                                       ",
"                                                                                                                                                                                                                                                                                                                                                                                                                                O             M 9.8 9 , X O O . o X o : : l l > k :.T :                                           O               p < 7 8 o # + 7 7 n 3 : # B B p S 5                                                                                                                                                                                                                                                                                                           X                                                     ",
"                                                                                                                                                                                                                                                                                                                                                                                                                                O       O     4.Y ; 7 #   O   X o # # o : 4 t & > H U ;                                                           , # 3 3 o   # o 3 9 # # = k k 4 Y n X                                                                                                                                                                                                                                                                                                                                                               ",
"                                                                                                                                                                                                                                                                                                                                                                                                                                    O       8 9.M 7 n 7 X O O   X o : & & > k > & 4 Z 6                                     X         O           # 9 # = O + O X k B M 3 : N N 4 9 S =                                                                                                                                                                                                                                                                                                                                                               ",
"X                                                                                                                                                                                                                                                                                                                                                                                                                                   X       M 8.9 3 P 8     X O o # = o = > V p : > k :                                                   O   X   x n , = # @ o 3 6 n H 9 = 9 U p 6 S p                                                                                                                                                                                                                                                                                                                                                               ",
"                                                                                                                                                                                                                                                                                                                                                                                                                                          X # n 9 x Y M o @ O 2 : 5 > : 6 l p m > : n 3                                     X     O               9 n # . 5 o # o n 6 N 7 3 7 R S 4 m K #                                                                     X                                       X                                                                                                                                                                                                                                               ",
"                                                                                                                                                                                                                                                                                                                                                                                                                                              8 8 b 8.b , #   2 5 : 4 9 6 m S Z u 6 Z 6       O                                             O     M K 3 # : o o # 9 N B : 3 a O.S 3 4 N 1                                                                                             X                                                                                                                                                                                                                                                               ",
"X                                                                                                                                                                                                                                                                                                                                                                                                                                         X   3 j 8.9.8 3 3 3 9 : : 4 4 u l l Z l k N :                                                         X I n 4 # # # o # 5 n n 9 3 3 H R n 4 c n O                                                                                               X                 X                                                                                                                                                                                                                                         ",
"                                                                                                                                                                                                                                                                                                                                                                                                                            X               X 8 b e.4.2 ; k k k m n p c V a c V Z N D .                                           X             o B 6 9 # 3 , # # , 7 b 6 # 1 4 I Z = p U 5                                                                                                                         X                                                                                                                                                                                                                                 ",
"                                                                                                                                                                                                                                                                                                                                                                                                                                X X           9 Y ;.P 3 5 k 5 u m a 7 m V m a N Z m n                         X   X                             9 Y 5 7 X 2 2 # # # 2 M m 7 7 4 U p.n 7 H B X                                                                                         X                                                                                                                                                                                         X                                                                     ",
"                                                                                                                                                                                                                                                                                                                                                                                                                                    X         F Y w.F 5 5 9 9 N N V a a m a V A m N 9     X                                             X       k H # 3 o 3 7 o # 3 3 M B 9 4 9 S q.N 1 n N o                                                                                                                                                                                                                                                                                                                                                         ",
"                                                                                                                                                                                                                                                                                                                                                                                                                                          X   F P z.j j m k : m U Z Z Z V m N D Z Z #                   X           X                         O 9.B 3 , # , 2 # # 3 7 c 9 , . 7 1 K n 4 = B B                                                             X                                   X                                                                                                                                                                                                                                                       ",
"X                                                                                                                                                                                                                                                                                                                                                                                                                   X           X   X       @ n g.8.8 2 N 5 6 4 Z m 4 D D a m S Z n                               X                           # ;.n 5 9 @ ; 3 # 2 , 7 b 7 < o 3 : N U # > k N o                                                                                                           X                                                                                                                                                                                                 X                                         ",
"                                                                                                                                                                                                                                                                                                                                                                                                                                        X   X H Q.;.j 8 N :.N Z J V w.y.0.Z Z V I 4             X                                 O           # M 5 9 3 # # 2 # , # , 9 n ; , 9 6 5 l H : 4 G N X                                             X                                                                                                                                                                                                                                                                                                       ",
"X                                                                                                                                                                                                                                                                                                                                                                                                                                   X     X X M e.j 2 3 j ;.,.f.D Z V.a.F.o.N m m #         O                                                 @ P 9 9 2 O # 2 , # # < n j : # : 5 ; 5 J : > j ;.9                                 X           X       O     O             X         X                     O                                                                                                                                                                                                       X                                   ",
"                                                                                                                                                                                                                                                                                                                                                                                                                                  X         X I P 3 j j 3 j > N m c U O.m U V D l .           O           X                           O       @ M 3 o o @ , 2 2 # , 3 M M 6 : : # j :.p.l : k I H .   X                                                                                           X                                                                                                                                                                                                                                                   ",
"                                                                                                                                                                                                                                                                                                                                                                                                                                X     X     X H n 3 5 j 3 : 6 6 D U U V p G S S 4                 X                                         O , 9 o # 2   o # # O < 7 n M B 4 : 3 l H ,.F ; 4 G n X                                                                           O                                                                                                                                                                                                                                                                       ",
"                                                                                                                                                                                                                                                                                                                                                                                                                        X     X             ; d.F 5 6 I ;.l l 6 p p.Z.l i l V S =           O                               X                 # 9 X #   @ @ o 3 o = = n 9 n 5 # 3 k l l Z N k k n o       X                                                                                                                                                                                                                 X                                   X                                                                                     ",
"X                                                                                                                                                                                                                                     X                                       X                                                                                                                       X                         X   X X   X 5 8.j ; 3 n F H :.T O.l.X.u l S S G #   O                   X                                     # 2 X X @ X X : 7 , O < M M k 5 : 5 N I Z I N k N I 6                                   X       X                     X                             X           X                                                                                                                 X                                                                                                                     ",
"                                                                                                                                                                                                                                                      X                                                                                                                                                                                 @ @ R R j j j k j 5 F G B Y H k V U S N .             O   X                               O           O 3 X # X X o 9 7 # # , n K n S 5 : 6 H Z I l l 6 T N                         X                               .   X                   X   X                                                                                                                                                                                                   X   X                                                     ",
"                                                                                                  X                                                                                               X       X                 X                                                                                                                                                                                                 X X       O 2 w.R j M H N k k Z M T k.T l l S S 4         X                           X             X           X 7 o , O   2 n 7 # 3 # j B M L M : u p 4 k M J m m N O                               O           O                                                                                                                                                                       X                                         O                                                                                   ",
"                                                                                                                                                                                                                                                                                                                                                                                                    X                               X     5 R j F 3 n j k 9 M 5 T d.k l l H G = .                                                             @ = X # @ X o 9 3 7 # # 7 Y B M n 7 6 7 m Z l H m m I c         X       X       X       X                                                                                                                                                                                                                                                                                                               ",
"                                                                                                                                                                                                                X                                 X                                                                                                                                       X   O                   X         X     X X   X j w.8.T F j j N M S n :.T 6 k N H N X                                                           X     3 o . X X # 9 , < < 2 3 Y R +.M 9 ; p S m p 3 p 6 U Y O       X                                                                   O   X                                                                                           X                                                                           X                                                                                       ",
"                                                                                                                                                                                                                                                                                                                                                                                                        X                               # 8.j.9.e.F B I M j N I R q.> k k m k                                                                   # O X X     7 3 9 , 3 ; M R 9.Y N 7 5 m m l G p p M S 7                 O       X                       X                                                                                                                                                                                                                                                                                             ",
"                                                                                                                                                                                                        X                                                                                                                                                     X                                                               X       X X I R M I j M ;.R 6 n B k q.H k 5 l k X                                                                 , O   O X O 9 b j 5 9 x B B k B k 5 > k T m :.Z > 5 u N X X                                         O         O                     X                                                                                                     X                   X                                       X                                                                                               ",
"                                                                                                                                                                                                                                              X                                       X                                                                                                                       O       O         X   X 5 n M M w.Y Y e.F Y 9 j I l.^.N p k B 9 X               .                       X                         o o O       5 M 9 F M 9 F M 5 F B # : . l q.Z k k k 5 B N X   X         @                 O                             O                                                                                                                                                                                                                                                                             ",
"                                                                                                                                                                                              X                                     X                                                                                                                                                                   X           X     X           n b 3 j.|.P ;.g.;.I 7 3 R  X{.N 9 k M :                                                                   # #         9 M n N B 6 n I j N H : : > m s.s.k N j : 5 M k               X         O         .                                                                                                                                                                             X           X                                                                                                             ",
"                                                                                                                                                                                                                          X                                                                                                                                                                                                       @ 5 M n M Q.R M B M 9.R 9 n B Q.e.k m m k X                                                                 X   O     X   b K 6 M Y 9 7 9.Z k Z 6 # 5 5 T Z Z :.:.l l k :.j                                                                                                                                                                                                                                                                                                                                         ",
"                                                                                                                                                                                                                  X                                                                                                                                                               X                                               @ 5 3 N ^.{.;.M P P 9.;.j n B :.B 5 N B 9                                                                                 9 B 9 I 8.n j ;.U k H H : : : 5 6 U T ;.,.H k k M 5 X                                                           X                                                                                                                                                   X                                                                                                                     ",
"                                                                                                                                                                                                                                                                                                                                                                                                                                  X @ 7 I.{.;.F :.z.;.I F 5 M e.:.k H k N 5                                                                       X         x Y F P Y n 5 N I.I N I 5 X : = . u :.4 U T Z k 3 ;.n                                                                                                                                                                                                 X                                                                                                                                   ",
"                                                                                                                                                                                                                                                                          X                                                                                                                               X                 X     X ; ; q.;.: j P j.;.F M 9 B 9.I k l m S 6       .                                                                         M R Y R B 5 5 j x.l.l B : X X ; # : l H Z :.d.,.k I d.7                     X                                                                                                                                                                                                                                                                                                             ",
"                                                                                                                                                                                                                                                                                                                                                                          X                                         O         O X X X j ;.j I j F ;.N N M 3 a O.w.F k N :.j                           X                                                     x K b I N 5 6 : n q.;.,.F o X o # = : G d.H :.e.H H I 9.M     X           X             X                                               X                                                                                                                                   X                                                                                                             ",
"                                                                                                                                                                                X           X                             X                                                                                                                                                                                                   X     ; Q.!.Y I j H F B 9.n 7 p T p.L m M R m O                         X                                       O         X   8 P b M 9 2 5 ; 5 H q.l.0.9 o # X : # k q.T k k k H m N H @   X           X                                                                                                                                                                                                                                                                                                               ",
"                                                                                                                                                                                                X                                                                                                                                                       X                                                             X   O   X X X M /.q.M j s.j.H Y :.B 9 n M 5.N N T O.Y =                                                                               X 5 8 8 3 8 8 # ; : I p.T I # o   X # # k q.:.:.:.U I o j ;                               X                                                                                                                                                                                                                                                                                               ",
"                                                                                                                                                                                                                                                                                                                                                                                                  X       X             X       X X ;.w.j o 5 N ,.T Y Y 7 5 n H R M S 9.T R 9                                                                           X     2 b 7 , 8 9 , O 5 c I N 5.F 3 X X : # 5 I T q.U.N l j F j @                                                                               X                                                                                                                                                                                                                                             ",
"                                                                                                                                                                                                                                                                                                                                                                                            X                               O   X b /.Y k j : F H F Y Y 9 9 6 I R p m T T 5.I <                                             X                                 2 x 3 , 3 9 < , 3 9 q.9.T 9.9 o X ; : o j O.Z :.H j H T 9.#                                                                                                                                                                                                                                                                                                                             ",
"                                                                                                                                                                                                                                                                                                                                                                                                                          O     O 9.x.I :.9 n j.;.j 9 H 5 : 5 N H l n H U 5.K c .             X                                   X                       X   # 9 8 2 3 5 ; o o n :.T p H k k 3 5 : 3 6 O.N l 5 6 p 9 P 8                                                                                                                                                                                                                                                                                                                             ",
"                                                                                                                                                                                                                                                                                                                                                                                                                            X   5 /.;.j N j U 0.k j T M : 6 5 9 y.S m I p.w.D S O                               O                                 X             # 8 2 8 3 : 5 B I I T I M N I : ; 5 6 o N N M H 5 n X 7 Y 3                                                                                                                                                                                                                                                                                                                           ",
"                                                                                                                                                              X                 X                                                                                                                                                                                                           X                       O       @ o Y e.n 9 N M e.:.F N :.H : 7 7 k O.m p U S.y.S m =                                                                               @ # # 3 3 3 N e.R j T N N k B = X 7 9 5 j j m T 7 : o # P n                                                                                                                                                           X                                                                                                                                                               ",
"                                                                                                                                                                  X                               X                                                                                                                                                           X                                                             O I {.I R F j 3 N d.;.H I M , 9 9 B q.Y Z D p.p.D D u                                                                             O       ; j 9 M Y j 6 M 6 H ,.B 3   O # 9 n : j M H 3 X O # n .                                                                                                                                     X                                                                                                                                                                                   ",
"                                                                                                                                                                                                                                                                                                                                                                                                  O   O                     O /.g.I !.R 7 4 R z.:.9.q.k 3 n Y U O.S O.D O.J Z U 9                                                                                   O O x x 9 9 # 9 n 5 J l...# .   + 9 9 6 7 p Y k     O 7 3                                                                                                                                                                 X                                                                                                                                                       ",
"                                                                                                                                                                                                                                                                                                                                                                                X               O                   O       8 ^.n K 9.9 3 n w.T H q.:.7 < M 5.Y U M U S J a Z H l                                       X                                               # 9 , 9 9 X 5 B k ,.:.: + O . < 5 : 7 3 F n   o   # ,                                                                                                                                                   X                                                                                                                                                                     ",
"                                                                                                                                                                                                                                                                                                                                                                                                        X             O   # z.x.Y 9.R 6 o B q.5.H q.5.9 # L 9.e.D U U D N U S m 7   X       X                                                     X         O O         O 8 9 7 < # , n 6 D q.n X     . # 5 : # n 9         O                                                                                                                                                                                                                                                                                                                         ",
"                                                                                                                                                                                                                                                                                                                                                                                                                          9 /.9 I ;.M 7 p I I M Y O.I ; 3 m L 5.Z U O.m 4 H l F 3 X                                                                                       o 7 7 9 2 X p B 3 q.B     X X X # o X o n O                                                                                                                                     X                                                                                                                                                                                           ",
"                                                                                                                                                                                                                                                                                                                                                                                                                          9.R j Y 9.M o c K Y K Y 9.K 1 c p L 5.D S 0.M : p k 9 . X                                                                                   X     X # = # # # k o N M     X       O     7 @                                                                                                                                                                                                                                                                                                                                 ",
"                                                                                                                                                                                                                                                                                                                                              X                                                                         O R 3 7 9.;.; n n q.9.n n R S = m 9 B o.J N U a & O 3 9 X                                                                                             O       X 6 7 9 B X           O       O                                                                                                                                                                                                                                                                                                                                 ",
"                                                                                                                                                                                                                                                                                                                                                                                                                        X k # 7 R k o k H l.q.I B w.M o 7 c R 5.U V U a o = 7 8                                             X                 X         X                           X   # 7 5 7 X         X                   O                                                                                                                                                                                                                                                                                                                       ",
"                                                                                                                                                                                                                                                                                                                                                                                                                        9 9 3 n I 3 5 : Y j.O.B H R 3 X 1 7 o.5.Y D +.M . # c 7 O       .                                         O                                                       : 9 #                                                                                                                                                                                                                                                                                                                                                       ",
"                                                                                                                                                                                                                                                                                                                                                                                                                        N k 7 9 :.p 3 p +.w.R B I F + + , . L U Z D o.N . . 7 o           .                                                             O                               X @ # @                                                                                                                                                                                                                                                                                                                                                       ",
"                                                                                                                                                                                                                                                                                                                                                                                                                  X X p I N 9 R :.n 9 M 9.M S R O.6 3 + x 7 c D +.J U K .   < o                   X                                                                                         X   X               O O         O                                                                                                                                                                                                                                                                                                                         ",
"                                                                                                                                                                                                                                                                                                                                                                                                                    o w.p.7 7 l.I 3 3 9 R S S U M # O < c < c D U Z V S = . 9 1   X   X                                                                           X                                       O                                                                                                                                                                                                                                                                                                                                           ",
"                                                                                                                                                                                                                                                                                                                                                                                                            X     O I p.Y a k.|.Y p p h.5.B m B k # = B M U i.5.Y U Z U p . 7 ,                                         X                                                             X                                                                                                                                                                                                                                                                                                                                                               ",
"                                                                                                                                                                                                                                                                                                                                                                                                                . Y /.z.m c |.k.S U O.E.0.S S n 1 + 3 T g.h.E.h.U U L o.a . o .             X                                                           X                                                                                                                                                                                                                                                                                                                                                                                             ",
"                                                                                                    X                                                                                                                                                                                                                                                                                                     O @ n :.q.~.5.U  Xx.R |.eX Xo.5.Y 5.c 3 c w.Y 5.Y i.5.D +.U K B +                                           X       X                                                                                                                                                                                                                                                                                                                                                                                                                       ",
"                                                                                                                                                                                                                                                                                                                                                                                                          , I /.z.I V V E.].S 5.|. Xh.o.Z Y U 7 3 w.h.4.g.5.5.R U o.O.H p X                                                                                                                                                                                                     X                                       X                                                                                                                                                                                                                             ",
"                                                                                                                                                                                                                                                                                                                                                                                                      O   o I e.R N Y 0.9.Y c n 5.5.U U U U N = 7 w.w.R Y L A w.O.U Z T 9                                                                                 O O                                                                                                                                                                                                                                                                                                                                                                                         ",
"                                                                                                                                                                                                                                                                                                                                                                                                    O   O K j.O.U w.o.Y 9 c D L h.Y U 5.+.q.c < 7 q.x.j.n M H d.h.O.S Y 3                                                                                                         X                                                                                                                                                                                                                                                                                                                                 X                                 ",
"                                                                                                                                                                                                                                                                                                                                                                                                      O p z.l.B e.5.c c p U B y.i.M | i.U o.3 # c 9.j.e.9 9 4 0.p.9.D x o                             X                                                                                                         X                                                                                                                                                                                                                                                                                                                                     ",
"                                                                                                                                                                                                                                                                                                                                                                                                      + w.j.p 9 h.o.V c 7 V U Y c N Z Y N n 3 3 9 Y I ;.k 9 l S q.+.S 3                       O                     X                                                                                   X                                                                                           X                                                                                                                                                                                                                                                 ",
"                                                                                                                                                                                                                                                                                                                                                                                                      O L K # n K c L 7 1 S 5.D a a D V N 5   ; o Y 9.e.Y 5 k T 0.5.O.=                                                                                                                                                                                                                   X                                                                                                                                                                                                                                                           ",
"                                                                                                                                                                                                                                                                                                                                                                                                    O O I B 9 O.U k m 4 k O.p.U a Z U U S :   # # Y e.e.e.B T d.0.U U .                                       O   X                           X                                                                                                                                                             X                                                                                                                                                                                                                                         ",
"                                                                                                                                                                                                                                                                                                                                                                                                      x 4.# n w.I : : 5 T :.Y p p L 7 D M o X o # B 9.K 9.M O.q.S Z M .                                                                                                                                                                                                                                                                                                                                                                                                                                                                               ",
"                                                                                                                                                                                                                                                                                                                                                                                                    O x 9 X 9 I 9 . # : I I k o 9 I N N 9 o     O K Y I n 3 p H U p 1                                                                                                                                                                                                                                             X                                                                                                                                                                                                                                   ",
"                                                                                                                                                                                                                                                                                X                                                                                                                 O   + @   o 3 3 o # X M p ; o 7 k 7 9 X   X   O M K 4.9 3 4 n 7 #                                                                                                                                                                       X                                                                                                                                                                                                                                                                                                           ",
"                                                                                                                                                                                                                                                                                                                                                                                                O     @ O     # 2 X   # b 2   @ X o X O     O     3 M n , O O O                                                             X                                                                                                                                                           X                                                                                                                                                                                                                                                             ",
"  X                                                                                                                                                                                                                                                                                                                                                                                                         O o       @ 5 @ X X             O     , B 3   O                                                                                                                                                                                                 X                                                                                                                                                                                                                                   X                                                     ",
"                                                                                                                                                                                                                                                                                                                                                                                                                X         X           X     O     , n o         O       O                                                                                                                                                                                                                                                                                                                                                                                                                                                                             ",
"                                                                                                                                                                                                                                                                                                X                                                                                                             O                                   @ ,             O                                                                                                                                                                                 .                                                                                                                                                                                                                     X                 X                                                         ",
"                                                                                                                                                                                                                                                                                                                                                                                                                X                       .           X   X X             X                       O                                                                                                                                                       O                     O         X                                                                                                                                                                                                                                                             ",
"                                                                                                                                                                                                                                                                                                                                                                                                            O                                 X                 O                   X   X                                                                                                                               X                                             X                             X                                                                                                                                                                                                                                                 ",
"                                                                                                                                                        X                                                                                                                               X                                                                                                                             X       O     X                                                                                                                                                                                                         X                         X                                                                             X                                                                                                                                                                                               ",
"                                                                                                                                                                                                                              X                               X                                                                                                                                                   X         O                                             O         O                                               X               X                                                                                                                                                                                                                                                                                                     X                                                                                           "
};
