/* XPM */
static char *result[] = {
/* columns rows colors chars-per-pixel */
"459 384 253 2 ",
"   c #010101",
".  c #0A0604",
"X  c #060805",
"o  c #0A0A06",
"O  c #060608",
"+  c #090708",
"@  c #070908",
"#  c #0C0C0A",
"$  c #120505",
"%  c #190706",
"&  c #110907",
"*  c #120D0B",
"=  c #1B0D0C",
"-  c #0F100C",
";  c #13110E",
":  c #1A110E",
">  c #0E0E10",
",  c #110F10",
"<  c #1A0F10",
"1  c #0F1110",
"2  c #141412",
"3  c #1B1513",
"4  c #171814",
"5  c #1B1916",
"6  c #1A1718",
"7  c #171818",
"8  c #1C1C1A",
"9  c #220D0C",
"0  c #280B0A",
"q  c #320D0C",
"w  c #26110F",
"e  c #221514",
"r  c #2F1010",
"t  c #2B1413",
"y  c #221916",
"u  c #2B1A16",
"i  c #271718",
"p  c #231D1B",
"a  c #2A1D1C",
"s  c #331513",
"d  c #3A1414",
"f  c #361917",
"g  c #341C1B",
"h  c #3B1C1B",
"j  c #1E201D",
"k  c #292017",
"l  c #24211E",
"z  c #2A211E",
"x  c #33221E",
"c  c #3B211E",
"v  c #1E1E20",
"b  c #261F20",
"n  c #381E20",
"m  c #1F2121",
"M  c #242322",
"N  c #2B2522",
"B  c #272827",
"V  c #2C2926",
"C  c #2D2C2A",
"Z  c #322524",
"A  c #3B2423",
"S  c #322926",
"D  c #3B2A25",
"F  c #362728",
"G  c #342D2A",
"H  c #3A2D2C",
"J  c #2E302E",
"K  c #383027",
"L  c #34312E",
"P  c #3B322E",
"I  c #2E2F31",
"U  c #352F30",
"Y  c #343332",
"T  c #3C3432",
"R  c #3C3936",
"E  c #393738",
"W  c #3C3B3A",
"Q  c #431C1C",
"!  c #471C1E",
"~  c #45221F",
"^  c #441E21",
"/  c #422423",
"(  c #4A2323",
")  c #442A26",
"_  c #442D2B",
"`  c #492828",
"'  c #4B2C2B",
"]  c #542828",
"[  c #532C2C",
"{  c #43322E",
"}  c #4A342E",
"|  c #562E31",
" . c #423534",
".. c #4C3030",
"X. c #4B3433",
"o. c #433A36",
"O. c #4A3B36",
"+. c #493738",
"@. c #443C3A",
"#. c #4A3D3B",
"$. c #543433",
"%. c #5B3434",
"&. c #543A36",
"*. c #5A3837",
"=. c #533D3B",
"-. c #5B3C3B",
";. c #643737",
":. c #633B3C",
">. c #3E413E",
",. c #4A4037",
"<. c #44413E",
"1. c #4B423D",
"2. c #53433D",
"3. c #5C423E",
"4. c #62413E",
"5. c #3F3F41",
"6. c #453F41",
"7. c #583F41",
"8. c #663F41",
"9. c #3F4141",
"0. c #444343",
"q. c #4C4442",
"w. c #4C4946",
"e. c #484848",
"r. c #4C4B4A",
"t. c #4E4F4F",
"y. c #524543",
"u. c #5B4542",
"i. c #534945",
"p. c #5B4B45",
"a. c #554748",
"s. c #544C4A",
"d. c #5B4D4B",
"f. c #5B5047",
"g. c #54514D",
"h. c #5C514D",
"j. c #554F50",
"k. c #545352",
"l. c #5C5452",
"z. c #5C5956",
"x. c #585758",
"c. c #5C5B5B",
"v. c #634443",
"b. c #6B4343",
"n. c #644A46",
"m. c #6A4847",
"M. c #634D4A",
"N. c #6B4C4B",
"B. c #744647",
"V. c #724B4B",
"C. c #63524D",
"Z. c #6B524E",
"A. c #62584F",
"S. c #72514E",
"D. c #635553",
"F. c #6B5553",
"G. c #635A56",
"H. c #6A5A56",
"J. c #665758",
"K. c #645C5A",
"L. c #6B5D5B",
"P. c #735452",
"I. c #7A5555",
"U. c #735A56",
"Y. c #735D5B",
"T. c #7B5D5B",
"R. c #64615E",
"E. c #6C615D",
"W. c #72625D",
"Q. c #7B625E",
"!. c #5F5E60",
"~. c #685F60",
"^. c #646362",
"/. c #6C6462",
"(. c #6C6966",
"). c #686868",
"_. c #6C6B6A",
"`. c #6F6F6F",
"'. c #736563",
"]. c #7B6562",
"[. c #746965",
"{. c #7B6A65",
"}. c #7C6668",
"|. c #746C6A",
" X c #7B6D6B",
".X c #75716D",
"XX c #7B716D",
"oX c #737372",
"OX c #7C7472",
"+X c #7C7976",
"@X c #7C7B7A",
"#X c #804F52",
"$X c #845B5B",
"%X c #82645E",
"&X c #836A65",
"*X c #876968",
"=X c #936B6B",
"-X c #877469",
";X c #83726D",
":X c #8A736D",
">X c #8F716F",
",X c #837573",
"<X c #847976",
"1X c #8B7874",
"2X c #847D7B",
"3X c #8B7D7B",
"4X c #967775",
"5X c #9D7475",
"6X c #937B75",
"7X c #9C7C7A",
"8X c #85817E",
"9X c #978479",
"0X c #94837C",
"qX c #9C837D",
"wX c #A2867E",
"eX c #907F81",
"rX c #808080",
"tX c #8B8583",
"yX c #8A8886",
"uX c #8C8B8B",
"iX c #988885",
"pX c #948C8B",
"aX c #98918C",
"sX c #918F91",
"dX c #949393",
"fX c #9C9794",
"gX c #9D9C9B",
"hX c #A48B87",
"jX c #A8948B",
"kX c #B2918D",
"lX c #A69A95",
"zX c #B59A95",
"xX c #AAA29C",
"cX c #B7A398",
"vX c #B4A59C",
"bX c #BCAA9D",
"nX c #9FA0A0",
"mX c #A8A7A6",
"MX c #B9AAA4",
"NX c #B9B2AC",
"BX c #AFADB0",
"VX c #B7B6B5",
"CX c #C0A89F",
"ZX c #C2ADA3",
"AX c #C3A8A4",
"SX c #C3B1A4",
"DX c #C9B6AC",
"FX c #CABAB3",
"GX c #D2BAB4",
"HX c #D6C4BB",
"JX c #CBC9C8",
"KX c #D5D5D5",
"LX c #E4D9D5",
/* pixels */
"                                                                                                                                X                 O           X                                                                                                                                                                 X                               O     +           O     O                 X                                                                                                                                                                         O                                   X                 X                                                                                                                             X                                               X                                                                                                                           X ",
"                                                                                                                                          O                         O     X             X                     X                                                                                                                             O     X O           O         X                     X                           O                                                                                                                     X         O   X     O   X   O                 X                 O             X                                                                                                                               X         X                                                                                                                                                                           ",
"                                                                                                                                                                                                                                                                                                                                                                                                    O                                                                                                                                                       X             X         X                                                                                                                                                                   X     X                                                   X                           X                                                                                                       ",
"                                                                                                                                                                          O                                                                                                                                                                                                                                   X                                                                                               X                               O                                             O                                                                                                                                                                           O                     X               O                                                                                                                                       ",
"                                                                                                                                                                                                                                                                                                                                                                                                                                                              X                                                                                                           X             X                             X                                                                                                                       X                       X                                                                                                                                                                               ",
"                                                                                                                                                                                                          X                                                                                                       X                                                                                             X                                       X                                                                                                                                                                                                                                                                                                       2 C ; -                                                                                                                                                                               ",
"                                                                                                                                                                                                                                                                                                                                                              X         O                                                                                                                                                                                         X               X                                                                                                                                                                         X X W 0.e.Y X                   X                           O                                                                                                                             ",
"                                                                                                                                                                                                                                                                    X                                                                                               X               X                                 X                                                                                                 X                             O   X   O                                                               O                         X                                                                                               X     C VXR.L V C #         X           O                                                                                                                                                     ",
"                                                                                                                                                                                                                                                                                                                                                              X             O                                                                                                                                                                             X   X                                                                                                                                                                                   X         X s.xX>.4 5 C     X                     O                                                                                                                                 X               ",
"                                                                                                                                                                                                                                                                                                                                                                  O   X               X       O                 O                                                                                     X                                         O                                 X       X                                                                                                                                                                 X dX+X- 5 j C ,                   X O                                                                                                                                                     ",
"                                                                                                                                                    X                                                                                                                                                                                                                 X                                                                                                                                           O         O             O                       X                                                                                                                                                                                       o   x.R & ; ; 6 *       O X             X                                                                                                                                                   ",
"                                                                                                                                                                                                                                                                                                                                                                    O                                                                                     X                                 X               .                         X                                                                         O                                                                                                                                         X X C 2 5 3 ; G *   X                   7 M v +                                                                                                                                             ",
"                                                                                                                                                                                                                                                                                                                                                                      O                                                                         O                                                           X   X                                                                                                                                   X                                                                                                       . M 3 * : 5 Y #                   # 0.x.^.t.I                                                                                                                                             ",
"                                                                                                                        X                                                                                                                                                               X                                                                                         O                                                                                                   X           .   . .                                                           X                                       X                                                                                                                                               : W * & o a @.& +       X         e.rX9.Y Y W 2                                                                                                                                           ",
"                                                                                                                                                                                                                                                                                                              X       X             O                           X         X                                                                                       X       O O X     @ p Y P T Y z * . . . o   X                       X O           X                               O                                                                                                                                   X                     X             5 Y + * * p G .     O       O   8 nX0.6.W 7 C #                                                                                               X                         X                 ",
"                                                                                                                  X                               X                                                                                                                                                                                               O     X                               X                                                                     X   @ X     O # J R.tXgXlXxXmXmXMXxXfX2Xh.N o . o O @ O       X                     X                           O                                                                                                                                                       X                     0.V . . $ = 8           O O   v rX@Xt.@XE 7 C o                                                                                                                                           ",
"                                                                                                                                                                                                                                                                                                                                                                                                                                                                X - - - 4 (.mXVXNXxXnX9X9X9XfX9XaXjXxXmXxX8X1.4 X X   X                                                                                                                                                                                                                                   X r.M $ - * 6 y       O   X O * uXk.5 b E C 6.B                                                                                                                                             ",
"                                                                                                                                                                                                                                                                                                                                                                                                                                                                X - - R.KXJXNXxXgXxXaX9XnX9XxX9XjXaXxXlXxXxXNXfX1.X   X                 X                                                                                                                                                         X               X             O                           @.5 * e : p 8               g.x.C * # 6 M Y @                                                                                                                                             ",
"                                                                                                                                                                                                                                                    X                                                                                                                                                                                                     X   X X B nXKXVXVXxXxXxXfXlXlXNXbXvXxXxXxXcXxXxXlXvXvXMX8XV X X                 X                                         X                                                                                                                                                     X         O   X   T 6 & : i l *             Y g.# 3 o # * # #                                                                                                                                               ",
"                                                                                                                                                                                                                                                                                                                                                                                                                                                            X   >.JXKXNXmXnXgXxXfXaXxXxXxXxXvXbXbXbXbXcXvXvXvXvXxXMXNXg.                                                                                                                                                                                                                      O           2 c.5 ; X * N 6           2 oX8 # 3 2 6 * +                                                                                                                                                 ",
"                                                                                                                                                                                                                                                                                                                                                                                                                                                          X X 9.KXKXBXnXfX9X8X8X9XaXfXxXwXxXbXbXbXZXSXcXcXcXbXvXcXxXmXNX/..                                 X                                                           X                                                                                                                             O X B r.y : : 3 Z 3           k.Y # & * < 2 O                     .                                                                                             X                               ",
"                                                                                                                                                                                                                                                                                                                                                X                                                                                                         X 9.KXJXVXfXdX9X-XyX9X9X9X9X9XxXwXxXbXcXbXbXbXcXcXbXSXcXcXvXvXNX,X.                                                                                                                                                                                                   X                         t.q.y k y y N .         J c.5 2 & < 7 2                                                                                                                                                     ",
"                                                                                                                                                                                                                                                                                                                                                                                                                                                      X   W KXJXmXdX8X8X-X(..X8X9X9X9XxXxXvXxXSXcXbXbXbXbXbXbXbXbXbXbXvXvXNX|.    .                                                                                                                                                         X                                                             k.l : y 3 % 8           e.7 * $ . 2 p O     O   O X                                                                                                                                         ",
"                                                                                                                                                                                                                                                                                                                                                                                                                                                        7 JXKXmXdX8X.X.X(.(.-X.X-X9X9XaXwXcXcXwXcXbXSXSXSXSXbXbXSXSXSXbXMXMXFXD.      X                                       X                                                                                                                                               X                 O       M l.: 2 $ y e 3 .       W l * * . o 2 # X                 X                                                                                                                                   ",
"                                                                                                                                                                                                                                                                                                                                                                                                                                                    @ @ dXKXJXnX8X.X(.R.H.[.{.XX-X9X9X9XwXjXcXcXbXSXSXSXSXDXSXbXSXcXbXbXbXSXNXNXz X                                                                                                                                                                                     X                               c.e.i < = i y &       C @.5 * * # 5 : X   X                 +                                                                                                                                 ",
"                                                                                                                                                                                                                                                                                                                                                                                                                                            X     O X r.LXJXBXuX8XR.(.E.A.{.XXW.XX8X0X9X9XjXwXcXSXSXSXDXDXDXHXSXSXbXcXcXbXSXbXHXtX+                                                                                                                                                                                                             O     > (.b = e T H H < + . * @.2 * & y l l #           O + O . .   +                                                                                                                                 ",
"                                                                                                                                                                                                                                                                                                                                                                                                                                                  @ 2 BXJXBXaX+X(.R.A.A.E.E.-XW.W.;X0X9XwXlXwXbXSXSXSXGXDXHXHXDXSXbXbXbXbXSXHXNXFXR .                                                                                                                                                                                                         O   O O B s.* 6 < Z  .Z Z T i b a 3 $ 3 N G 8   + O   X X > b j.j.T @.p X                                                                                                                               ",
"                                                                                                                                                                                                                                                                                                                                                                                                                                              X O O 9.LXHXnX8XR.A.G.[.f.A.{.W.E.W.&X0X0XjXwXjXxXbXbXSXSXDXLXHXHXbXZXSXbXSXHXNXHXFXiX.                                                                                                                                                                                                     X         , +XH 6 < = = a y b U N $ & & = & y i O           p j.l.oX'.^.[.oXU                                                                                                                               ",
"                                                                                                                                                                                                                                                                                                                                                                                                                                                  O @XKXVXgX+Xl.f.z.R.f.2.E.E.C.W.-X-X9XwXaXjXjXcXSXbXbXbXHXLXHXSXSXDXbXbXSXDXHXDXNXG X                                                                                                                                                                       X         O O                     O   C +Xp y y * 9 < g e 6 9 & & = * = z =     . . . Z J. .b F ~.q.@.s.g.#                                                                                 X                                           ",
"                                                                                                                                                                                                                                                                                                                                                                                                                                                    dXKXnXdX(.l.s.2.A.i.2.h.E.3.C.Q.&X-X9X9XhXcXwXbXcXjXSXHXHXbXSXHXSXSXSXHXSXSXSXNX(.                                                                                                                                                                                              X             @ eX6.y z Z y 6 F  .F Z e < = 6 i H 3 y $ . $ N #.6.F b < H l.+. .T i.p     X                                                                                                                     X ",
"                                                                                                                                                                                                                                                                      X                                                                                                                                           X                             @ # BXVXgXrXR.g.i.i.W.f.,.A.W.n.C.W.-X&X9X0X9XaXwXjXwXcXSXLXHXSXSXSXSXwXbXSXSXbXbXbXaXo                                                                                                                                                                   X X                                 X   r.@Xp 3 i y a i Z Z { Z i i 6 = i F G F z N  .7.H Z e e < b T a.Y G R 5                                                                                                             X               ",
"                                                                                                                                                                                                                                                                                                                                                                                                                                                X B JXBXnX`.g.w.1.2.C.XX2.2.W.3.n.F.W.{.-X1X-X9X9XwXjXcXHXJXHXbXDXSXwXwXbXcXcXbXlXvXMXk                                                                                                                                                           X                                       X   , !.2XW a y = * i a a a a i b _ Z a F { H H =.=. .F y 6 & < & y 6.C G T V @                                                                                                                             ",
"                                                                                                                                                                                                                                                                                                                                                                                                                                            X   O k.KXBXdX(.l.y.l.i.C.&XH.p.F.C.C.M.F.&XQ.{.&X9X:XqX9XbXGXGXAXAXHXSXwXcXcXzXwXSXjXxXbXK X                                                                                                                                                                 @   X   .                     O @ C _.).V = < 3 = = 3 u N a y y g F H Z  .F Z H O. . .F < % 3 < , C s.G T N *                                                                                                                       X       ",
"                                                                                                                                                                                                                                                                                                                                                                                                              X                                   @XKXnXgX2Xs.d.H.p.p.F.W.].p.p.Q.p.p.U.Y.p.U.-XqX9XhXkXkXCXAXAXAXAXzXGXCXwXwXcXwXjXvX>.                                                            X                                                                                                   O 8 B 6.6.G 2 & .   . .   . . 3 W ~.s.T b < 6 e 6 % * % : : e w y i u i g F g Z F A F H a = * = < 2 s.L C U *     +                 O                                                                                                         ",
"                                                                                                                                                                                                                                                                                                                                                                                                                                              O   uXVXuXgX Xs.y.p.f.C.p.Z.9X&X2.F.M.u.I.Z.3.n.4XkX4X4XqXeXAXzXhXjXDXAXGXCX9X9X9X9XwXvX<.X                                                                                                                                                         X   2 k.Y b i./.D.L.y.+.6.+.G G 0.q.y.J.q.b 3 < . < y e * $ & & $ $ $ 3 i N u i a Z H _ H D u : = = # < I c.0.B # .                                                                                                                                 ",
"                                                                                                                                                                                                                                                                                                                                                                                                                                          X O   O dXlXg.+XtXd.@.@.O.2.2.X.W.6XF.M.u.P.>X*Xp.Z.:XqX*X*XjXkXzXzXhXwXCXAXSXwX9X9X%X9XaXNX2.                                                                                                                                                              8 ^.N a Z +.d.D.a.j.a.l.s.#.@.R a N b < * < * * = % : * . $ $ * : & = y y 9 e F _ F F k = 3 : * & + 6.z.W + O                             O                                                                                                     ",
"                                                                                                                                                                                                                                                                                                                                                                                                                                            X   O uX+XY ).tXD.y.O.{ O.2.C.n.&X7X=X8.F.4X&XI.P.*XkXhX4XhXhXhX5X>X9XwXcXSXGXwX9X9X-X9XvXf..   .                                                                                                                                                   O     > L # ; F H 7.a.=.7.@.@.6.F a e : = % % * & : * & * : : * . * $ * * & : 3 y a b n F i e = = $ * . * B N .   X                                                                                                                                   ",
"                                                                                                                                                                                                                                                                                                                                                                                                                                      X   X       gX+XY q.[.d.@.1.3.,.{ 3.F.n.}.zXhXT.eX4XF.&XkXzXhX:X=X5XzXCXzXkXwXcXSXDXwX%X%X-XhXjXW.L.s.$                                                                                                                                                           2 l 5 3 Z y F  .a.7.+.7.Z i a : % 3 3 : & $ $ $ o o * * ; * * . & . & % < a Z i y = e : = 3 ; $ * 6     O                                                                                                                                     ",
"                                                                                                                                                                                                                                                                                                                                                                                                                        O                         gX2XG @.(.s.o.1.p.2.=.=.u.3.n.hXGXeX7XiXm.*XzXAXkX5X$X%XzXGXDXGXDXCXwXwXwX9X%X:XjXjXqXMXAXH .                                                                                                               X                                         # 6 3 3 b y i Z U { H F a e t $ . 3 3 * & $ . * & . X o * * * o o = : % < e i 6 3 3 i = = a e .   . . + .   .                                                                                               X                                 ",
"                                                                                                                                                                                                                                                                                                                                                                                                                                            C ^.<.mX(.T i.2Xh.P D O.u.=.3.M.N.n.*XzX4XT.$X7.I.hXCXzXAX=X$X*X5XwXCXGXSXSXwX9X9XU.:XjXiXlXkX,Xp.. .                                                                                                                                             X             . * # * * 3 6 e i 9 e x z i < = = % % * : & o & . o . * ; o & & * * < * = = e = & i 1.#.P F a S #.T #.i.a                                                                                                                                 ",
"                                                                                                                                                                                                                                                                                                                                                                                                                                            _.oXr.mXK.B l.OX@.F S H H { H } Z.P.*X7XqXU.T.8.T.hXkXkXcX4Xv.N.3.X.4.$X-X9XzXwX9X%X-X9X&XwXjXF.d.$ .                                                                                                                                                             X X o * 3 3 * 3 y : k Z x k u : % # * = ; . $ . . & o ; * $ * & = & : = 3 y = 3 N o.o. .d.j. .@.6.d.XX/.6       .                                                                                                                       ",
"                X                                                                                                                                                                                                                                                                                                                                                                                                   X                     , x.C S (.K.T +XG.y : y z y e u D 3.C.T.qX7X&.X.P.=.P.iX=X7XT.v._ c s ~ Q f 3.9XwX9X-X-X&XT.7X4X6XF.= .                                                                                                                                                                     o & * = * * 9 : e p z e ; * = ; ; ; . . X . . & . $ . . * * * = * * i i a Z a i { o.i 9 a a.d.OXJ..                                                                                                                             ",
"                                                                                                                                                                                                                                                                                                                                                                                                                                      .   6 j.p * 0.l.l.eXI 5 3 * : e : e D O.X.=.Y.p.) ..v.A ^ T.7XU.Q.F.c = = w k s c W.jXwX9X*X4X*X4X*X;Xu.&                                                                                                                                               O                       X * 5 ; & * e 3 : ; : y : : ; & * & o . & . * ; & & & . * * : ; # & i y i N y a N i $ * 9 l.F. X}.,                                                                                                                             ",
"                                                                                                                                                                                                                                                                                              X                                                                                                                                           # G b M T x.pXtX7 . +   X o * % e H H _ =.{ _ }.hXT.7.=.T.N.u. .Z e w w k k D ,.:X9X&X>XhXqX7XS.Z.H . .                                                                                                                                                                         2 4 ; * * * : = : : : = : * * ; & & o $ * ; * * * & * * 2 : * , < * * e = % . # 6 % U j.~.eX X,                                                                                                                             ",
"                                                                                                                                                                                                                                                                                                                                                                                                X                                         O b 6 < 6.j.pXE.2           . * & 3 a Z Z n _ ;XzXzX7._ _ n Z i 3 : $ & w w x ~ A.-X-X>XiX7X:X3.C.w .                                                                                                                                                                           X @ : * : * & % & - & * ; * : : & o o $ ; * * : * * o * o * * # & & * : : . $ & . = l.Y.6.[.l.@                                               X                                                                             ",
"                                                                                                                                                                                                                                                                                                                                                                                            X                                               6 < 6 s.3XdXW # +     X + X X . $ * $ = i F Y.3XkXeXH A 9 e = = * & & : : = ) C.6XwXhX7X>X{.H.p.= . .                                                                                                                                                                             # 5 5 * o * ; - & * & * * & & . o ; * * * ; * o * & . X o # # * * ; * .   X   5 y.a.6.d.6.#   O                                                                                                                         ",
"        X                                                                                                                                                                                                                                                                                                                                                                                                                   X         O     5 T 6.q.dXdXY @       + X     .   . . * i  .J.iXeXMXeX7.Z % : y : & : w x x O.6XhXhXMXhX6XiXF.Z $ +                                                                                     X                                         X                                                 ; 5 : * * : ; ; & : * 4 & & & o : * = : ; & o : : # o & # # # o         X   Y J.E +.r.F                                                                                                                               ",
"                                                                                                                                                                                                                                                                                                                                                                                                                      X                     @ W 0.J.mXuXW 5 . . +     + X   . & = $ < d.J.eXAXMXpX|.7.i : k k y y k o.{ E.vXbXvXzXlX6X7Xy.= . .                                                 X                                                                                           X     O                           X X C <.: * - : & & : * ; & & o & * * = * & * * ; ; & # : * o X         X   X Y @.6. X~.y   O                                                                                   .                                   X   ",
"                                X                                                                                                                                                                             X                                                                                                                                                                                                             X               @ b T l.mXyX`.C , +         X O . . # < U a.7.Y.mXGXeXa.D.F i i n b i n D X.1XZXGXvXjXiX4XL.a .           X                   X                                                     X                                                                                               @ `.R.l ; y : - : & o o * & $ & ; = = : : : # o # + # * #             X   ; 8 Y e.OX@.@               X                                                                                                               ",
"    X                                                                                                                                                                                                                                                                                                                                                                                                                                 X       > W x.VXuX@XE , . + O O O # + < 6 < b 7.+.b b Y.NXhX7.M.,XJ.7.b n Z n F D.0XMXDXlX0X1X7Xd.& $ X       X         # # X O                                                                                                                                                           p yXG 5 ; 3 3 * & . ; * * * : ; : . ; e e ; 2 * . # ; #                 2 8 M l.l.Y # X                                                                                                           X                   ",
"                                                                                                                                                                                                                                                                                                                                                                                    O                                     X   X X           X 2 U x.mXsX_.U 2 & & +   & * 6 B b y N E b % % Z ,XhXF.J.eXeX,X}.V.+.7.d.].hXMXDXzXqX;XhXC.& :   X O X   X O 1 - M 7 @ >     O # O X                               X                                                                                                   X   X X # # ).(.B 4 3 5 : ; & # * & . * : * ; = * = < + & + o * 4                 X 2 7 r._.B @ +                                                                                                                                 ",
"                                                                                                                                                                                                X                                                                                                                                                                                             X               X X                       X   X 2 b uXgXoXx.E M 8 3 * 2 2 b a Z N T 6.F % , $ e +.xXlXJ.*X*X,XeXeX*X'.u.*XvXjXzXMXkX&X,XW.= * o   O     O v 7 4 j 2 2 - X O 2 2 X X   X               X                                                                                                                   X O O !.rXB l l ; 5 ; X . * ; # * ; 3 : : * * ; & 2 & & # # X               X @ 7 Y T 8 X X X       O                                                                                                                         ",
"                                                                                                                                                                                                                                                                                                                                                                                              X X               X         X           X   X X 5 E gXnXoXj.U N M N S p 8 b 6 b F a.j.i + $ $ % a ,XAXY.Y.eX}.eXeX;X>X].7XAXlXkXGXzX&XQ.9XP p 8 # 7 4 # 7 M 7 B V M > # 4 2 4 1   O 2 # O X                                                                                                                               # @ L uXr.l 5 ; o * 2 o o & : * 2 8 2 : < * + 2 # , * 2 -               X     2 5.I # O   O                                                                                                                                   ",
"                                                                                                                                                                                                                                                                                                                                                                        X                                 X                             X   . @ j.BXsX6.+.T a.+.S G 5 2 6 G U b U +.i . $ < = < 7.eXY.J.AXeXJ.F...].6X4XAXkXhXAXkX&X:XhXy.u B M B v 2 7 8 M Y Y v > - v 4 - 1 # - 7 4 - o                     X                                                                                                       X O l dXc.Y 4 5 o o 2 # + + # o & & * * # # < * * < # X X                   X # v M @                                                                                                                             X             ",
"                                                                                                                                                                                                                                                                                                                                                                                    X                                                       O * x.mX X+.U  .j.6.F N y : 6 F F N F T N e % < < i 6.}.8.M.eXeX7.7._ ..P.&X7X7X5XeX*Xn.&X&XD 5 l V j 2 j B B C L B - ; - 2 l 5 5 ; ; ; ; ; 4 & X X X X                                                                                                                 O O - ).(.Y B l 7 @ # 8 o o . o # o o * 2 o @ 2 * * , O                   X   2 v > O   X                                                                                                                                         ",
"  X                                                                                                                                                                                                     X                                                                                                                                       X                 O X                                     O   X X             X       X . o # 2 U OXD.6.Z T +.N = 3 3 # , 6 F  .6.H o.b i i i 7.8.8.'.7.$XP.8.n g X.) ) m.I.#XS.v.3.3.D.O.z l B 8 8 M J J R N M C R e.^.R.c.z.<.W L L M 4 j ; j # + .   X X                                                                                         X             #   1 +X_.W L M M , * 2 2 o + o o X # o # # ; # < o +           X     O     @ @ 6 1                       X     X                                                           X                                             X         ",
"                                                                                                                                                X                                                                                                                                                                                                                             X                           X                 @ @       X   # # > 6 s.K.@.H +.F 3 % & % . * e i F U Z H Z F #.6.M.n.U.N.=.-.m.&X/ % t c x c n.S.3.N.) D 1.i.O.P V L V p V K L Y w.(._.R.G.g.g.g.1.c.|.OXR.z.C 4 5 5 ; ; X O O X - # @ X                                                                                     X     # O 7 _.@XW J 5 N 2 # # 8 # o X o # o o # # # 2 2 @         X       X       O @ # O X                                                                                                                                                 ",
"                                                                                                                                                            X                                                                                                                                                     X                                           X                                           O     X   X   O X m Y 8 @ - O - > # 7 b G q.S H o.z = % 6 e * 6 a i # i +.+.Z  .a._ 7.].=.u.M.iXM.].X.= % % u t ' ) ) ` ) } Q.[.D./.s.,.L P R L 1.s.z.l.l.W o.R <.i.z.J.G.E.|._.|.R.>.l * * ; - O 4 m 2 2 >                                                                                     X   X # E yX/.<.G 2 B M * # 2 4 o . # * o * o # ; - # X                           X X                           O                                                                                                                           ",
"                                                                                                                                  O                                                                                                                                                                                                                         X         X             X                 X   X X       O     X 1 m 7 B M 7 1 7 8 j 6 N o.T p a i * * a N 3 % e e < i { +.Z F  ...F.eXZ.X.U.hXQ.Z.u.A z e t u c g s A _ v.'.;XW.'.H.E.l.w.@.R i.i.i.1.o.P @.q.s.K.G.J.k.J.d.2.z.c.(.g.G 8 3 4 8 j m 8 @ 2 # O O                                                                             X o l j 0.mXrXY C M l L 5 ; o 5 : o X # : o X o @ 2 2 X         .                 O                                                                                                                                                     X     ",
"                                                                                                                                                                  X                 X                                                                                                                           X                                                       X               X                       O X # 4 j 7 B 7 8 C B 7 8 B I Y U 6.q.T S S y 3 = z N i Z H +.b e b { F +.u. .d.*XF.=.n.:XS.Z.F.F.p.e = = x { } ].P.'.].;X3X'.[.XX+XXXH.w.o.,.i.1.<.i.1.q./.XX|.<XOXL.J.G.f.1.i.w.G.t.p j 4 j 7 2 7 M > X                                                 X                             X B B <.yXrX<.M a 7 R M * & 5 4 . . o o o * o o 1 2 #                                             O                                                                                                                                           ",
"        X                                                                                                                                                                                                                                                                                                                                           X                                                         X X @ j B B J J B v B e.9.E Y C G E l.a.G a.T 6 y y N N N T _ +.T Z H F Z H +. .+.}.'.U.1X].F.2.C.2.y.w * u c =.C.&XQ.Q.;X{.W.{.[.{.XX8X1XW.f.w.i.i.1.d.h.l.[.'.3XaXiX XJ.q.i.q.R R q.z.g.Y l B M v 7 * +                                                                       O @ 1 # 2 Y L k.gXdX6.2 2 , S S 2 * 3 l - . X # o # . o o 2 #                                                                                                                                                                                           ",
"                                                                                                                                                                                                                                                                                                                                                                                  O             X             X @ # 4 7 J B M B t.oX).W Y Y I 0.j.6.Y G eXj.6 i 6 p i F 6.i Z H Z +.Z e < F +.X.a.7.M.,XC.D H 2.a D * $ : 2.U.F.U.:X1X;XW.{.;X0X0XXX{.XXXXA.h.1.1.p.a.C.C.J.|.eX<XXX'.'.E.l.E.p.@.<.<.w.w.1.L j M 7   X X                                                         X   X         O 2 8 W Y r._.aXk.M 6 O v W M + # y k X o & o ; * o # ; 2           X                                                     X                                                                                                                           ",
"                                                                                                                                                              O                                                                                                                                                                         X       X           O               X   X X       O @ @ 2 @ > X     @ 1 7 M 7 Y W Y J oXBX|.W I B e.l.z.Y G S B @X/.i y 3 < y Z T b U b y b y % = < a i F b n +.H e S S N S & = : u.U.U.W.*X*X6X6X;X;XiX9X<X0X-XXX-XXXA.a.H.h.J.a.J. XaXiX3X<X3XtX<XD.g.@.T T K R i.q.C M 2 O O                                                                 O O O 2 8 j C >.L R.R.w.V 2 O 5 U B , # * 6 * $ o ; o # o o * j #                       X             O   X                                                                                                                               X                   ",
"                                                                                                                                                  O                           X                                                                                                                         X                                                       X                 X   X @ 2 - X @ ; 7 > @ X # 7 B m m M Y t.nXsX!.I I C W r.e.U b i G U eX+XS 3 e y y b e e H N < Z V y 3 a b i Z & y p G i 8 %  .o.: = x 2.U.6XP.Q.}.6XqX1X-X0X9X0X0X;X{.-X1XE.C.h.L.J.D.[.[.3X3XpXtX,X|.[.z.G.H.<.<.R T w.e.q.C 2 >                                                                   X # 7 C Y r.).R.@XR.z z 3 & * B U , # , 8 2 . . o o o o o * 5 ; X                                                               X   O                                                                                     X                                   ",
"                                                                                                                                                                                                                                                                                                                                                    X       X               X     O X   @ 4 1 @ , X > # O # @ 7 1 v j e.!.dXnXoXk.0.Y r.0.C b p p p N B eX!.U Z i G : l 3 < y 2 * z R : 2 V D : 6 N : G @.: :   o.#.e x A n.&XhX%X4.>XwX:X:XW.Q.Q.{.-X0X;XW.[.W.R.H.[.1X.XH.R. X<XlXgXeXOX[.|.g.s.1.<.1.R K <.<.<.C j X X                                                     X O   X 1 @ v M I 0.8XuX+X.XR l 4 o 5 p M 2 , # * 4 & X X - o - o # ; 5 O O                                                                                                                                                                                             ",
"                                                                                                                                                                                                                                                                                                              X                                                                 X X   @   @ 1 @ @ > > 2 1 1 1 1 7 9.@Xc.`.@Xt.r.c.6.W <.C p M b M z N 3 J.J.H r.M S * l 2 = l * * 2 N l : z V p o.l * T L . #   T #.H p.{ 3.T.hX%X4.4.:X>XqX9X:X1X{.-XH.Q.W.W.H.W.<X0XaX[./.2X8XOX XJ.6.e.a.q.R G L L R >.1.L T >.C B j -                                   O                 X O @ @ m B W J c.tXrXK.l.@.N : o 3 M 7 5 , @ * 2 ; o X X X - o o o 5 # X O                                                                                                                                         X                                                   ",
"                                                                                                                                              X                                                                                                                                               X                                     O       X                                 O - O @ @ 4 1 j j B 6 > 7 1 4 7 Y t.`.t.I e.!.e.k.W C C b p 8 6 y N V p y r.r.H l.U a 2 V 3 * l ; . * 5 5 o ; 5 3 R 3 . 5 S 3 * $ a.+. .C.$.u.T.7X4.,.3.4.%X7XwX6X0X{.E.Z.Y.W.[.H.E.0XpXtX[.XXaXlXpX'.a.T T @.0.P V V S z V Y R >.R >.C j 2 X                                               X X X # 7 B B I 9.uXsXrXr.@.r.p 5 : l N 3 * * 2 , 2 2 # o X - - X X o 2 5     X                                                                                                                                                                                             ",
"                                                                                                                                                                                                                                                                                                                                                                                  # X j v 1 j B Y I C B M B J Y C I B 9.@X^.k.J 8 B 4 M M 8 i C N a 6 8 a.a.+.6.Z a : Y 8 # C o o # : ; . * 5 * y #   : F 6 & e L.X._ v.v.T.4X>X4.) 3.4.n.%X&X&XQ.-X&XH.C.H.W.{.9XfXtXXXl.L./.<X}.~.~.j.q.q.P G L R z V l z z Y K 0.w.J L Y 8                                           X   O X X m m B 0.oXuXx.e.e.W p 5 2 5 C p * * 6 2 3 2 o o X o - o o X o 4 ;                                                                                                                                                                                                   ",
"                                                                                                    X                                                                                                                                                                                                                           X                                             X 1 O j Y J >.9.>.E e.Y B M B M v > 7 I ).@Xt.B B B 8 8 8 6 8 l N b e 2 < q./.T  .b Z y Y C < 5.8 - j 5 4 ; p y - 2 2 . 2 b $ % Z F.X.C.N.Z.wX7X*X%X,.] 4.4.4.Z.U.W.&X-XQ.W.Q.E.1XlXlXlX XJ./.~.Y.iXiXpX*XR.E.q.R R ,.<.z l j l l M J <.R Y W T 2                                           O O @ 7 I B t.uX_.k.>.0.E 8 5 : l J 2 * * 2 3 ; 5 2 o X o o o o - o - 5 X     X                                                                                                                                                                                             ",
"                                                                                                                                                                                                                                                                                                  O                   X     X               X     X         O         X   X O @ O 2 j E >.>.<.R I E J j 8 M M M v E ^.t.E m B Y M 8 b 5 6 M a p y < < 6 U l.H Z F T < G F 7 0.E 2 L z 2 : k l .   * 2 < G i a D.F.$.%XV.I.7X=X:.#X4.~ } } 3.Z.4.Z.C.W.W.W.H.L.0X3XlXtXL.~. XK.<XpXeXpXfX2Xs.p.q.@.R P V V V C z 8 j V W W Y r.k.Y M 2                             O O     O X 7 I Y oXrX^.0.<.t.9.8 p 8 l S l # * ; 3 : : : o o o - & & : o ; z 4   X                                       X                                                                                                                                                         ",
"                                                                                                                                X                                                                                                                                                                     X                                                       X             X X o >.).c.e.Y >.0.>.Y B M 8 4 7 M I t.e.B m B B v p M 8 7 5 a l 4 6 = , 2 6 H U Z b +.b Z U & @.E 4 R z ; - l z ; & 3 & e L. .{ 4Xm.&.T.V.*XT.m.b.S.4.) ) ~ ) 2.4.Z.3.A.A.2.n.L.1X1X0XXXJ.a.l.Y. XeX*XeXMXjX[.p.H.f.1.o.S k z K B M M G <.l.e.q.e.w.s.K.e.Y - X X   X                   O     @ 7 j _.aXk.L T @.0.B 8 < 8 G B : * * 3 5 3 5 ; $ o - - o - o o : B @                                                                                                                                                                                                     ",
"                                                                                                                                                                                                                                                                                O                                             X                                 X       X X   m +XrX^.e.>.B J Y Y B J B j 7 8 I E B m I I v v B B y 6 p y 8 : ; 6 . . & . , Z 6.Z o.F b U & Y C X V B 5 5 : l ; 5 T N U J.=.=.*Xu.v.$X4X4Xb.$.m.4.) f f ~ } ~ ,.3.3.3.,.O.2.n.{.;XiX&X'.}.3XpXeXeXiXiXlXpX<XE.D.h.p.i.<.R L K B B G N Y @.w.s.@.R 1.x.k.c.c.c.G # X   O   O   O           X @ X W rXt.J T B M M 2 2 5 l l p : * 3 6 6 5 ; - X & & & - & o - B 5                                                                                                                                                                                 X                     ",
"                                                                                                                                                                                                                                                                                                                                                                  O   O @ 2 x.gXrX^.E B Y M l B B B C M 5 5 l C v 1 8 B v l B C l 2 4 8 5 2 ; 4 * + O   O * 6 Z U U b e b y U Z # M @.l o.N G l a.P N #.p.H 3.S.m.=X=XkX=X%.%.' N.3.s r f c ) ) ) D D }  .2.a.;X;X,X}.1X1X1X,X}. XhXnXhXiX'.p.u.i.@.y.i.o.0.o.M p l a 5 B B @.@.W @.l.q.q.q.R.c.w.>.5 # X X         X   X   O j +X).E W Y 6 8 2 # 5 6 p N * 3 3 4 : 4 : ; X o ; - - : - # 2 B -                                                                                                                                                                                                       ",
"                                                                                                X                                                                                                                                                                                                                                                                 O O O > oXBXx.9.0.Y Y Y C L V B l M M M B C 5 7 7 7 M 8 B M M 5 * 2 2 ; 2 4 2 @ + X X   + . , < Z U b F e b 6.. y G N @.V z p a.F i _ A =.P.m.&XzX5X5Xb.] ` ;.4.[ c q t k r k x u u H _ =.E.&X}.Y.F.'.F.d.a.7.7.~.}.~.d.J.f. .#.d.1.6. .T G S V V C S Y N R w.s.y.q.K.R.z.D.z.g.g.c.w.B -                 O oX).B N B 2 , @ 2 5 # * b 3 * * 3 : : 4 * o * & = : 3 : - 4 V 2 X                                                                                                                                                                 X                                     ",
"                                                                                                                                                                                                                                                                  X                                                                                     O     # , , 7 O ^.rXr.W Y C I G J W Y V z V N l M C M 4 7 v v M B 8 p 7 6 3 2 2 ; 2 4 ; @ + + X   .   . + < T F U b e H * = : y N y : =  .o.Z A A m.4.%XeXkX7X#X:.%.%.%.I.*.f f s w w t t u i u u O.W.[.;XU.C.n.u.d.u.X._ 6.+.n H X.H F S H T +.o.G M V T C S Y T L o.R o.6.q.[.2X~.l.q.1.<.g.<.t.r.L -   O   X @ @ e.`.v # 2 ; # # o * * * 6 b : ; : : 4 y 4 & * * o ; : 5 : - 5 M o                                                                                                                                                                                                         ",
"                                                                                                                                                                                                                                                                                                                                                            # 2 , , 6 `.rXE W B I C I B B T Y L L S N l 8 p 5 2 7 v v v p 8 5 2 2 5 2 ; * 2 ; o   X + O       * . , b b Z 6.b U 3 3 y : 3 = y y g u g =.7.v.4.qX=X5X$X;.B.;.:.] 4.*.~ c ~ x c x ) Z x a x #.C.Y.'.L.d.M.M.W.W.J.~.}.a.7.+. ._ Z Z N Z Z N V N l V a 2 b V L L 1.q.l.l.L.'.E.G.s.l.z.R.r.z.g.z.e.C O     > t._.I 2 O o   O O # # # 6 V i ; * ; ; : 4 : : : * * ; : 4 & : 5 @   X                                                                                                                                         X                                                             ",
"                                                                        X                                                                                                                                                                                                                                                                             X     7 B 7 > E rXE W I x.t.W Y C T R L S V T L z M p 5 3 2 5 5 8 7 2 2 2 2 2 * # o o o X X   X X     * * O $ < , i E F T a = 3 = & $ e e u w t -.4.S.5X4X5X%X4.%.b.%.;.%.4.b.b.%.' c ..v.F.N.2.A H =.L.Y.F.7.X.O.=.#.7.y.7.D.D.M.D.J.y.H Z  .P S a G l p p 5 5 y V z V h.(.|.'.,X<X[..X{.E.l.h.E.R.i.q.0.g.W M 8 c._.7 1 O   + X   + + @ o 4 z 4 * ; : 5 3 : - - ; ; * 5 p : : l 2 X X                                                                                                                                                                                                       X ",
"                                                                                      X                                                                                                                                                                                                                                                                   O j I 7 I uX5.5.x.!.t.0.Y B U G L R >.<.R R L S 8 3 4 6 5 2 2 : 4 4 # # # 2 # ; o X X     X     # * # , $ $ < e b Z 6.F = e = = 9 u x A g c [ 4.wX5X5X=X%.%.b.%.] :.m.S.b.I.4.4.S.P.N.3.M.u.H _ F.H.n.F.#.} =. . .F F n  .+.#.=.d.+.@.1.G T T H S C N p y p l N R q.h.h.'.OX[. X3XOXOX2XE.E.E.J.d.s.l.i.w.w.e.e.M > 1 @ X o       # O 5 Y k - ; : 5 5 4 & & : * ; e p 5 2 ; 4 # X                                                                                                                                                                                                 X         ",
"                                                                                                                                                                                                                                                                          X                                           X                               X # 4 I v 7 t.!.5.t.`.!.E C M L V C L P <.1.o.R S N p 8 p p 2 : 2 : : ; o # * * @ - o           X # + . * < , . * b e b F  .g Z e 9 u u u ~ h ~ ' $X5X*XQ.-.h [ 4.4.| 4.$X#XB.4.4.B.Q.*XT.U.N._ A _ L.F.u.+.n F F Z i i 6 b N T 7.=.6.{ F G F N G S M C a 5 y 4 l l @.h.G.E.[.,X|.XX2X<X[.[.H.D.h.a.1.q.d.h.W R R E C 4 8 2         * # 3 V V : & ; : 4 : ; : * ; % ; l p 3 * 7 5 2 @     X                                                                                                                                                                                                     ",
"                                                                                                              X                                                                                                                                                                                               O                               X O         v E v 5.).e.x.).I I m B L B G L V V Y Y R R L L N p p i 8 3 * 2 ; ; o # # @ @ o X o     X X - , * * , , + . + i y < i  ._ X.A u f g s c %.;.*X=XwX%X~ s f ~ 4.4.;.%.B.V.S.$Xm.B.T.T.F.u.=.X.H F.H.Y.a.Z b 3 3 e g N i e i i H Z Z F Z S a z a 8 p 5 2 p b V z V L L q.o.o.#.i.l.L.E./.[.[.E.h.G.D.l.y.w.i.q.R 0.W B 4 ; X o X * X 7 Y G ; - - : ; ; ; 4 : & ; - : p 5 2 5 p # > 2 X                                                                                                                                                                     X                                   ",
"                                                                                                                                                                                                                                                                                                                                                      - 1 B Y B t.^.t.t.I m v v 8 M M C V B V L L V V K J L V l B y l p 6 2 * # o - @ * 2 X X     O + # * o = + , . O & < e < i D H O.&.) } $.` U.*X%XkX7X7X$.0 0 9 $.m.*.~ ] [ ;.%.8.| ^ ^ 7.[ n Z n u.Y.}.K.b 3 = = 6 = y y 3 e a N i y y V D T G z N p 3 3 3 6 S C b y y Z T T Z F S _ P  .#.s.p.d.d.J.'./.l.h.l.<.T L C l o X X X o o 4 B R 4 & o ; : ; * : 5 5 * : * : 5 5 p 6 2 @ O # O                                                                                                                                                                                             X           ",
"                                                                                                                                                                                                                                                                                                                                                  X @ - 1 C 9.e.x.5.5.5.B v b v 8 M B B B V V V z B z J V V l p i N M l p = * ; ; o # * X X X + X + o # o & , # .   = $ a i 9 i F n D _ ) &.&.-.&X5X=X5X=X4.r 0 % s } [ 4.] [ :.^ ^ ^ d d ^ g g n g A +.a.}.a.= $ $ . & * 3 = = : 3 p y a G H G G S l N 5 ; : : 8 i p 6 a H y.L.D.s.j.l.L.d.h.L.l.y.0.T T 7.s.s.y.i.@.1.R l j & o   O 4 j 2 8 8 o . ; o ; ; ; 4 : 5 : o ; 3 p 5 p 7 # 6 2 @                                                                                                                                                                                                           ",
"                                                                                                                                                                                                                                                                                                              X                                   O O O O v E x.x.5.E C B B v 6 8 M V l B B V V l V V V l 3 2 : 6 p M p 8 6 * ; # o X     X @ #   X # # * 2 < * . $ $ * a e = < i _ x _ c c c ` m.%X4.S.T.' % 0 0 f } s ~ %.[ :.^ ^ ` ^ r ' 7.r n n n u.F.D.F = % i 5 i a i a z a N S z z G D l y y 3 l 5 : : 5 6 y , p U T q.6.@.7.s.D.D.D.l.J.J.l.l.q.@. .+. .F T T R L z 4 2 o o # 2 4 - 8 - X o - X X ; ; 4 2 - ; o * y p 5 7 @ O 2 @                                                                                                                                                                                                             ",
"                                                                X                                                                                                                                                                                                                                                                                 4 7 # 7 v I e.E I b 7 7 m v v 7 j j 8 l l j j l l B j 5 * 3 2 * 2 3 p p 6 6 : # # X         X X X X # 3 5 , * , , = e b < = = = n x A u u c A ~ *.4.S.3.0 0 % 9 } 4.f ~ -.d Q ] 8.8.%.I.S.8.=._ _ 7.J.M.D. . .T o.S a 5 % : y p y p e 3 3 y : 6 3 p 3 5 : ; 3 6 3 6 a G Z F T F R 0.s.y.#.1.0.q.p.s.y.s.d.s.@.@.H G S z 5 p - - o # #   # X X ; * ; * . ; ; ; o : * o ; 3 3 5 8 # O   O                                                                                                                                                                                                             ",
"                                                                                                                                                                                                                                                                                                                                                  # # , 7 v E E I E v 6 8 7 5 7 2 8 j 8 l 7 4 j l l j V l : * 2 * : 2 8 8 p l 5 : + X         . # o + ; 6 2 * & < < $ i Z < < = = w i w 9 9 9 t t s c _ ) % % t X.-.3.~ ~ n.| q ^ %.;.%.$XT.7.8.h _ Y.F.T.7.7.6.b < = * * % * : = * : ; : : p 4 y V B ; : * # * # 7 6 5 6 6 i N G G S H U +.#.E 1.q.#.o.#.1.@. . .T T G l a 5 : o # - # @ . X o ; ; o X o * o o ; * # * 3 3 y 7 *                                                                                                                                                                                               X                     ",
"                                                                                                                                                                                                                                                                                                                                              X # O O # 7 5.!.6.t.M v 2 2 7 7 > 2 7 2 2 4 2 4 5 4 j V L V 5 5 5 p 5 5 2 3 p l l 5 o X   +     X @ # : 4 3 # + * < , = N b e < % % e i < % 9 9 % % 9 9 c _ % = Z u.A &.c q ~ v.q ^ I.$X8.7.8.^ f n *.F.}.].H F F Z F #.y.G a 3 3 p : 5 3 l e 5 z K V j # # # 2 # * 2 ; 2 3 < 3 3 y y y 5 y N G T F P G G S N G N N Z S z l p 3 ; # # #   @ + X # ; # # X & o * * : + & 2 p 5 7 ; @ X X                                                                                                                                                                                                                 ",
"                                                                                                                                                                                                                                                                                                                                              - > 2 7 2 6 t.x.t.5.v 6 7 6 8 2 7 7 1 # # ; ; 4 4 5 l C V z l 5 N B 7 5 2 2 3 k 5 y 5 #         .   * : 6 < # # * , * , b < i . % = w a 9 & = = $ $ % % x _ % % g A g ' ~ r 0 $.4.^ 8.$XI.$X| d f h m.Q.T._ A n a.J.L.,X<X'.d.J.y.z N 5 y e 5 l R >.l 4 ; # * , O # * , * * 5 * < < * ; : : 3 6 z z p l N M z N z a N S p 5 3 : # o ; # o X X o ; 2 o o # o # ; * o & o 3 5 2 2 X @                                                                                                                                                                                                                     ",
"                                                                                                                                                                                                                                                                                      X                                                           O + , Y x.e.I M 7 7 M 7 2 7 7 2 # @ ; 2 # 3 l 5 j j L V V V B M M M 2 ; : - 4 6 y 5 * o X o   + 2 * 2 . + + * < = a e < e $ $ = e b 9 % $ % $ % $ : ) D % & % e A X.t 0 0 f %X8.[ %.8.V.| h ^ P.4X>X*.n $.M.}.}.}.XX XG.E.XXd.#.@.R z S P R L l 4 j 2 * , # @ + O # # + # + & 2 * ; o # o & * * ; : * : 5 3 3 5 y p 5 * * * * # o ; - # X o ; - X o ; 2 ; ; . # . : 2 2 3 o                                                                                                                                                                                                                         ",
"                                                                                                                                                                                                                                                                                                                                              - # 8 2 v r.!.Y 7 7 7 7 7 7 7 7 > - # # - - 5 7 8 4 7 j V z C J V B l j - - - - : 2 p 5 5 ; X   X . # : o + & & : < < b 6 9 a $ $ = % i 3 $ = $ $ $ & % _ g $ $ % % A _ % 9 r r *.=X[ h | %.[ ] 8.=XeXI.' ..I.*XU.Y.}.eX,XW.p.#.+.G o.T N P <.o.l l j 4 o - X X @ @ # @ # @ # # # # * * # # o   o o o * * * 2 3 : * ; # # ; * * o o ; - & o o o # - - X - 2 o X o # 2 2 3 4 ;                                                                                                                                                                                                                           ",
"                                                                                                                                                                                                                                                                                                                                              1 7 2 7 7 e.e.7 2 2 2 # 7 7 > O > # o # 2 4 7 2 2 ; 7 j 5 l C B z j j 5 2 - & - ; * 3 5 p 5 ; o X X . . o * + * * $ b y < 3 i % & * & : e $ % $ . $ $ = H i $ % % 9 A &.9 % 9 t 0 V.$X[ 8.I.8.=X=X*X*Xn.-.U.N.F.].}.D.a.7.d.a.+.Z  .#. .T T L V l l # X X   # X   O O o   + O + # + O X O X # * * * & * X X o o # - o # ; # o o * 4 ; - - - o o - X - # o X o X - * 2 * 2 ;                                                                                                                                                                                                                             ",
"                                                                                                                                                                                                                                                                                            X                                                 1 7 # 2 6 W C 2 2 7 > 2 7 1 # @ 2 7 # - 5 5 ; # 2 - 5 l 5 l V L z j l 5 - - ; ; - ; 2 5 5 j 4 ; o . o . . & # # . , b < % = e * . * $ = a = = & $ . % = H e $ % % w n _ 9 % i t 0 ^ 4X=X8.8.5XkXeX7X*XI.>X*XI.&XiX*XM.7.J.iX{.#.p.@.H V o.L L p # -   X X   O X @ X X O + X   X o @ X O X X X X o ; # . X . X X o X o o @ 2 2 2 M L 5 # # - o X o o ; ; - X # # ; 2 * # 2 #                                                                                                                                                                                                                             ",
"                                                                                                                                                                                                                                                                                                                                              @   > 7 0.e.j 2 2 7 2 7 v > @ # 7 2 > 2 2 ; 2 ; ; 5 l 5 5 j z V l l 2 2 - - 4 ; - o * # 2 ; 5 l 5 * o . * * * o o 6 < . & & p 3 . & % = Z a $ & & $ . $ Z a $ % < +.A $.n 0 0 i 0 ^ V.5X$X=X=X=XeX>XS.N.*XT.Z.T.;XW.J.J.J.'.l.d.y.G Z P o.R G X         X O X X     X O o O X   X   @ O     X . X X . o   @ o o # : # # # 2 ; * 8 5 ; - # - & - - - - o o # - ; - O 2 2 @ O   O                                                                                                                                                                                                                         ",
"                                                                                                                                                                                                                                                                                                                                              @ > + 7 k.W 6 2 2 # @ 6 , @ @ 2 2 @ @ # @ - # # 2 8 8 5 5 8 j j 5 4 ; 4 - 4 4 - o O # - o ; 4 k l y : o * % # & : l & o . o y : . . $ = b a % . $ * . $ F n . % i 7.' +.7.r 9 9 0 ^ %.=X7X7X$X=X7X*XT.Z.S.U.Q.].*X,XjX6X[.L.6.H H F #.0.S B o       X       # - # X O O X X O @ X # @ @ + X + + o o X o X + X X # 4 2 ; - # O # @ ; o - - X o - o # # o # 2 - O - # @ # O                                                                                                                                                                                                                               ",
"                                                                                                                                                                                                                                                                                                                                              2 7 > Y c.C 8 * 2 > , # @ > 7 7 X O > # @ # # ; 7 7 5 ; 5 5 l l 5 j 2 - 5 5 - - X # @ - ; o ; ; j z M p : 3 * ; l 3 . & . . * = . . . < e i $ . . $ . $ F b % < n  .n n v.A 0 0 q | m.I.=X=XV.V.N.b.I.b.7.4.Q.Y.U.}.3XW.#.+.H  .y.6.s.@.T 3 X O               O O O 2 # # # O   X @ O o @   X + X   X + , # @ # # o # * # @ * * @ o # o - - X X - ; # * ; @ # 2 # X             X                                                                                                                                                                                                                       ",
"                                                                                                                                                                                                                                                                                                                                              2 8 8 t.0.8 > 2 7 # > X X , v , @ O , # # X ; 2 2 5 4 ; 4 8 l 5 : ; - 4 j - o o - @ o # # o - ; : 5 S S l y * : 5 &   * . . $ i * * * i e e i . $ $ . * b e $ n 7...n r | b.' ^ [ V.5XI.$X$XB.:.' v.T.N.N.Z.{.}.:X].C.#.F H 2.d.G.s.o.R B X   X                     O @ - 1 # # 1 * # @ # @ @ @ o @ # # O @ > # # @ > 2 > o * ; X # # - ; X X - - # # # # # 2 > X O   X                                                                                                                                                                                                                                 ",
"                                                                                                                                                                                                                                                                                                                                            O > 6 5.).E 7 2 , + 2 @   # 2 2 O X O # # @ # 2 # 4 5 ; ; 4 5 l 4 ; - - - 4 - X - - # ; o o # - & : 5 N S D N a N : * . . . . . N < $ y i a = Z = % .   % b , . i 6.^ ..h ` P.:.8.I.V.$XV.$X=X-.) h ` -.N.F.Z.p.M.C.O.X.O.+.y.H./.h.o.#.R *   X           X                   O O # @ @ @ o @ # # @ # # > # # * > 7 2 # # # o X X - o X o o # X - X # - # # 2 # O     O O   O                                                                                                                                                                                                             X               ",
"                                                                                                                                                                                                                                      X                                                                                                     O 7 x.!.0.B 2 7 , 6 7 O + 2 , O O # > + > # @ * - 4 ; 4 ; ; ; ; 4 ; # 2 ; - - o o # o - o o X & - 5 5 y z V N G N y * : : * $ . N e . = i i % a i , $   . < , $ % n ^ m.^ r | 8.%.8.4.;.;.%.%.) [ ) ,.&.} 3.) o.D { 2.p.W.C.A.H.f.q.0.1.M       X                                               O         O   O O > @ @ # # # # # @ + X X X @ # # > 1 1 @ # @         + X                                                                                                                                                                                                                                 ",
"                                    X                                                                                                                                                                                                                                                                                           O     O     O t.x.t.I 7 B 7 2 M , # @ # # X @ # > + + > 2 > ; # # 4 ; ; ; - ; # ; - - # - - o - # - ; # - : 5 y u 3 3 p a V S z F y Z y : e i % . $ 9 H 9 i 7.i $ $ . = . $ 0 n N.T.| q ] V.8.( ] 4.[ s d h ~ 3.~ ~ ) o.p.n.p.W. XW.A.f.C.i.i.1.P V * X X O                                                           O O O   O     O     # # # * @ # > > 2 2 @ @ O                                                                                                                                       X                                                                                                           ",
"                                                                                                                                                                                                                                                                                                                        O   X           O O E ^.I 5.B B W M 7 7 , # , # > @ > # + + # # > @ # O X # - ; ; ; - X - # X X X X o - 5 j 5 ; 4 k 5 l l 2 y a i y z Z P H F a i Z N 9 & 9 Z g 0 0 +.6.% % . % = , 0 ^ 8.I.| d | $XI.| [ 3.d Q s 3.4.,.F.3.n.W.&XW.{.;X6XW.W.E.h.h.h.o.G 5 o         X                                     X         X                   O               X X @   O                                                                                                                                                                                                                                                           ",
"                                                                                                                                                                                                                                              X                                                                       O       X     O     W oXe.t.I 7 B C 8 1 # > , * O > # #   O # @ # O @ # X # X o - ; o - X X o X # o o - ; j l l j l l y 4 : 3 y y 3 y a N Z F H @._ +.+.g % t ) h ^ s ' 8.7.9 % $ < = i 7.8.7.8.^ ! 8.I.8.%.( Q ~ $.4.Z.U.U.Z.U.W.A.F.R.-X{.E.[.i.p.f.P V l o   O                                   O                                                                         O                                                                                                                                                                                                                                                 ",
"                                                                                                                                                                                                                                      X                                                                         X         O         O   C ^.>.).!.I C C v # # # # > @ X X @ @ + @ O # @ 2 1 # X X # # @ # # # X X X o o # - - j l 4 5 l V l l p 4 : : : = 3 e e e e n  .+.X.n.X.' ~ =.I.$X%.%.#X*X` g i i 0 i 8.8.%.B.] Q ] 8.^ Q Q 4.4.&.3.S.n.3.Z.-XW.-XH.W.A.f.i.,.A.s.2.S V &               X                               O                                 X                                                                                                                                                                                                                                                                                   ",
"                                                                                                                                                                                                                                                                                                              X   O     O       O     J rX>.9.c.5.b E B , 7 4 X @ # # X   O @ O   # * # @ * - # - # * # o - X       X - 4 # : 5 j j l l k l p ; : 5 e e y i a i i e i Z H A ` $.$.( b.S.=X4.] ;.T.8.n ^ r r d [ %.| %.^ ^ ] d ^ Q ;.4.4.;.;.&.&.3.3.Q.W.A.A.f.f.H.2.f.A.,.P Y l O         O                                                           O X                                                                                                                                                                                                                                                                                             ",
"                                                                                                                                                                                                                                                                                      X                                   X O       # @Xe.C >.R B C B 2 8 B 1 # 2 > @ X @ > + O X + # # @ O X # # * o X X           o - ; ; ; 4 5 5 l l l 5 l y e 5 e e 9 N Z i e i i s u u A $.%.4.;.;.4.] ! ] 8.8.h d r r d ` %.:.;.! d Q r ;.4.#X%X#X%XS.n.n.H.3.3.2.} 2.h.W.f.i.1.o.S K L 4 X                                                                                                                                                                                                                                                                                                                                                                     ",
"                                                                                                                                                                                                                                                                                                                                  1 @Xt.C Y B r.t.I M 7 8 6 2 1 , @ - # > #   O + O O @ O O X X X o X X X   X X # - ; ; 4 j 5 4 4 4 l 5 5 j k 5 y p l u a a a Z F / D i s h f h ] 4.B.;.B.B.;.;.B.8.^ q r s d ^ ] %.^ ^ r ` *.8.4.4.4.S.4.4.S.4.Z.,.3.2.3.A.A.A.2.o.K K R o.z X         X               O               X                                   X                             X                                                                                                                           X                                                                                                                               ",
"                                                                                                                                                                                                                                                                                                                      O   O     @ k.yX9.c.j >..X9.8 j M j j j - # 5 4 # * O X O # X X X O # X X X + o   X + X @ # 2 2 7 8 4 5 j j k l p l l l l z z a a a a Z g H A H g t t t t d ` %.[ ] #X4.;.;.;.%.! Q ~ Q ~ ] ] Q q Q Q %.#Xb.%.%.] &.] &.,.4.A.U.3.3.A.f.2.,.z S ,.q.R l                                         O                               X                                       X                                                                                                                                                                                                                                                       ",
"                                                                                                                                                                                                                    X                                                                                             X   O         4 +Xc.x.R >.c.>.M 8 M 4 4 j 4 4 7 8 1 # @   X   O O + O # O O X X X o + @ O # 2 - 2 4 7 5 4 5 8 5 5 j 5 5 u k l p p y 6 i i a u s i g g n f f f f d h Q ] ] ;.;.#X#X4.] Q ~ Q ] 8.;.] ! q q d B.S.S.S.S.S.&.&.U.Q.4.A.4.,.,.,.K k K P 1.P P :                     O                                                                                                                                                                                                                           X                                                                                                                       ",
"                                                                                                                                                                                                                                                                                          X           X             O   X O O O 0.c.t.j >.oXJ j 8 8 5 ; ; o - 4 2 @ X X X O +   O X X # @ # X @ X X X X @ # @ # - # # - ; # ; # ; ; ; : : 4 4 5 3 y 6 y a F g u s Z n g h n ) s q q d Q Q ! ! ;.$XB.B.#X( ] ( ] 8.;.] ;.( d q ! ] S.%X-X4.3.4.S.U.f.,.,.2.,.x x K ,.,.P S z X           O                       O                                                                                                                                                                                                                                                                                                                                     ",
"                                                                                                                                                                                                                                                                                              X                     X       O M +Xk.<.>.!.Y j j j - X - o X o - # X X X X o + X   X O @ @ O   X       o O @ O # X - ; - - # ; - ; : 3 : 5 5 5 u l a i y i Z x i b n ^ n h n A f s Q ` ~ ] ;.;.#X=X=X4.4.] ( ~ ;.;.8.;.;.;.;.:.! ~ ;.S.4.3.} &.3.3.3.2.,.{ K x ,.2.2.P K V 2                 X                                                               O                                                                                                                                                                                                                                                                                         ",
"                                                                                                                                                X                                                                                                                                                           X   X             Y (.>.c.).>.4 ; k 2 - X o - - - 4 2 X X o - - o X X @ X X @             - @ X @ - # - 2 1 - 2 2 2 4 ; 3 5 p 5 l V S V N Z Z Z H _ ) ....` ' ` ' / f ~ ] b.I.4.B.#X5X5X#X;.d d ~ [ 4.4.] ] ] ;.B.4.;.4.S.S.S.Z.Z.3.f.3.,.K k K ,.3.2.>.,.K k o                                                                                                 X           X                                                                                                                                                                                                                                                             ",
"                                                                                                                                                                                                                                                                                                            X       X     X - x.>.R..XJ k 4 l 5 4 - 2 8 j j j k - o o ; ; - X X @ @ # X X O O         - - X @ @ O # # # - 2 5 4 5 j k l k V V l a V Z Z b { O.X._ _ _ ..$.) / A h c ^ :.:.B.B.B.B.#X;.! s r s f ! ] ] ! ( ( ;.4.;.m.n.&.f.S.n.n.3.,.k k >.2.2.,.,.K >.V k X                                                                                                                                                                                                                                                                                                                                                                           ",
"          X                                                                                                                               X                                   X                               X                                                                                                         X X t.x.k.mXw.- j j 4 4 4 j M V j M j ; - - 4 j 2 @ X X @ # O X @ X           7 8 # X - # # @ X X # - ; ; 5 l 5 l V S V S Z N i g H X.#.7.+...' $...` | [ ' | %.:.B.=X#X#X4.;.] q r q 0 q Q Q ~ ~ ] ;.%.~ ~ ] &.&.&.,.&.) K ) ,.2.A.,.,.,.K V j j                           O         X       X                                                                                                                                                 X                                                                                                                                                                             ",
"                                                                                                                                                                                      X                                                           X                                                                       B yXx.gX.XV 4 j - 4 4 j B B M k V 4 - ; 5 4 4 - - 2 - # @ @ # O X O         1 m 1 X @ @ # - - # - - o - ; 4 4 5 l z l N Z V a Z Z H X.{ { _ *.*.X.` $...' [ [ ] ;.B.B.;.4.#X;.s x f q q Q ~ Q Q Q ( ] ) ] } 3.&.) ) } ,.,.2.f.f.1.2.,.>.k k l -   X       X     O                                                           .                                                                         X                                                                         X                                                                                                                                           ",
"                                                                                                                                    X                                                                                                                                                                                   @ oXc.mXuXB - 4 - 2 5 j j j l V j 4 4 - 4 - ; ; - - 2 o o + + O O               C v O @ X @ - - - j - - - : 4 - 4 ; 4 5 k j k 5 y a a a g g g ) / n n d n ^ ^ 7.8.| 8.I.B.#X;.] s w g s n ' | [ | *.%.' 3.' ~ } ) } 2.A.3.A.A.3.2.,.,.K S k 4 j @                   O                                                                                                                                                                                                                                   X                                                                                                                     ",
"                                                                                                                                                                                                                                                                                O                                     7 rXe.x.mXY - ; - ; 4 l j 5 l V 5 4 4 k 4 4 - 4 ; 4 2 - - o o o #     O         X B 8 4 X @ @ - - - - 4 4 - - - 4 4 5 5 4 4 k z l a a Z Z b i n A / d n 0 r d ^ ] ] | | ;.;.4.;.Q d g 0 w s ` $.' %.-.' / } ) c k ,.3.3.A.A.W.f.2.3.K K >.C 5 l 8 X O                                 O                                                                                                                                   O                                               X                                                                                                                                                     ",
"                                                                                                                                                                                                                                                                                                                      +X).m yXr.o # # o 7 l j j j l 4 5 j l k 4 ; 4 4 - ; - ; X X X # O X       O O     C B 8 # - o 4 - - - ; 4 4 - o o - : 4 ; 4 5 l k N N D H Z _ X.X.-.m.X.n d | ^ ^ ^ ^ ^ ^ [ / ~ ) r e 0 9 9 r n ^ h h f s ~ c s } 4.f.2.3.A.f.f.f.,.K K >.S l l X                 X                                                 X                                                                                                                                                                                                                                                                                                           ",
"                                                                                                                                                                                                                                                                                                                  # ^.).Y +XoX- # # # 4 j j z B j 4 j j j k 4 4 k ; - - - 4 o X X O O O               O 7 B 4 4 2 o - j - - - - X - - - - ; ; ; ; ; ; 4 5 8 a u a g H +.O.u._ ) ^ _ 7.| | ] 8.7.8.8.` ~ w 0 e 0 t g d s s w r h c ~ } } 3.3.3.A.2.,.K ,.,.K { >.V J 5                                                                                                                                                                                                                                                                                                                                                                                 ",
"                                                                                                                                    X                                                                                                                                                     @                 X X J +X`.m M `.m - - - - j j l V 5 4 5 j V j 4 ; - 4 ; ; - 4 # X X   O X         X         @ 7 # 2 1 - 2 2 4 4 & - 4 o 4 ; : * : - # ; : ; y 5 : : 6 = e g n g i 0 i i d _ $.-.8.8.I.b.7.7.n i g i x g w w s c c ~ 2.3.} ,.H.C.h.3.} K ,.,.K K K K z l o X                                 X                   O                                                                                                       X                                         X                                                                                                                                                                       ",
"                                                                                                                                        X                           X                                                                                                                 > 7 @ @             2 >.).e.t.B # e.e.@ 1 - 4 j j l z l 4 4 j V 5 4 - ; 4 4 - - ; - o X   O   X               O     # 1 - 2 j B 2 o - - X - ; - - - - - 4 4 4 5 5 5 3 5 l i y e y e 9 = 9 i 9 < i t ` -.` $.| ^ n n i e n x c c ~ ' ~ c c 2.} &.3.A.2.K P } K ,.K K ,.,.K K 4   X       O   O                               +                                                                                                                                                   X                           X                                                                                                                                                   ",
"                                                                                                                                                                                                                                                    X             X                 O 2 M 1 O         @ 0.!._.0.m C j 2 E j - 1 - 4 l B V j 3 4 5 j 5 4 ; ; 4 k - : - & o o o # O       O     X     O O   O 4 2 - B >.M - ; 4 - ; ; - - ; ; - 4 4 5 k k p l p u y 6 = a A i t = % 9 % % % 0 7.v.=.7.$._ n = % = w g x ) } } ~ { } ~ ,.2.} c k K ,.,.,.K K ,.K K P ; X   O     O       X   X                                                                                                                                                         X         O                                                                                                                                                                                       ",
"                                                                                                                                                                                                                                                                                  > 2 # 7 1 7       2 0.oX>.J E Y m - m B - @ # j l l B j 2 4 4 j 5 4 - 4 4 4 ; 4 - o o X - o X     O     O     O       O   2 8 E B R j 2 4 - ; - 4 : - - ; 4 4 5 : 4 4 y z V z F Z V a b i e i 9 w b w 9 9 u X.' $.7...g e e 9 = u x c ~ ) ) O.{ c c x K k S O.,.>.K K K ,.,.,.o.*   X                                                                                                                                               X                                                                                                                                                                                                                               ",
"                                                                                                                                                                                                                                                                                  4 7 - v m m O # J _.).<.V 4 B J 1 @ 4 2 > @ 4 8 l M 7 5 6 5 l 5 : : 4 5 : : 4 : & X o # o   X                   O       X @ 7 E 9.0.B 2 4 # - * 2 7 2 : - ; 4 j 4 4 : : 5 k z N P P P P G Z e e 9 a u $ % 9 n A g _ n e 9 i = 9 g D c ) x x c u u u z S x L { K K ,.>.V K K 2.T &   X                                                                                                                                                                                           X                                                                                                                                                                                   ",
"                                                                                                            X                                                               X                                                                                                     1 7 7 8 M I E t.e.t.e.k.Y B C B 7 - - # > 4 8 8 5 2 4 5 6 3 l 4 4 4 5 4 3 ; ; & - - - X                                   X 2 M C x.e.4 1 - X * # * 2 ; # & 4 : 4 k j 5 5 j 5 5 z N K H o. .D T  .H  .s $ % % A H n e t 9 = w t e u k t w w y z k k S K K S K K k K k k V ,.>.R #   X                                                                                                                                         X                                                                                                                                                                                                                                     ",
"                                                                                                                                                                                                                                                                      X     X   O 1 7 7 I m E x.).Y C Y R.J B J Y 4 @   @ 4 4 7 2 2 2 4 5 4 4 ; - : 4 3 4 : : o X - o X           O                   X X X   # B 8 t.g.j 5 ; o : - # 2 5 2 2 4 4 - 4 5 j y 5 4 5 * : e y Z N H U +.#.y.@.u = % i 7.H n D i = 9 w w = = 9 : : z K z z z z l z S K k : w k K ,.,.R X                                                                                                                                                                                                                                                                                                                                                                                   ",
"                                                                                                                                                                                                                                                                        O X O # 1 1 m 7 m B 5.5.t.I 7 B Y 0.Y B J j # X O 1 1 1 - - 2 2 ; ; ; o : 4 ; 4 ; ; o # - X         X       O                     X O X 2 M L <.4 ; j - # @ X 2 4 5 2 4 4 4 4 - ; 4 j k l p 4 : 2 * < y y i a R G Z a 9 e _ +.A F n = t e : 9 e e y k S K V k l l l k l 5 ; 4 : k >.K >.V X                           X                                                                                                                                                                                                                                                                                                                                                       ",
"                                                                                                                X       X               O                                                                                                                           X   X O X 1 1 B B m v E t.I E e.B m B 0.0.V l p - # @ - 2 - ; 2 ; ; ; - # ; ; ; : : ; # ; # #               O O   O O             O   O @ @ - V L L l 4 j 4 - ; - # - 4 k ; - - 4 - ; ; 4 5 j j 5 p 5 5 * * % & # = < y N i e Z H i a a i y e = : y y z z l y y k k k 4 ; - ; 4 ; k S ,.R <.z . X                                                                                                                                           X             X         O           O                                                                                                                                                                                                 ",
"                                                                                                                                                O         X                                                                                                               O   X 1 7 B m m E t.t.k.E Y B M L >.L z V 4 X X O X X @ - # - - o # - - ; ; ; - 2 # X                                             # @ X j J J L 4 j V ; 4 2 ; - 4 j 4 : & - : ; - ; ; ; 4 ; 5 y N a 5 3 * & = & & e e < i +.H a = = a 3 y a i u y : y y ; ; 4 4 - & & : : k ,.{ o.1.1.5                                                                                                                       O               O                                                                                                                                                                                                                                             ",
"                                                                                                                                                                                                                                                                  X   X O X # 7 7 7 m m B I Y 5.x.9.E B V J <.w.C L l o X X X X o o o o X o o - : ; - - * # X                                         O   X X X X X j L B 5 4 Y M 4 ; - - - 4 5 4 - & - - - - ; ; # - ; 3 l M p z a y = 3 < 3 * = 6 +.+.H i 3 y a i y a e : 5 e : & o o & o X 4 ; V 2.,.P R o.R o                                                                                                                                     X                                                                                                                                                                                                                                               ",
"                                                                                                                                                                                                                                                                    X   X X 1 v m 7 m E t.I >.B >.9.e.J V V <.1.W S V ; X X X X X X X o # o o - - * - ; @                       O                         X X X o o ; >.R l ; V l ; 4 ; # - - j y 4 ; - - - - & - # - ; * : 3 4 3 y p 3 3 y y 2 % % V @.P a e i a 3 : : e : : ; - & o & - : 4 4 K ,.2.<.{ 1.,.V                                                                                                                                               X                                                               X                                                                                                                                                                       ",
"                                                                                                                                                                                                                                                                    X   X - 4 B B m B k._.e.>.B M J >.R R R @.R w.o.P 4 o o X o @ + + o @ o # # # * > @                                                     X   O @ @ Y e.J j V C ; ; j ; ; & - 5 4 - 4 ; - - - o o & - - - & - ; - : : ; : 5 * : e e S H y = i G b y y a y 3 3 ; * * 5 e : 5 P R T ,.K 1.s.2.y                                                                                                                                                                                                                                                                                                                                                                                       ",
"                                                                                                                                                                                                                                                              X           4 j 8 j M >.c.x.>.Y B B J Y >.0.T  .i.q.@.L p # - X o # O X X @ @ X # * # O                                                 X X         X X 7 0.Y Y j Y ; - 4 l 4 4 4 4 4 4 ; 4 4 - - - - - o & - * - : & . o * ; e 3 : y y N k = 3 T S a z P H S F y y N S N k L P 1.{ P P <.g.1.>.4 X                                                                                                                                                                                                                                                                                                                                                                                     ",
"                                                                                                    X                                                                                                                                                               X     4 m j l C c.oXc.J >.B B >.Y w.y.@.@.i.q.R V l # X - # # @ o @ # + o # #                                                                   @ X J J R l L j - ; z j 4 4 5 4 j : - 4 4 - o - - o o - * : - o * ; ; e u 5 : 3 : Z p & 3 K Z 3 F  .@.K T F z T T K S @.@.G z x ,.z.h.P T &                   O                                                                                                                                                                                                                                                                                                                                                                   ",
"                                                                                                                                                                                                                                                                          2 7 m J B ).oXk.x.j J B R W 1.0.@.@.#.@.P R 5 # - X - # @ # # # # @ # X                                                                 X X X j >.B l V R 2 ; 4 l 5 - ; 4 4 5 4 ; 4 ; - - - & o & ; ; : ; ; ; 5 z z z N e : p e $ 3 z 6 a G H o.a.1.@.,.@.1.w.i.i.o.V z 1.s.G.o.R G X                   O                                                                                                                                                                                                                                                                                                                                                                   ",
"                                                                                                                                                                                                                                                                        X ; 2 j m j k.!.g.w.J >.L Y R q.@.T @. .T R T l ; - o # @ @ # # 1 1 - O                                         X                           X + ; 0.Y 8 l L j # ; l l 4 ; - 4 ; ; 5 4 4 - j ; & - - : - : 3 ; l z z S L H Z 3 y : o p N i z P G T @.o.o.o.T 1.p.R P z { h.W.E.f.J K 5                         O                                                                                                                                 X                                                                                                                                                                                                                             ",
"                                                                      X                                                                                                                                                                                                   - M 2 j E @Xx.R.R.J Y L R w.s.1.#.q.@.K ,.Y j 5 X o # # # @ # 1 - O   X         +                                                           + X J W 8 j B M # o 4 4 ; 4 : 4 - 4 5 4 k j 4 k j 5 : : 5 4 p e k z P o.P P G 5 3 & * S l : y V z z F k l K K L K S P h.h.l.W.h.L S R 2                                                                                                                                                                                                                                                                                                                                                                                         ",
"                                                                                                                                                                                                                                                                    O     4 j 4 4 t.rX>.R._.Y L V R h.p.i.s.1.H o.G V l 2 - # 2 - O X # @                                                                           X   O 2 Y p 8 4 M 5 4 & ; - 5 5 4 4 ; ; 4 ; - 5 j k l l k l l 5 4 5 l S ,.P N z p # + o 3 * * * 5 z a y p k z V V V { l.[.f.i.2.K V <.R X                                                                                                                                                                                                                                                                                                                                                                                         ",
"                                                                                                                                                                                                                                                                          # j B >.xXrXr.<.R.<.Y L <.s.@.q.s.@.@.T N S N z : 5 5 2 # # o   X   X X   O     X                                                   X             C Y V 7 7 l l 2 ; o ; k 4 k k 5 4 4 ; 4 : j k V z K S S l 5 : 5 z z z z 5 & o . . . . . * 3 : : y p l y l T 1.i.s.f.i.{ S 2.R z X               .                                                                                                                         X                                                                                                                                                                                                                                               ",
"                                                                                                                                                                                                                                                                          O l 7 w.mX(.>.e.oXc.<. .s.h.i.y.q.y.P Z a U H V 5 p 3 ; ; @ +   X X   X O   X                                                                     7 0.B 2 2 5 B p 4 ; - ; 5 5 k l l 5 5 4 ; : : 5 k V V K 5 ; : : 3 3 : ; ; $ o . X X . . $ : & & : ; : - * l z K <.1.P H P P V 3                                                                                                                                                                                                                                                                                                                     X                                                                     ",
"                                                                                                                                                                                                                                                                          X 2 1 r.@Xc.<.Y yX8X1.s.l.h.u.y.M.1.Z Z G o.H F N K N 3 5 2 X X   X                                                                         X       Y E p 7 8 8 8 5 4 ; ; 4 5 ; 4 : k k k k 4 : k ; k 4 k : - - o & & ; * ; * * o o o . * ; - - & - - & . o * 5 y k k p S l p N O                                                                                               X                                                                                                                                                                                                                                                                                           ",
"                                                                                                                                                                                                                                                                            4 M R.@XyX<.>.8X+Xq.s.'.p.1.1.u.G Z F +.#.N z G @.V y 3 3 X           X                                                                           8 W M 7 j 8 ; 4 4 k 5 : y 5 4 5 p j k j k 5 ; : ; : * ; - . % % ; : : ; X o * & & ; ; ; : 3 : ; . & & . ; 4 : 5 : e l p M o                                                                                                                       X                                                                                                                                                                                                                                                                     ",
"                                                                                                                                                                                                                                            X                               1 Y mX8X8X>.r.lXE.,.q.G.a.y.y.F a Z D o.G g a Z Z N 3 6 3 .   X   X                                                         X                     C k.B 4 2 2 # # - 5 5 4 : 3 : ; : 4 5 ; 5 5 ; ; ; ; * * - ; ; ; 4 5 : : o * ; - 4 : : 5 5 : 3 ; & . . * o ; . o y : 5 p *                                                                                                                                                                                                                                                                                                                                                                                               ",
"                                                                                                                                                                                                                                                      X                     , r.NXuX_.J k.xXE.w.h.D.E.p.H F a _ o._ a i u D G a l p #           O                                                                         O   e.oXW v 2 - 7 - o - ; j 4 3 p 5 y k 5 4 - - & & ; : 4 ; ; ; : 4 y 5 p ; * o ; ; : : 4 5 4 3 3 5 : ; ; * X o * * ; o o X                                                                                                                                                     X                                                                                                                                                                                                                                           ",
"                                                                                                                                                                                                                                                                          X @ c.dX8X8X<.8XaXl.z.J.H.L. .Z N  .H H F y F { Z V i i y #                                                                                       I _.x.9.7 M 2 - 2 # o ; ; 5 5 ; 3 p 4 ; o - - - - 4 4 : : : : 5 5 4 : 5 ; : - ; : : : 3 p 5 l 3 5 : ; ; * ; : * #                                                                                                                                                                                                                                                                                                                                                                                                         ",
"                                                                                                                                                                                                                                              X                             2 ^.yXyXuXoXgXR.1.H.d.D.#.F F 7.X._ H g Z O.O.G Z p 2 2 +                                                                                   O 6 rXoXt.Y m j j - # # X o & o * o X o o o o & - 4 - ; ; ; ; : 4 5 k k 5 5 * o ; : ; 4 4 3 l k k 5 4 ; ; : o ; : ; ; X                                                                                                                                                                                                                                                                                                                                                                                                       ",
"                                                                                                                                                                                                                                                        O                   8 sXsX).uXgXaXz.g.l.l.d.F Z { +. .a g _  ._ G N a : 6 *                                 X                                                   + !.nX!.0.x.C 2 4 - # o o   X X X . X X & o - o & - - - ; ; ; 5 k 5 l 5 3 * - # ; : 4 : 3 y : 5 : 4 : 5 5 : ; 4 ; 3 C #                                                                                                                                                                                                                                                                                                                                                                                                       ",
"                                                                                                                                                                                                                                O         X                                 v dXtX_.@X(.|.K.K.i.a.{ H  .+.=.H D D _ H N e y : 5 6 +   O                                                                               > B gXsXsXr.).e.3 o X o X # # # O       o - o o - - - - - ; ; ; 5 e 5 5 l 2 * & # ; ; ; - : : 4 3 3 5 3 5 5 : ; ; ; ; <.l     O                                                                                                                                                                                                                                                                                                                                                                                                 ",
"                                          X                                                                                                                                                                                                                   X X X O   X   v mXnXsX(.e./.l.G.q.7.{ { +.H F  .A z Z a i p 5 * 2 # X O                               X                                     X           # E nXgXdXI r.r.4 X o X X   o @ @ .   X o - - - o - - o o * ; ; ; 4 4 : : * o * & o ; ; % ; ; : 5 5 3 : : 5 5 5 o . p l.q.    O                                                                                             X                                                                                                                                                                                                                                                                                                   ",
"                                                                                                                                                                                                                                                        X         @   O     0.VXVXuXOX|./.G.K.h.l.+.{ { A _ F e a k p z p * o X                                                                                     O > c.mXsXk.7 E c.j X # + X + o @ + X       o - - - - & & o o - ; 4 3 3 5 ; ; # ; # o ; : ; : : ; k l 5 p p l u : ; * S i.w.O                                                                                                                                                                                                                                                                                                                                                                                                     ",
"                                                                                                                                                                                                                                                            X   O @ X O O # !.BXfX`.).[./.1.p./.H.u.X.H  .o.z a 3 = y y * @         X           O                                                                   1 8 mXBXyXY 8 8 L 8 # + X X O + X o # + X X X X - o - - - - - * - : 3 3 5 : # - : # ; : 4 5 5 k k l l u p l z 4 ; ; l R w.c.7     O                                                                                                                                                                                                                                                                                                                                                                                               ",
"                                                                                                                                                                                                                                                            O X X O   + # 4 sXgXfXrXfX~.K.s.g.D.d.o.=.2.G a y 3 : 5 4 ; #                                                                                         X - Y BXVXrXj ; 2 7 b 2 # . X X .   X o o   X X o - ; - ; ; ; o - : 4 3 p l 4 ; # * 2 5 p z l z S S z Z G V L z : ; z S <.z..XR .           X                                                                                                                                                                                                                                                                                                                                                                                       ",
"                                                                                                                                                                                                                                                                X   X + X Y VXgX!.J.+X(././.l.d.s.u.P o.Z e = i y : * .                                                                               X   X   X X @ # !.VXBX+Xm 5 7 ; 8 2 o o X . X X X   o # @ X X - 4 4 ; 4 4 4 4 4 : 3 4 3 : # @ # 5 5 5 l z V z S V K T S S k 5 p V V s.l.XXs.+       X                                                                                                                                                                                                                                                                                                                                                                                           ",
"                                                                                                                                                                                                                                                            O X X # o @   !.sX_.r.j.6.~.q.l.J.7.1.#. .F z y = 3 : o . .                             O               X                                         X X X 1 @XKXnXyXE 7 2 # @ - # * # X X o X X X - # # - - - 4 - 4 5 5 4 4 5 l l y 5 * & 2 p a 8 l V P { K P P S l k V L G S V i.h.R.h.p                                                                                                         X                                                                                                                                                                                                                                                                                         ",
"                                                                                                                                                                                                                                                          X X X X @ O @ x.nXnXeXOX/._.@X|.2X.X/.,X|.l.E.G.o.T  .o.G p *                                                                                     O   X X 1 _.nXdXdXx.7 > # # @ ; ; # ; X o + X X @ o # o o o o ; ; 4 ; 5 5 j l z l 5 ; 2 * y p p V S L ,.P R L z z z P o.S G T ,.1.2.K.h.o                                                                                                                                                                                                                                                                                                                                                                                                 ",
"                                                                                                                                                                                                                                                            X   O O @ Y nXdXuX@X@XNX`.K.eX`.[.(.|.2X,XD.d.j.a.s.J.L.[.~.T #                                                                                 X   O X 7 e.^.yXsXx.M , X @ # o - - ; o X X O # # # - - @ # o @ # ; - - ; l 5 z 5 4 ; - ; ; 5 : p K K T K K S K P S  .T G R @.T s.h.E.OXM                                                                         O                                                                                                                                                                                                                                                                                                                       ",
"                                                                                                                                                                                                                    X                 X                           O 7 oX@X`.).aXaXaXr.q.G.mXpXE.L.L.L.a.#.@.7.@.@.#.h.s.j.c.r.p                                                                                   O 7 r.Y c.c.k.C 6 # # # X - # - - - o @ 1 2 # @ - ; @ # ; # - & - & ; 4 : k 4 : ; ; ; - 5 l z l k z L <.@.S D @.G G y. .p.R.1.G.[.e.X                                                         X                                                                                                                                                                                                                                                                                                                                     ",
"                                                                                                                                                                                                                                                      O       X X @ x.rX(.yXoXmXNX_.J.<.l.aXlX3X'.u.7. .=.l.h.7. .R d.l.@.q.J.c.<.8 o                                                                               2 W Y >.<.L M 6 5 5 ; - - # - o - o # ; 2 - 2 ; - ; - ; 2 # o & # 2 k l l 4 X * 4 4 3 4 j l z D K ,.z.o.V @.T Z H @.T p.h.o.1.J.g.#                                                                                                                                                                                                                                                                                                                                                                                               ",
"                                                                                                                                                                                                                                                  O               # k.e.!.uXr.+X8XpX2Xs./.|.,XL.d.L.Y.d.u.D.J.7.y.7.@.T H T T Y T <.r.C 8 C 7                                                           X       X   8 t.<.>.L J I 6 5 5 4 # X X o - - o # ; - ; 2 2 5 2 2 ; 4 ; - ; 5 K R L V 5 o ; z S V S T K L { 1.1.,.o.P { G H #. .s.E.2.1.<.E.K.:                                                                                       X                                                                                                                                                                                                                                                                                                       ",
"                                                                                                                                                                                                                                                    O             O Y k.R.@X^.k.sXBX.X[.OXhXpXL.L.;X}.Y.F.7.7.7.{ a.C.o.a S G y p z R T w.R q.j X       X                                                           C !.r.>.z V C l 5 4 j 4 4 - - - - 2 @ 2 4 2 4 4 j 4 4 4 5 4 - 4 ; 5 l l - & . & 4 z z >.E.z.i.A.h.2.h.T T T q.T @.@.[.H.,.,.p.H.z.;                                                                                   X                                                                                                                                                                                                                                                                                                           ",
"                                                                                                                                                                                                                                                                  # v s.W oX[.s.yXeXH.h.<XNXeXL.Y.F.Y.J.M.M.Y.C.T.Z.L.a.y.Z B a y : 5 N @.T C l 3                                                                   B R.>.R >.C M l 5 ; ; 5 l j ; - 1 2 2 2 5 4 ; ; 4 l z l l S z l 5 5 p 5 o j ; & : - ; l ,.f.f.f.f.h.y.D P 2.y.P  .G.G.1.P R.z.g.c.4                                                                 X                                                                                                                                                                                                                                                                                                                             ",
"                                                                                                                                                                            X                                                                                     O I oX`.OX0.e.lXeXl.a.}.aX*XY.Y.F.F.7.F.=XT.P.T.,Xu.#.o.z : * 3 o * : V w.q.p 5 C - X             X                                           O   J r.L >.>.J V p 4 2 ; 4 l l l 8 2 # 2 2 2 2 8 2 5 l K V z L T Y R q.H.x.<.z j j ; z l z ,.{ ,.R.R.f.o.K P 1.@.G i.[.h.@.,.h.2.E.h.;                                                                             +                                                                                                                                                                                                                                                                                                                 ",
"                                                                                                                                                                                                              X                                       O             W ).`.z.I a.OXY.D.F.pX*X,XF.N.Z.U.8.Z.I.F.M.N.d. .F a 3 : . o : 2 2 : P @.0.p p Y 7   O O   X                                                   Y k.g.L L L V 8 8 - # ; 4 j M C 8 7 2 5 2 # 2 2 ; j l V L <.R 1.G.K..XE.l.z j l 1.l.g.E.E.A.A.R.l.2.,.K K >.S  .f.D.o.o.,.1.,.R.1.o                               X               X                                 X                                                                                                                                                                                     X                                                                                                                       ",
"                                                                                                                                                                                                                                              X                   O r.k.6.~.a.j.W.J.,X}.}.>X1XQ.&XF.P.n.N.T.].T.p._ u a e : ; & . * ; ; . : G 0.R 3 8 B l X                           O                           O B _.x.Y M m 7 2 2 * # 2 - 2 7 v I I B Y 7 2 ; 5 5 5 l l z R <.o.h.h.W.|.E.L l l l.G.[.XX[.E.A.A.,.1.>.k K P N Z P o.{ G.i.,.q.1.K X               O         O               X                                                                                                                                                                                                                                                                                                                                                     ",
"                                                                                                                                                                                  X                                                                                 r.W 0.pX/.+X'.p.3XF.U.].}.Q.].n.v.P.U.Z.X.} A a u l 5 * & X X X X o o X : l V M 8 o M ;                                                     @ @ x._.e.B 4 7 7 2 2 2 - ; # - > 7 I e.C Y C 2 2 2 l 5 l p l z K i.R.R.E.z.g.P y V 1.z.z.A.E.A.2.A.,.K V K P k y e a Z @.p.,.g.o.R z X   X                       O                       X                         X                                                                                                                                                                                                                                                                                                                 ",
"                                                                                                                                                                                                                                                                    Y r.pX+Xl.OXh.7.l.Y.Y.T.N.M.Z.n.2.n.=.x t e e e z : ; $ . .   X   o # @ o X ; 4 N o # L # X O   X                                         X 1 B uXoXc.v l M 7 5 2 @ # - ; - 2 2 B k.W B W M 7 2 5 j l l l z S ,.z.H.E.h.i.R K V g.l.h.E.{.W.R.2.,.K V K V 4 3 y G G  .6.1.q.V V >.o       X             X                                                                                                                                                                                                                                                                                                                                                                         ",
"                                                                                                                                                                                                                                                                  X M Y )..X0.l.K.a.7.d.p.u.n.F.n.3.2.) i 9 = : u 3 ; 3 * .   .       X   # ; o # # 8 5 @ 8 C           O                           X         O # r._.^.Y M l B 8 2 # X @ # ; - 2 7 I I I m Y J 2 2 ; ; l z K z K P ,.i.i.g.i.1.V J P f.f.f.R.A.f.2.2.>.S z V k p N P p S i.@.G V ,.g.l                                                                                                                                                                                                                                                                                                                                                                                               ",
"                                                                                                                                                                                                                                                                    v b p ^.tXJ.p.T F X.=.X.=.u.O.{ D u = = * : 3 * ; o . X         X     X X o 2 # + # #   Y 5   X         X             X                   O 1 r.^.I B C 7 M 8 ; o # @ # ; # # 2 C E C I B J l 4 4 4 j z V z S { ,.o.1.1.1.1.V j z >.2.,.2.2.2.2.,.P k S z z S 1.o.k S z k 4 l <.z.L X X X     O X                       X       O                       X                                     X                                                                                                                                                                 X                                                                                                                 ",
"                                                                                                                                  X                                       X                                                                                         ^._.8 E K.q.T F N Z Z +.+._ _ P H * & : 4 3 ; X . +     X + +                         @ M W @   X   X O       O         X   X               1 oXc.m J v 4 2 j o o # @ # # ; 6 * 7 B C 0.M C P 4 # ; 4 k l z z S o.o.,.,.<.o.z y z K <.f.,.,.,.o.o.S @.O.K R 1.w.L V e o j z l L g.<.X     X                                                                                                                                                                                                     X                                                                                                                                                                             X   ",
"                                                                                                                                                                                                                              X                                     rXmXb < p 8 V  .T Z F H { Z x D k o - : ; o . . X   X X         X                     o @ E 8 O O         O           O       X             7 !.E v 7 M B Y B 2 X X   o # - 5 2 2 2 l C C j Y L - ; ; j l z F P o.,.1.1.1.P z y z P 1.,.,.,.1.,.P o.h.o.K ,.<.K S l 4 p >.L k <.r.t.l   X                     O                                 O                                                                                                                                                                             X                                                                                                                                                   ",
"                                                                                                                                                          X                                                                                                       X /.uXk.S ; : * S T Z Z a Z a Z K l & & o X .                                               M 5.X   X O             O O                     O B x.E I v Y Y 0.N ; o X # o o l l B G 7 2 4 l Y J r.>.; - ; j k N  .K <.1.1.<.P K l K 1.f.i.f.,.2.1.o.1.1.o.1.,.L ,.S & ; z R.2.5 R <.g.>.X                                                                                                                                                                                                       O                                                                                                                                                                                   ",
"                                                                                                                                                                                                                                                          O     X # 8X@X8Xw.# : 3 3 V T K 4 e 3 a V * .             +     X   X       X                 X   O @ E 2 X   O X   X                             X   B t.0.I I x.r.I 8 # X # X ; ; l l P 0.B : # ; G L w.z.>.4 4 : l l K P R { P P z V k K i.h.A.h.i.,.R o.O.o.A.h.q.<.T k 5 5 P .X(.<.L V >.>.o X   O                                                             X                                                                                                                                                                                                                                                                                                                       ",
"                                                                                                                                                                                                                                                            X     l mXR.h.L p 3 2 3 # x L u y k G 6               X               X                           X 8 B   X   X X X     X       X       X       X O M Y E B I 0.I , 2 7 j 2 4 5 z 5 y G o.L l * ; 4 V V <.R.<.# - k V K K ,.o.P o.K F H @.1.2.f.2.2.P K  .@.D.E.h.i.2.p j z l Y c.E.>.L K >.Y ;       O               X                                                                                                                                                                                                                                                                                                                                                                   ",
"                                                                                                                                                                                X                                                                     O     O     R (.1.G T y * * * * : N G a a b               X                   X   X                       # ,     O X                       O           - j B W 0.x.W v 7 > m Y C z V z j N T T K P l : o k <.S <.i.>.: 4 5 k K P <.,.2.o.F Z o.#.,.1.1.O.P { o.i.E.L.O.g.S 5 4 k 5 T f.h.,.z P w.<.4       X                                                                                                                                                                                                                                                                                                                                                                                   ",
"                    X                                                                                                                                                         X                                                                     O   O O   O J R.<.V o.p 3 y 3 * * * o V L M *                             . O       X                   +   X @ . X X                                 X 2 7 B B z.@Xt.b 7 m W e.E M B L K j z o.#.1. .T S : ; Y h.C <.<.,.4 4 ; k V K 1.h.1. .P P ,.,.o.D K P x  .a.D.p.2.@.l 5 z 4 4 T w.g.E.R J 2.t.C X X                               O         O                                                                                                                                           X                               X                                                                                                                                                                 ",
"                                                                                                                        X     X                           X   O                     X                                                               O   O     5.@XR l 5 i y y z z i * 2 * # l C X                                   X                         X X         X .                           X 4 M 7 b C _.e.B B S k.r.r.I 5 j C <.D k { 1.h. .P H 3 ; ; W o.V V R L k 4 i N P @.i.s.q. .R T  .S z F H H o.f.d.h.p.V l l L l p R w.h..Xs.K R <.>.l X O   X                                                                                                                                                                         X                       O X           X                                                                                                                                                                 ",
"                                                                                                                                          X                                                                                                             O > e.k.0.V 4 l 6 Z F +. .o.F & & : o L J                                       X       X                   X X     X     X                 X X 2 M m M C _.!.j N @.e.0.U T B y k S L z z G q.d.1.F G p ; & ; R L p z V T k k z G #.i.XX<Xh.P H G S S S N H f.D.a.H.T V S <.S l 8 V i.s.R.D.o.L <.<.R j 2 O             O                                                                                                                                                                             X                                                                                                                                                                                       ",
"    X                                                                                                   X                                                                                                                                           O   O 6.^.8 z V e k a  .+.O.X.#._ a : * ; 2 C M                 X                         X                   +       X         X     X       O X 1 C B B j t.mXr.Y /.(.E U Y b l V F R P S N { #.d.q.G G z k o # B w.V S 5 V V l p z  .T K.8X[.o.#.o.G S N N G h.a.i.1.S l <.<.z 5 : 5 <.z.K.L.g.1.g.R.<.B l 4 @                     X                                                                                                               X                                                                                                                                                                                                                                           ",
"                                                                                                                                                      X                                                                                               X X 0.W M V p S <.T _  ._ D { F G G : o o 1 <.b                               O                                           X O         X     X @ m B M M C gXtXE W |.r.0.@.C p L R S R ,.P  .1.o.,.H Z G S L 3 : ; L @.N N 4 S K V F G H y.[.8XG.P o.T G S Z o.y.g.1.P y S o.S V ; : 4 G G.R.XX8Xs.1.R.g.<.W B 8 o                                                                                                                                                                                                                                                                                                                                                                               ",
"                                                                                                                                                                                                                                                    X   - W <.5 y T y.J.T Z g H { F F  . .N + . + 8 0.2               O                                                       O   X         X X X @ 2 B J M L r.rX(.g.(.(..XR.P B N T P @.@.1.o.,.p.i.@.D l G S L l ; * 4 B p l l z G L T G o.2.[.iX|.2.<.q.#.V G P @.@.T S z P T S N 5 * 5 l 1.c.K.8XE.#.q.@.q.z.L 5 ;   O                         X                                                                                                                                                                                                                                                                                                                                                 ",
"                                                                          X                                                                                                                                                                         X X O 8 >.W V @.#.a.H i i i Z N g G G 5 .       2 k.2                                                                             O X X X X @ 7 j j M Y r.z.k..X8XR.(.8Xk.K G P H q.1.o.1.i.d.2.i.@.Z Z G F S S : ; 5 z 5 ; 4 p V S P G P d.p.XXE.R.[.q.@.T P G P k Z T S G z T P z : ; 5 K o.H.J.E.#.T T R s.w.B l #   O                                                                                                                                                                                                                                                                                                                                                                         ",
"                                                                                                    X                                                                                                                                     X       X     @ * w.e.S  .#.H +.n i i i a a Z b .     +     M t.-                                           X             X             X       X X - 1 j j M B r.R.w.).nX+Xl.|.(.>.z T P o.1.1. .O.i.C.i.2.2.D H  .G D L p o l R 2 ; 5 V l z N N S R O.o.s.h.l.@.P G D z V l K P N N N L P N : ; 5 z V y.E.'.@.T i.H @.g.<.B 8 7 X                                                                                                                                                                                                                                                                                                                                                                         ",
"                                                                                                                                X                                                                                                               X   X   O X V T Z j.s. .y.7.i < 9 a N N * .   X X   X X j V                         X         O                                       X   O   - 1 4 j j >.t.<.Y t.`.(.`.oXw.K K P H o.#.O. .O.1.p.p.A.2.H F o.G P S 4 3 3 B l 2 5 z B p N Z D L P w.h.,. .R o.N l l V l p 5 : L 1.o.@.@.z - : z P @.1.i.i.T o.R R h.|.k.7 8 4   X                                                                                                               X                                             X                         X                                                                                                                                                                             ",
"                                                                                                X                                                                                                                                                     X + X 3 l T i.i.F +.a...i = b a 3 . X               O X                                                             O                 X , 4 l B Y R.>.M C >.`.dXyXz.R L K #.T #.@.O.O.i.2.f.i.D.C.{ H @.+.P k y ; * * 5 ; - 8 C B V L P P L q.i.@.P 0.R V k z l : ; o : x 1.i.R y.L : 3 V T y.#.q.o.H S K o.q.[.OXr.V M #                                                                                                                                                                                                                                                                                                                                                                       ",
"                                                                                                                                                                                                                                                    X   O o 8 l.s.q.6.@.#. .+.Z a S N .     X   X   X X         O           X   X     X     O                                             + # # j M C k.r.J C W <.@XuXR.R R R i.@.O.O.y.p.2.2.2.2.p.D.p. .P p.#.o.N z : ; ; 8 2 - - l B V V D S o.P  .P P R G N C l 5 & * * ; l z o.#.R @.l : N d.G.l.@.y.o.P R 1.T i.XX^.s.l ; @                                                                                                                                                                               X                                                                                                                                                                                     ",
"                                                                                                                                                                                                                                                  X   X @ X C oXk.P F 7.+.{ 7.s.H N 3 .   X O                                       X                                                     # X # 8 j C g.C j M 0.z.).c.Y L <.q.q.1.P 1.C.f.2.2.2.2.f.W.h.{ H 2.+. .F z y 5 p C 7 ; 4 j l V V N T 1. .T @.#.T M C L j - - # z j : p N o.q.T l ; k 1.'.E.@.#.y.T  .s.@.@.s.l.K.R 5 7 #                                                                                                                                                                                                                                                                                                                                                                   ",
"                                                                                                                                                                                                                                                    X   O ; k.r.T 5 i N H N H a.@.i .   X                                                                                                 O o # 4 C (.^.e.R 0.oXoXz.E G L 1.1.<.T o.1.A.C.p.p.2.3.C.L.C.T  .+.#.y. .Z P V j z 4 2 4 5 l l l z D T F P R R S l N j 5 ; j L K >.x z z z T T S ; p G /.2XJ.T o. .T q.y.q.1.q.[./.P 5 8 <                                                                                                                                                                                                                                                                                                                                                                 ",
"                                                                                                                                                                                                                                                        X Y _.T N l 5 y N u Z @.o.*   X   X   O     O                                                                                   o @ 5 8 B e.eXz.0.W K._.R.<.<.R W s.g.@.T O.p.f.M.F.F.u.3.C.G.H.#.@.u.d.y.1.T T S 5 # * o 2 2 ; 5 3 5 p S S N D V p 6 5 j - ; 8 R <.R <.T p z Z T P p u V l.tXtXy.T G F H +.#.F R l.|.z.L l l ;                                                                                                                                                                                                                                                                                                                                                               ",
"                                                                                                                                                                                                                                                    X X X J Y M C : : p N S l S L 3         O       O   X                                                                                 2 8 8 E `.t.E @.^.@X0.r.q.E 1.i.s.i. .P @.h.d.p.H.M.C.H.].L.E.#.+.d.a.d.d.P i y : o # + o # # # ; 3 5 k l V M p 3 p 2 3 * @ # ; S o.K P H F K Z T z 3 N 7.OXaXL.T Z F Z G 6.o.F 1.l.K.z.z j l 2     X                                                                                                                                                                                                                                                                                                                                                       ",
"                                                                                                                                                                                                                                                    X   @ C 2 2 5 * # : p N G V Y M   .       X O               O             X                                                       @ 8 M 8 4 E x.W B C x.^.0.0.G T w.i.q.q.o. .1.J.H.W.H.C.Y. X&XW.D.#.p.Y.L.u. .a i 6 3 o * o X + X # ; 3 5 5 N S z p 5 5 : $ : X X X : L q. .o.P S P G V i b y./.iX|.T N T T G q.@.H F @.o.l.L l B C ;                                                                                                                                                                                                                                                                                                                                                           ",
"                                                                                                                                                                                                                                                          2 8 5 l G 8 ; * 5 N 6 S @.5                     X                                                                         # 7 7 5 2 8 W E v 8 v Y 5.@.T B L q.0.h.i.@.1.h.E.'.'.D.2.H.E.;XW.C.o.d.L.d.F N b Z F N 3 ; .     X X # 2 3 5 l z z 5 5 3 * ; 5 5 # * * 3 G <.1.2.@.H  . .p p 7.~.iXaXl.Z H U H +.q.s.q.1.P 1.R.J l C B j                                                                                                                                                                                                                                                                                                                                                         ",
"                                                                                                        X                                                                                                                                         X X X   ; B 2 p Y G 5 & . & 5 8 R >.X                 X                                                                       X 2 2 # X 2 2 E k.Y Y B C e.x.r.R G P 0.s.s.i.<.q.L.|.E.[.p.@.2.H.;XXXC.#.u.y. .H  .o.K G V 5 5 +     X O o - ; 3 5 5 5 3 : # # ; B l ; o ; ; = e @.s.1.6.@.+.Z M T d.tXfXeX6.F S Z T #.L.J.y.G o.E.z.5 M L Y 3 o                                                                                                               X                                                                                                                                                                                                                                     ",
"                                                                                                                                                                                                                                                  X     X @ 2 2 p p T 0.a . & 2 3 6 R W X                       O                                                               X @ X # 6 8 V e.0.Y E M B r.k.W Y L @.w.d.a.0.q.K.2X XJ.d. .O.2.H. XW.2.#.y.#.p.d.O. .G z z 5 ; o     X X X X # ; 2 5 3 4 # X X 4 l l j l : : ; o k { i.#.o.6.o.N G 7.|.pXlXl.H N y a 6.j.d.i.o.o.1.R.<.5 V L N 2 X                                                                         X                                                                                                                                                                                                                                                                         ",
"                                              X                                                                                                                                                                                                             + 3 8 N S E @.N o o * 3 N r.L X   X                                                                                   # 8 j 8 0.r.0.Y I Y M C W R N l R 0.i.i.#.@.p.OX2XXXd.d. . .u.L.,XE.1.#.C.D.{.F.2.+.P N N ; # X   X       X o ; ; 4 ; ; @ + o ; l 5 l z N k k : : p  .7.6.@.R y C @.s.<XpX'.G V Z Z T a.s.K.j.w.<.|.2XL 3 C B 8 2 X                                                                                                                                       X                                                                                                                                                                                                         ",
"                                                                                                                                                                                                                                                              * < b N i Z #.#.y . . : V W R X     O           X                       X                                         , 8 b 4 G s.t.r.r.B B B Y Y B M N Y T w.<.+.q.K. X,X[.l.s.H o.L.{. XW.O.p.h.'.'.D.d.#.N p 2 o X X     X X X   - o 4 ; o # @ X @ X - j z V D @.R x y 3 p H 0.+.o.N a +.s.[.aX3X@.a U +.q.T +.d.G.p.1.l.tX(.z y B 8 l 7                                                                                                                                                                                                                                                                                                                                                 ",
"                                                                                                                                                                                                                                                              + * S C a b  .d.s.a . X : 8 w.B                                                                                 @ 5 2 ; j >.k.+XR.0.M v v C M b M p M L w.@.q.p.|.,XXX/.G.o.H +./. X,X[.y.#.p.,X<X}.p.o.p : o o +     X X O @ + o o @ # # 2 # O   X X ; p V P o.1.1.K l k l K R @.S e  .y.D.<XeXj.Z F q.D.q.b  .7.6.q.a./.|.l.L l C 8 l #                                                                 X                                                                                                                                                                                                                                                                             ",
"                                                                                                                                                                                                                                                                * B G F a b G @.1.R z o - B R 2                                                                   X         O > @ # B J E oX.Xe.C M 7 B C M M 7 l G P @.<.s.R.[./. X'.p.@.6.G.G.H. XL.2.2. X<X<XJ.@.Z z e * # .   X o   X O @ # @ o o X # O X   X + X : 4 S R 1.1.2.R z G K D o.G y S y.j.K.|.l.F F U J.J. .G W D.q.s.G.J.).|.S l L 2 2                                                                                                                                                                                                                                                                                                                                   X           ",
"                                                                                                                                                                                                                                                            O   * M H o.Z a i : z o.R z 3 # 4 >.l                                                                           O 7 7 B J J !..Xe.l M j C C Y B M a N T P @.q.l.'.E./.E.K.#.H y.G.h.J.'.a. .u.<X0XL.+.F F p : : ; o @ X O + X O @ @ # O X     X       + + o : 5 z ,.1.g.q.L Z H G S Z e N o.a.Y.L.s.Z S V p.~.l.o.U q.i.#.R.z.g.<Xl.M C C # ,                                                                                                                                                                                                                                                                                                                                             ",
"                                                                                                                                                                                                                                                            O   . l G V S % * y & 3 ; y B B V 2 M -                                                                       O 6 M M B 0.@XoXg.C V L 5 l Y C C C N V P T q.i.h.G.G.l.K.d. .#.d.D.s.s.l.2.O.G.[.E.u.T H H z 5 2 ; # # @ O     O X O   X O     O O   o   o o - ; 4 l L 1.w.<.R Z G L V 6 y Z U J.Y.L.F i i U a.}./.E F #.@.@.K.l.k.R.c.C B 4 2 >                                                                                                                                                                                                                                                                                                                                           ",
"                                                                                                                                                                                                                                                      X           3 L z V y * : & # o X * 8 <.Y C 2                                                                     X @ M M M I ).oXR J V V M l M M C V S B N S  .s.d.l.'.G.J.G.@.o.s.s.s.7.y.#. .o.d.p.2.{ P S S N 5 ; ; # # @ X X   O O O O O X     O X O   X X # - ; - ; ; l P q.@.T F G Z 6 y N F @.l.L.#.a b F E /.eX~.6.7.@.@.0.l.<.w.2Xs.S C 8 2 X                                                                                     X                                                                                                                                                                                                                                                   ",
"                                                                                                                                                                                                                                                          O       o 5 N N z Z @.@.* : * # # 2 M C 0.e.C @                                                   O             - 2 2 C r.).5.W k.r.J C M p 8 5 G S B Z T #.y.q.h.L.h.a.#.@.o.l.@.@.a.d.o.A o.d.=.2.2.P D F k 4 : ; o O @ #   O X O     O O X O O   X X o o o - - ; & # : 5 S T @.@.T T N : Z F T +.d.s.Z i U F a.`.eXs.q.l.w.y.G.z.Y ^.OXW L I 2 #                                                                                                                                                                                                                                                                                                                                         ",
"                                                                                                                                                                                                                                                            O   X   # p p 2 k <.g.i.: # ;   # X X 5 E e.0.0.W B 6 @                                                     o 5 7 j 6.c.g.r.^.rXe.L C l M 7 p G E U G R q.6.q.s.a.+.+.@.o.d.d.R @.s.y. . .l.Y.p.M.o.P H z p : ; # o   @ # 1 @ @ # X O X O     O @ @ X o X X o - - ; : ; 3 y p @.i.<.H N < z T H #.+.s.H p b U  .J.oX[.l./.h.1.g.R.o.0.z.<.M b B 2 @                                                                                                                                                                                                                                                                                                                                       ",
"                                                                                                                                                                                                                                                                      # 7 3 ; ; z z.g.5 M 5   ; @ X ; 2 2 M T T E 0.8                                                   + 8 M C E !.oX^.K.k.R B B Y M 7 8 C G U R q.y.j.p.@.y.#.+.T d./.6.H o.0.y.+.p.Y.C.p.2.#.o.x l 5 ; : # X X @ @ # O 1 O # O @ O X @ X @ @ + @ X X o & - ; 4 3 5 y i N @.q.q.T 6 : T P T 7.p.j.G i i +.6./.|.G.G.|.z.q.s.l.i.r.h.G M C M B @                                                                                                                                                                                                                                                                                                                                     ",
"                                                                                                                                                                                                                                                                      @ * 2 3 o o N 0.V 5 8 2 # # X       X   X   @ @                                                   < M M B t.uXtX!.!.j.J B Y G B 8 B C C G @.@.s.l.q.7.q.0. .y.L.[.+.T @.a.y.{ p.p.p.C.p.p.P z 5 3 : 2 X   X     X X     O + > O O X X X   X X X X   X * 2 ; 4 p a p i z +.q.q.p # G T S o.+.K.q.b a Y  .i.J.R.s.OX).q.@.g.h.>.w.,.V j j Y M +                                                                                                                                                                                                                                                                                                                                   ",
"                                                                                                                                                                                                                                                    O O                   O & 3 6 , N Y * X + #                                                                       O 7 b 6 B x.dX`.r.^.E C W W B B p M G G L @.@.i.i.h.a.y.s.l.s.K.l.T R 7.p. .F y.p.d.p.O.o.S p e 5 2 ;                     O @ # @ X # o X     X   X X O * : : 5 l z l z V R i.L : z T T H @.a.l.+.i G @. .q.J.h.l.eXL.<.1.R.l.R R >.B j j B ,                                                                                                                                                                                                                                                                                                                                   ",
"                                                                                                                                                                                                                                                                            O # 5 * 6 W 5.>   O         O                                                               2 2 M B oXrXc.c.W B Y @.E l M M 8 N L 0.0.y.s.s.d.y.#.J.D.D.'.6.T @.@.q.H T J.d.u.o.F N k p ; 4 4 @ X   X     X           O 2 2 # @ # X X X X X   X o o # ; 3 6 z z N z Z T P * 5 T o. .q.+.q.6.a a H o. .s.s.y.2X<Xs.1.R.(.g.R w.Y B j 5 2                                                                                                                                                                                                                                                                                                                                   ",
"                                                                                                                                                                                                                                                        O                     . # *   6 0.C     X                                                                   O 2 2 7 v x.oXoXoX0.C V U Y C j M 8 N V T q.q.p.a.+.0.1.@.l.J.OX'.o.T 7.T U b 6.h.u.o.F N z z : 5 4 -                 X         @ 2 2 # # O X o # X X   X X X . * 6 p l G F G S L l * N o.P 6.y.o.H y y a  .T q.D.q.l.iXOXq.i.(.c.f.>.R z l 2 M 2                                                                                                                                                                                                                                                                                                                                 ",
"                                                                                                                                                                                                                                                    X                           X X # # 8 W Y o       O O O                                                         X 7 7 7 l ^.@XoXc.C V Y R L B l M C C R R i.d.G.d.@.#.p.a.s.'.3XG.Z F o.@.Z Z o.6.H N a p N 5 3 5 , X                   X       O , 4 2 - # - # # o X X X X     o # 3 l N P P G S N : l R o.#.a.R H * i y S  .+.l.a.s.,XtXK.w.l.R.z.1.B j l 8 8 v                                                                                                                                                                                                                                                                                                                                 ",
"                                                                                                                                                                                                                                            X                                           X 2 Y e.M O                                                                 2 8 M v g.@XOXt.Y C Y >.Y M M j M G E T 7.q.s.J.0. .@.s.a.a.L.OXy.N T o. .Z Z  .Z b N a z l 5 p 2 X             X                 X @ 7 7 - - - ; # # X o   X     X X 4 N V T T P H p p F @.o.@.q.U p 3 : y G @.#.l.i.G.OX|.i.w.1.E.g.C z l C 2 7 #                                                                                                                                                                                                                                                                                                                               ",
"                                                                                                                                                                                                              X                                                                       X     O l Y e.E m 2 O                                                       X 5 4 8 B `.uXoXC M M R >.C j B j 8 G T T @.a.d.a.@.q.2.q.i.D.,X X#.F U T R N i F Z Z N p a 5 3 ; o                   X                 2 4 1 # ; 2 @ # X   X X .   X X . 3 G K R o.R k : N P +.#.6.@.z y 3 3 a H 0.q.q.a.OX2XR.<.<.l.G.1.L j V 5 2 #                                                                                                                                                                                                                                                                                                                               ",
"                                                                                                                                                                                                                                                                      O               + O   X   X 2 M W 0.r.I @ X                                                 @ # # 2 Y oXuXW M l Y Y C l B M p B C L T j.K.K.+.q.d.p.f.L.G.'.L.@.G G #.7.V F T H N a N l 5 ; .               X                 X       - j 8 > # ; # o o X X . o o X . o 5 K o.<.{ P 3 e Z T 6.7.a.R 6 N z p z F q.q.#.d.2X.Xf.g.,.g.p.w.G V V 7 2 @                   X                                                                                                                                                                                                                                                                                                         ",
"                                                                                                                                                                                                                                                                                                        X @ @   X                                                 > @ > C W oX!.m j j C C l B l 5 4 l V P 1.R.|.k.@.#.p.d.[.'.D.J.a.+.U H s.@.Z o. .Z V Z S N 5 X                                           X 2 7 7 7 2 @ # * # o X X : * 2 ; * 3 K @.,.T i 2 V G  .+.q.#.L N R N i a H @.T #.J.E.g.l.i.i.s./.q.T >.B 4 2                                                                                                                                                                                                                                                                                                                             ",
"                                                                                                                                                                                                                                                                                                                                                                  O O @ I t.+Xt.m j B C B l B 4 7 7 8 V <.<.L.[.+. .l.J.Y.}.}.M.d.h.T H #.a.H N T F a S N p 8 o       O                                         O , v 7 , @ # 2 - o o @ # 5 3 6 * : z R o.V 5 p P G T 1.o.P G D P N N a F T T 1.h.G.w.J.s.q.l.z.0.W R M 8 @                                                                                                                                                                                                                                                                                                                           ",
"                                                                                                                                                                                                                                                                                                                O                                                   @ > C c.+Xk.l l L C B C M 8 5 l p R <.w.E.l.P #././.~.'.D.a.J.p.H H 1.1.a F G N Z S p p o                                                       2 8 2 # # 2 - - # o @ # * 7 5 o * 5 N T p 3 N P H T @.F H L T  .G N Z S T @.1.G.h.h.l.1.i.k.w.w.<.L M # O           O                                                                                                                                                                                                                                                                                                             ",
"                                                                                                                                                                                                                                                                      O                                                                                             O 7 r.!.oXe.l B V B N C B 5 7 8 N W q.J.[.q.#.s.~.Y. XL.l.D.'.6.H  .2.P z T F p N l 5 ;                                                           2 1 # # # ; @ # o o @ # , 5 l : ; 2 i 8 6 5 G T N P R p F P H T T G a Z o.R h.l.i.j.s.@.i.1.s.x.0.C 2                                                                                                                                                                             X                                                                                                                                             ",
"                                                                                                                                                                                                                                                                                                                                                                  O O M k.!.rXr.J L C B V B l 7 5 B G Y w.(.h.1.o.h. X,X,XJ.p.G.J.u. .o.1.Z z D p p 5 5 3                                                       X     X > 2 # # 1 # @ # o o o o # 8 j 5 ; * # # 2 N G G Z G C z H S T @.T N a H @.q.q.i.d.q.@.a.g.1.x.k.6.C 2                                                                                                                                                                                                                                                                                                       X                 ",
"                                                                                                                                                                                                      X                                                                                                                                                           X O m c.rX+X>.J W C V C j l 8 l C L T l.l.6.#.l.L.,X<X}.G.L.{.H.#.O.h.O.V G N y 3 p 5 +                               O                             X   > 2 @ # 2 , o o - ; - # : 4 l p 4 # - * 5 M G Y G M 5 a G G R R H N N S y.@.y.J.y.q.@.g.w.<.l.k.I M X                                                                                                                                                                                                       X                                                                                                               ",
"                                                                                                                                                                                                                                                                                                                                                            X     O @ m `.uX.X>.J J V J L l 5 8 M B T r.OXl.@.d.J.(. XL.h.L. XXXD.y.1.d. .z Z y 3 4 p 2                                               X                   O # - 2 > ; o o # - - - - - 4 5 8 ; # o # & B U T l : 5 G H G U o.Y y 8 G 0.1.h.s.#.@.1.1.R r.x.Y 8 O O   O                                                                                                                                                                                                                                                                                                                 ",
"                                                                                                                                                                                                                                                                                                                                                          X     X X @ >.).rXR.J Y V B C V p l 4 8 B s.k.l.@.o.d.L.OX}.d.d.L.W.[.G.2.s.#.z z z 4 3 p 2                                                                         2 7 # # X - - - o - ; - ; ; ; 2 - o ; ; 3 N Y N 3 * p S P  .6.y.@.y N G q.1.#.#.T R w.@.R >.r.B 1                                                                                                                                                                                                   X                                                                                                                   ",
"                                                                                                                                                                                                                                  X                                                                                                                     X     + X X 1 t.oX@Xk.>.>.V C C V B B 5 M Y l.e.@.L R l.L.{.G.p.C.{.E.W.f.1.y.P u l 4 5 3 4 . X                                                                       # 7 1 - # # 1 # o o - 2 ; 2 2 2 - # ; 7 5 , S G 2 ; : z L T #.i.s.T p M T 1.@.1.L R @.L C T 0.C 4 1                                                                                                                                                                 X                                                                                                                                                   ",
"                      X                                                                                                                                                         X                                                                                                                                                                               X X 1 t.@X).t.>.L V V L Y V B 5 B R G V G o.q.d. XW.p.p.H.H.W.A.a.#.o.z z y 4 5 ; X                                                                       X   O @ 7 1 1 > X # o X - & ; 2 - ; # o @ 2 B 6 2 p 6 X * p K H @.q.7.#.G 3 6 p R P L N V R >.G R W 8 2 X                                                                                                                                                                                                                                                                                                                   ",
"                                                                                                                                                                                                                                                                                                                                                              X X X j >.`._.c.J l l B W R B 5 p M S 8 6 V o.#.h.'.'.p.D.H.W. XG.u.1.P N l : 3 3 X               .                                                                 1 v 1 2 # @ # X - # - 2 ; ; - @ # 2 l M 2 @ 2 * * 3 V T  .d.q.#.q.G 4 : l 5 p l p o.<.L q.g.C 1 # O                                                                                                                                                                                                                                                                                                                 ",
"                                                                                                                                                                                                                                                                                                                                                          X     X - 4 t.rX).r.V V C W E T S V M @.L l S G @.q.[.3XW.p.D.W.[.;XL.D.#.F a 5 p ; X                                                           X                       @ 2 2 1 > ;   - o o - o - - 2 * o # 5 p M 2 X * * 3 z G @.a.s.s.h.l.K p : 5 ; l L w.<.R @.c.k.m 2 X                                                                                                                                                                                                                                                                                                                 ",
"                      X                                                                                                                               X X                                                           X                                                                                                   X                                     X X - - t..X<.B B l B >.>.>.l z G l.R S L P @.l.,X0X XD.D.W.'.E.H.h.H k y p p o     X               O                                                           O X   ; 2 2 @ # - X - - X @ X X - # o ; ; 7 C 8 @ . . * p S L q.s.l.J.l.q.R z l l V <.l.c.<.V k.).W M #                                                                                                                         X                         X                               X                                                                                                                             ",
"                                                                                                                                                                                        X                                                                                                                                                   X                 X - - 4 e.>.J j j l >.>.L B C V T e.@.B H P #.{.[. XJ.p.G. XW.L.D.q.S y a 5 #                                                                           O         X   X # 1 2 - @ - X X X O X O # # o X 4 5 8 M 2 X X   2 M P q.@.s.J.l.i.h.L V P R L <.z.W o.@.^.e.B v                                                                                                                             O           X   X                                                                                                                                                                   ",
"                                                                                                                                    X                                 X                                   X                                                                                                                         O                         O X - J >.B B j J >.>.L l l V V V ).l.S Z H l.<X[. Xp.y.'. X'.W.u.o.N 6 5 ; X                                                                 O                         X # 2 4 - - X o X X # X o o X o ; 5 8 8 5 o X   o 2 L w.y.a.L./.G.s.@.L <.1.T <.g.R T E r.t.B M #                                                                                                                                                                                                                                                                                                               ",
"                                                                                                                                                                                                                                                                                                                                        O     X           X   @ X j >.^.k.B B P >.>.K l l J z L K.z.V N G J. X<XL.2.d.E.'.[.D.#. .N p ;       X                                 X                                                   X X   # - 1 - - @ - # # @ # # o X o # 8 8 7 ; X + o * l @.i.s.G.[./.L.z.@.L R T Y <.w.w.T E x.5.C 2   X                                                                                               X                                                                                                                                                                                                           ",
"                                                                                                                  X                                                                                           X                                                                                                                                           X   @ 2 m t.uXk.C B E J >.>.V >.,.Y w.^.[. .T  .G.<Xh.@.+.d.J.d.J.l.q.S z p .   X                                                                                           O X   X - 7 1 - @ X # X X # X   X X - 5 7 4 - - o o ; V #.#.h.'.E.G.(.s.@.<.T C C q.c.W <.e.W >.M O                                                                                               X                                                       X                                                                                                                                                     ",
"                                                                                                                                                                              X                                                                                                                                                         O   X         O X @ @ @ - O x.+X0.J Y J <.k.2.>.<.<.R.8Xg.R.@.@.@.q.1.@. .#.W.D.M.l.y.o.V u X                                       X                                                                 O - 1 1 # O   o X X # X X X - - 8 ; # o 2 ; ; p  .1.@.h.E.E.[.|.q.R o.L V L r.s.<.0.L E C #                                                                                                                                                                                                                                                                                                             ",
"                                                                                                                                                  X                                                                                                                                         X                                                             @ X X O 8 rXnXe.>.>.R.@Xz.w.<.,.>.l.+Xq.o.P w.H G V O./.L.L.D.l.q.@.P l o   X                                                                                 O             O   X     X @ 7 4 1 # o - o - X X X ; ; 4 2 - o 4 5 ; e G q.1.q.K.tX|.2X(.<.i.1.P S 0.R.s.r.L Y B 2                                                                                                                             X           X                                                                                                                                                                   ",
"                                                                                                                                X                                                                                                                                                                                                                               # v nXuX>.J t.nX+X<.<.c.R.R f.8XaXR S o.H G P W./.G.'./.l.+.T G : X                                                         X         O                         X                 X @ 1 4 - # - - ; - X X - 4 4 4 - & 4 l l k N T q.1.i.|.OX XOXD.y.l.<.B R z.g.0.>.Y B B O X                                                                                                                                                                                                                                                                                                         ",
"                                                                                                                                                                                                                                                                                                                  X                   O                       @ # J nX_.<.k.rXgXg.T w.H.R.w.h.xXFXtX@.@.H @.L.G.s.s.W.J.s.T S y X                                                     O     O                                                         X 4 8 2 X o - - X X - - ; j - o ; p l N Z H q.d.o.y.l.pXOXK.q.h.i.R C R >.@.R >.B Y ,                                                           X                         X                                                                                                                                                                                                                     ",
"                                                                                                                                                                                                                                                                                                                                X                     O           !.VX).R.mXmXR.R 1.H.z.XXE.g.E.fXgXq.a Z y.H.a.7.G.L.d.o.H V *                                                                                                                       X   2 2 2 - X - X X o - ; ; - & - 5 y N G o.K h.K.q.q.OX0X/.h.q.1.o.L L C <.J R C I 6                                                                                               X                                                                                                                                                                                                           ",
"                                                                                                                                                                                                                                                                                      X                 X                                                         @XtX0.8XJX|.R L #.i.l.W.E.l.<.i.2.@.z x { #.{ #.L.J.q.P N y X                                                                                               O   X   O                   O - 8 j - # - # o 2 2 ; & o ; 5 y a T @.@.q./.[.#.q.l.i.E.i.@.o.G G G <.<.B l C - O O                                     X                                         X                                                                                                                                                                                                                       ",
"                                                                                                                                                                                                                                                                                                                                                            X   E dXk.R fXfX<.V o.S ,.D.C.f.W.i.o.P 1.D D D { #.p.d.y. .F B ;                                                                                                                                 - 2 - - X - # - - - # - ; 5 p V K o.o.o.#.G.'.J.@.#.d.q.#.q.G N L >.<.L B M 8                                                                                                                       O                                                                                                                                                                                   ",
"                                                                                                                                                                                                                                                                                                                                                    O         @ rXdX9.c.mXK.V R T H 1.L.E.p.p.{ z k D D z o.O.2.i.2.1.T Z y   X                                                                                                                                 - 8 4 @ @ - 2 - ; - - - 2 l p G H +.1. . .J.,XK.+.@.R @.R R L V C L C V j l X                                                                                                                                                                                                                                                                                                         ",
"                                                                                                                                                                                                                                                                                                  O                                 O                 O   X # M rX^.e.dX2XL L @.P R 1.h.p.2.1.2.O.H S Z P 2.2.O.D P  .N a *                                                       O                                               X         O                 O X 1 7 > - - 4 j 4 & 4 & : y z S V T y.q.R H a.l.K.J.6.7.@. .R S z C B R J 5 #                                                                       X                             X                                                                                                                                                                                                   ",
"                                                                                                                                  X             X                                                                                                                                                                         O                             X # 7 e.`.9.9.+XE M N L V @.,.o.#.2.{ ,.2.{ H H O.o.P x x D Z z 8                                                                 X             O           +       X             X           X     O     X 2 4 2 - 4 5 j ; - # ; 5 z N S P @.q.q. .S G y./.p.0.0.P T B B l B Y Y V o                                                                                                             X                                                                                                                                                                                           ",
"                                                                                                                X             X                                                                                                                                                                                     O                                     1 j ).x.W c.9.5 p l N N @.#.u.H.C.1.P @.H a F T S S S F N a N *                                                                           X                                           O         X     X   X 2 2 o o 4 ; ; ; # ; 2 l l G L o.q.s.p.l. .H +.6.a.#.1.W @.R j j L Y W 4     O                                           X                                                                                                                                                                                                                                                       ",
"                                                                                                                                                                                                                                                                                                            X           X                               O O 4 t.I C w.J 5 l l V N Z 1.h.D.D.i.2.1.K l u y e e z a p z 5 X                                                                                   .                               X                       X X 4 1 - 4 4 4 # # 4 - 5 l N G R 1.q.s.G.D.y. . .<.@.q. .0.e.G V C Y W l                                                                             X                                       X                                                                                                                                                                                   ",
"                                                                                                                                                                                                                                                                                                                                          X           O @ @ m e.M M >.C l l l z z P 1.u.p.p.d.p.d.{ u p e : y k p V V ;                                     X                                                                                                     X   X # 7 2 2 4 j ; - o - : p V S P @.a.a.h.h.l.y.+.7.y. .T  .1.@.o.B B Y C o X                                                                                                                                                                                                                                                                                                     ",
"                                                                                                                                                                                  X                                                                                   X                                             X           X             O         - @ M W C Y B j l N p z Z F P y.A.p.p.d.#.P x k w a p a N K N X                                                                                   O   O                                           O           X X - 2 7 4 j - - # ; 2 5 z N F o.#.a.f.p.#.p.#.+.a.+.+.6.T o.@.S b T 0.2   X                                                     X                                                                                                                                                                                                                                             ",
"                                                                                                                                                                                                                                                                                  X                               O                               X O @ - m x.Y B C 7 7 5 p y V G G F o.y.X.@.+.O.D P u z N i G G L *                                                                                                                                 X   O     X           X 4 5 4 4 & - ; ; 4 p Z Z G { #.y.d.p.d.y.T @.+.T @. .@.l.@.S Z r.B                                                                                                                                                                                                                                                                                                       ",
"                                                                                                                                                                                                                                                                                                      X           O   O   O       X             X     O B rX`.I M j 2 2 * 8 i N S G Z G D H O.O.H  .D x i e z Z H 8                                                                                       X         +                 X                 X   X               O # 8 5 2 # 2 # * 2 5 p a z H o.+.d.d.d.p.H U H F Z Z F d.i.s.R @.S     O                                                                                             X                                                                                                                                                                                                   ",
"                                                                          X                                   X                                                                                                                                                   X                                                 O                             O 7 M @XsXk.C Y 8 5 2 * 3 l z a z a a z D o.D F { D a a F z G V o                                                                               O               O                                             X         X   X 2 7 2 # 2 > # * * 3 p p Z H #.y.a.7.q.H H Z F Z a F S l.a.q.6.U @                                               X             X                                                                                                                                                                                                                                       ",
"                                                                                                                                                                                                                                                                                                                          O                     @ 7 I ).mXx.I L >.5 5 ; 2 5 y p l 6 3 y a P F S D F a y Z Z M S 6 .   X                                                                                                                                   X           X   O X X # 8 7 ; > > @ # # ; 3 y y N F +.y.#.+.T F U 6.Z a G G q.j.i.q.S 8                                                                                                                                                                                                                                                                                                     ",
"                                                                                    X                                                                                                                                                                                                                                   O             X X   O > m v E @XoXY Y Y C M 5 * * 3 ; : * * 3 i 3 a H { F y i z G N G a .                                                                                                                                                     X       X   2 7 * > @ @ o # * : 3 6 a N G G @.#.@.@.U o.R G F H T #.J.K.0.B O                                                                                                                                                                                                                                                                                                   ",
"                                                                                                                                                                                                                                                                                                                                            O 7 7 7 I x.I e.E Y Y 8 8 2 : 2 ; * & + & = 3 e Z F i a a H S o.S 2                                                   X                   X         O                                                                         X     O O 8 4 # # X . o # ; : ; y a k Z G T o.#.W G Z G Z N o.@.J./.J.@.+                                                                                                                                                                                                                                                                                                   ",
"                                                                                                                                                                                                                                                                                                                                            O 2 7 B 9.B 5.x.I >.B 5 j 4 2 ; : o . & . # o 3 p 3 e 6 Z z V G a . . .               X                                                                                                 X                                               X 8 5 # @ @ . X o ; : 3 l p z N N S T S p 5 y Z F o.#.s././.i.6                                                                                                                                                                                                                                                                                                   ",
"                                                                                                                                                                                                                                                                                  X                                           O           O 2 m v Y E I x.9.I E l ; 5 4 ; : : ; o : * . * u y : : a G p 6 : ;                                                                             X                           X                                                     X         1 ; @ # O . X   o : : 4 4 5 z N l z 3 5 5 6 F F  .y.y.l.D.s.C X                                                                                                                                                                                                                                                                                                 ",
"                                                                  X                                                                                                                                                                                                                                                                         7 b B I M E 9.m 9.J 5 4 4 - * * 4 : 3 * : . . * : * : p y 3 * : @                                                                                                                                                                         v G 2   O X X . . # * : : : 3 5 3 3 3 3 6 i z a p.D.y.d./.K.s.#                                                                                                                                                                                                                                                                                                 ",
"                                                                                                                                                                                                                                                                                X                                                         O 7 M Y Y B t.B B 0.B 5 j 2 - ; : 4 3 5 e : $ o . & * ; ; * * * 5                                                                                                                                                                     O O O e.e.v O # o X X X o X # : 2 2 ; 3 4 : ; p z N  .D.L.d.y.K.G./.N                                                                                                                                                                                                                                                                                                 ",
"                                                                                                                                                                                                                                                                                                                                          O , B I M I 0.8 I R l 8 8 : # o 3 5 : : p 4 * o . . . . & . o p 5                                                                     X                                                                                               O > !.k.@XoX2 # o o .   X   X o o o : l l 5 j z p S o.M.d.a.u.0.s.K.W                                                                                                                                                                                                                                                                                                 ",
"                                                                                                                                                                                                                                                                                                                    O                     O 2 I E 7 B m 7 C M 4 5 4 2 # & ; : : : 4 : ; . X .     * . 3 B 5                                                                 O                                                                                               O O 7 _.k.5.gX`.B 7 ; # o o X X X o # o : 8 V l l 5 z p G d.'.a.+.7.#.w.<.;                                                                                                                                                                                                                                                                                               ",
"                                                                                                                                                                                                                                                                                              X                                           @ B W M 1 M 2 M B 7 2 2 ; - # # * * o o # o ; ;     . * o : 6 M 2                                                                                                                             X                                     I sX_.).nXoX5.I 6 o o o # o . o X o o o ; 4 l V V B a Z o.d.6.o.y.<.q.k.i                                                                                                                                                                                                                                                                                               ",
"                                                                                                                                                                                                                                                                                                                                          O I Y 7 7 8 7 E M 7 2 4 ; ; & * * . $ & . ; : * +   O . 3 3 3 B *                                                                 X                                                                                             X 2 `.oXj.sX@XE B C 7 ; o # 1 ; # X X o o o o ; * 8 V S l 4 a  .+.#.o.o.s.l.B       O                                                                                                                                                                                                                                                                                       ",
"                                                                                                                                                                                                                                                                                                                                        O 7 I I 7 m 2 7 C 7 > 7 ; - ; o o o * X . . . * * . o . * p 5 M M +                                                                                                                                                               @ ^.@X!.^.).E M W C 6 ; # # # o - ; o # o # 4 ; : ; 5 5 l 5 3 y F 0.T o.0.g.L .                                                                                                                                                                                                                                                                                             ",
"                                                                                                                                                                                                                                                                                                                                        O 2 B 7 v M 1 v v 1 - 2 ; o & o o - . . . . o * * + # # * 5 l l 8                                                                                                                                                           O   O I oX_.oXx.6.B b Y B 3 ; @ # 1 o ; ; - - & o ; ; * - o 3 z N y y Z q.y.W q.q.V                                                                                                                                                                                                                                                                                               ",
"                                                                                                                                                                                                                                                                                                                  X                       v v v I 7 7 M 2 1 - # ; # - o o # * . o & . # # & * * o 5 p G 2                                                                                                                                                               > `.!.t.e.I M C B B 7 2 2 2 # # ; ; - ; 4 ; ; ; p 5 ; ; ; p l 5 3 i o.1.@.1.@.V X   X                                                                                                                                                                                                                                                                                         ",
"                                                                                                                                                                                                                                                                                                                                        O b m B I 6 7 M 1 # 1 @ # * ; # ; 2 : o # o + . # 6 3 & * 6 6 b @                                                                                                                                                               e.!.W B M v 7 b v 7 7 2 4 4 - & - 4 ; - 4 : - 5 3 5 5 - : 3 3 5 e S G P R S L B X                                                                                                                                                                                                                                                                                             ",
"                                                                                                                                                                                                                                                                                                                                      X > 7 v B B > v 1 O - 2 # o . o ; ; 2 o X o . X . # 2 # . 6 y p p O                                                                                                                                                   O         > !.e.B 7 v 7 2 2 6 , 7 * - 5 4 o - ; - & - : 4 k l : 5 : : - ; l k k P N S z V l X                                                                                                                                                                                                                                                                                             ",
"                                                                                                                                                                                                                                                                                                                                      1 > 7 b C b > 7 > @ # # # O + o o @ o X X X . X o : * o * 6 y b N .                                                                                                                                                             8 0.U C M 2 2 6 8 2 2 2 ; - 4 4 - - ; ; : ; & : 5 k 5 3 ; : - & k N z F Z l V M -                                                                                                                                                                                                                                                                                               ",
"                                                                                                                                                                                                                                                                                                                                      @ , > b C 7 > v > @ # # @ * @ o X o X o o o o # ; : . . . * y b B O                                                                                                                             X                         X   @ 0.W C I 8 7 7 7 8 6 ; ; * o - ; 4 - - - ; ; - & ; : 4 ; o & - : 4 i y y p z V 5 X                                                                                                                                                                                                                                                                                               ",
"                                                                                                                                                                                                                                                                                                                                      @ 1 2 B C 2 2 B # # # # > # @ # . X o X + . o o ; o . $ ; * p N l .                           X                                                                                                                             O 2 k.C M 8 4 2 6 2 2 2 * # # o & - ; ; - & o - - - - - - o o o & o ; 3 3 3 8 5 5 #                                                                                                                                                                                                                                                                                                 ",
"                                                                                                                                                                                                                                                                            X                                                       X - @ 7 B B > 2 M > @ # > @ #   + X X o # + O o o X X . - . * 5 7 l                                                                                                                                                             2 0.C 8 8 ; , 2 - - # @ # X o o o - - - o - o o o - ; o o X o . - o o ; 5 8 2 #                                                                                                                                                                                                                                                                                                   ",
"                                                                                                                                                                                                                                                                                                                                    O O > > v 8 > 7 5 X o # , X + X o X X + o + o # o X X . ; ; 5 : M 8     O                                         X                                                         X                                                   7 W C B 8 2 2 2 2 - # - # - X X o o - - & o o o X - - - o X X o ; # o - ; ; #                                                                                                                                                                                                                                                                                                     ",
"                                                                                                                                                                                                                                                                                                                                    X @ @ 2 B 7 2 8 2 + X @ # X X o o X X + @ o # * o   X X o : 2 2 7 >   O               X                                                                                                                                         7 C M B M 5 * 2 ; - # o # o o X # # # - - o o & - X X o o X X X o ; # ; # # X   X                                                                                                                                                                                                                                                                                                 ",
"                                                                                                                                                                                                                                                                                                                                    O > > 7 8 2 2 M 7   @ @ @ X X X X X X X @ # X - o X o o - o # > 2       X                 X                                                                                                                                     4 C B 8 8 l 7 2 # - # o o # o o o o o - & X . X X X X o o o X   X X O # # X       X                                                                                                                                                                                                                                                                                               ",
"                                                                                                                                                                                                                                                                                                                                    @ 1 X 1 7 7 m v 7 + O X o X   X X   X + & # - o X o o - - # # 5 #                                                                                                                                                           X   C Y C p 5 8 2 ; 2 # - # # o o o o o - o X X o . X X X   X X X X X o # # #                                                                                                                                                                                                                                                                                                         ",
"                                                                                                                                                                                                                                                                                                                                  O O     O 7 7 B v O O o o @ X X X .     o # # # o   X X # - X @ # X                 X                                                                                                                                         X O Y Y T l 5 8 2 # - ; o # - X . X X X o X X X o X   X   X   X X   X # 4 #                                                                                                                                                                                                                                                                                                           ",
"                                                                                                                                                                                                                                                                                                                                O       O @ 2 7 7 7 O > + @ + X X X X X + o + o o X X X o o # 1 2 X                           O                                                                                                                     X       X   X 7 W C G M 5 4 # 2 - # o o o X o X X X X X X X X X . X X X o X X X o ; 1 O                                                                                                                                                                                                                                                                                                           ",
"                X     X                                                                                                                                                                                                                                                                                                                   O 2 2 7 2 # @ X X # X . X X . X o X o # X X @ X # - 7 >     X       X   X                                                                                                                         X           X     X - z.0.C B 8 5 # o ; 4 o ; X X X   X   X X X X   X   X     .   X o * 1 - O   X                                                                                                                                                               X                                                                                                                                         ",
"            X                                                                                                                                                                                                                                                                                                                           O   1 7 M 4 @ o O o X X   X     o o ; ; o X o # 1 4 1 - X   X                                     X                                       X                                                               X O     X X C ).t.>.C J 5 5 - o * - o - X X   X X .   X X X X X X X X # o o o # # O                                                                                                                                                                                                                                                                                                                 ",
"                                                                                                                                                                                                              X                                                                                                                   O   X     1 v M 7 X X o X X X X X X X o o # # o     # 1 2 #                                     O X                                                                                                             O X   O 1 e.@X^.R >.J M 2 - o ; o X X         X X X     o X   X X . o # # # @ X                                                                                                                                                                                                                                                                                                                     ",
"                                                                                                                                                        X             X           X                                                                                                                                                     X O 7 8 v 2 X X o X X X .   X o X o # o X X O 2 7 #   X                                                                                                                                                   X     B @XuXt.R C >.Y 4 - ; ; o X X X X X X X   X X X X X X X X o # o @ +                                                                                                                                                                 X                                                                                                                                                         ",
"                                                                                                                                                                                                                                                                    X                                                                     O j 8 8 2 X X @ X X X . X X X X o ; X O @ @ 2 1 O O   X                                                 X                                                                 O                           X X X >.yXyXk.M 4 8 L 7 - - 4 - o X X X   X X X X o o X   X   O + # * # O                                                                                                                                                               X                       X                                                                                                                                     ",
"                                                                                                                                                                                                                                                                                                                                          O 2 m v 1 O - # X X X o X X o X X o X # @ > 2 O                                             X                                                                   X                       X   O     X O   4 R.8XR.e.C 2 2 Y C # X j 2 X o o X   X X X X o o X X X X   X X o @ X                                                                                                 X                                                 X                         X                                                                                                                                                 ",
"    X                                                                                                                                     X                                   X                                                                                                                                                     O X X   m M M 2 @ - o X   o o o o o X X o X O @ 7 7 X                                   X   O                                                                                                 O       X X   - oXgXR.>.V - - C >.4 o 2 V 4 o o X X X X X X X - X X X X +   X # 2 O                                                                                                                                               X   X     O                                                                                                                                                                       ",
"                                                                                                                                                                                                                                                                                                                                          O 7 M v 1 @ # X X X X + X X X X X * o @ 2 7 2 X   O       X                                                                                                                                           t.oXt.J J - - l W l - j V j - X - X X X . . X X X   X o @ #   o @ O           O   X                                                                                                                                                                                             X                                                                                                                     ",
"X                                                                                                                                                                                               X                                                                                                                                         X 1 j 7 4 @ - X X X . X . X X X @ ; # O 7 7 X                                                                                                             X                                 O     X 2 k.B j j - X ; 1.Y ; 4 R V 2 X - X X X X X X . X +   X o X X X - @   X                                                                                                                                                   X                                                                                                                                                                             ",
"                                                                                                                                                                                                                                                                                                        +                   O       X   O O 4 j 8 1 1 # X o o .   X X   X X 4 2 7 2 # X       X     O                   X                   O                                                                                                 C >.j m 2 4 B R Y j j L C 5 X X - X X X X X   X   X @ o @ @ @ X X X                                                                                                                                                                                                                                                                                                                                     ",
"                                                                                                                                  X                               X                                                               X                                                                                                   X   X 7 B 7 > # #   +   X X X + X X X 2 - 7 # X   X                                                                                                                                                 X   j C 8 2 - 8 k.>.l L R C 4 - X X X X . . X X X X X X O   # # @ O                                                                                                                                       X                                                                                                                                                                                                 ",
"                                                                                                                                                                                                                                                                                                                                            7 m 1 # 2 @   X X X X . #   X # 2 # O O                                                                                                                                                         X 7 j - - C ^.z.s.1.>.5 j # - X X X X X X X     o . @ @ # # O                                                                                                                                                                                                                                                                                                                                             ",
"                                                                                                                                                                                                                                                                                                                  X   O               X O O 8 8 1 # 1 # X X   X   # o   X # ;   @                                                                                                                                                           X 2 7 2 5 R.+X@Xc.L l - o - o X . X X X X X . X   X   @ > @ O X                                                                                                                                                                                                                                                                                                                                           ",
"                                                                                                                X                                   X                                                                                                                                                                                   O @ v j > @ 1 @ . + X   . o o X X # # X       X                                                                                                                                                       X 5 - 0.rX!.k.l j 5 4 - 4 # X X X X o X X . X   o > # X       O                                                                                                       X                               X                                                                                                                                                                                                 ",
"                                                                                                                                                                                                                                                                                                                                      X     v 7 @ # >   X   X X @ o X X   - 2 X                                                                                                                                                               X 1 # k.yXt.m 1 ; - - & - # o X X X X o X   X X o , O                                                                                                                         X     O                 X                               O             X                                                                                                                                                   ",
"                                                                                                                                                                                                                                                                                                                              X       X O M M 1 # X #     X X X X # o   @ 2 6 + O O                                                                                                                                                             # - r.x.B 1 - - - - & o X X X X X . X X + + o o         O         O                                                                                                                                                                                                                                                                                                                                   ",
"                                                                                                                                                X     X                                                                                                                                                           O               X   X @ r.B 2 # X   X       X X . @ O # 2 2                                                                                                                               X         O                   X     X j x.>.4 # o o - o - X X   . . X     O X X X                                                                                                                                                                                                                                                                                                                                                         ",
"                                                                                                                                                                                                                                                                                                                                      X k.e.8 7 # X   X   X X     @ # O # 6 2                                                                                                                                           X                     X   8 x.C - 2 # X X - - X   X   X X + X X + # 2 .       X                                                                                                                 X                   X                                                                                                                                                                                                         ",
"                                                                                                                                                                                                                                                                                                                          O O       X B oXI 1 1 X X       X   X   # @   # 2 7 X                                                           X               X                                                         O                             - R 5 - 2 # o X o X X X   X . X   X X # M C X                                                                     X                                       X                                                                                                                                                                                                                                         ",
"                                                                                                                                                                                                                                                                                                            X                       X R.9.m m 7 O   X   X   X   o * # X # p 8                                                                                                                                 X           O                       X M j - - # X X X   X +   X   X   X o # M C #                                                                                                                                                                                                                                                                                                                                               X       ",
"                                                                                                          X       X                                                                                                                                                                                                       X     X X e.k.J m E l X         X .   X ; o X ; l p +       X                                                                                                                   X                                     X   2 j o o o o X o X X X X X X   X X ; - M J j o                                                                                                                                       O                                                                                                                                                                                                             ",
"                                                                                                                                    X                                                                                                                                                                     X                       4 ).4 7 B E 7   X X o . X .   X ; ; # 2 4 8 X                                                                                                                               X                   X                 X 8 4 - # X X X X X   X o X X X X 2 2 5 >.L 4 X X                                                                                   O         X                     X       X                       X           X                                                                                                                                                                                 ",
"                                                                                                                                                                                                                                                                                                                                X t.0.4 7 Y >.- X X X   o X   X X # o - j 5 p X                                                                                                                                                     X                 2 4 - - o X o X X X X o o X - X # ; 7 V B 8 X                                                                                                                                                                                                                                                                                                                                                   ",
"                                                                                                                                                  X                                                                                                                                                 X                     X   X @ 0.j j m >.B #   X   X         o - X o 5 y 3 +                                                                                                                                                                   X   X 2 4 - o & - - o o # o o # o # # ; j C l M 2                                                                                                                                                                                                                                                                                                                                                   ",
"                                                                                                                                                                                                                                                                                                        O               X     X # m 4 7 j Y 5 X   + o X .   X   X - o o 8 5 2                                                                                                                                                                       X   - j - X o & - X o o o o o X @ ; 2 8 V B 5 4                                                                                                                                                                   X                                                                                                                                                                               ",
"                                                                                                                                                                                                                                                                                                                                X 7 m 1 L R ; X @ + X       . X . : * X # 2 2                                                                                                                                                 X                         X - 4 - - o X - - o o o   X + ; ; * M <.Y 8 o                                                                                                                                                                                                                                                                                                                                                 ",
"                                                                                                                                                                                                                                                                                                                              X @ B B 1 Y J ; - o + X   X X X . . * . . # 6 p                                                                                                       X                                                                   X X 4 4 - - o - - X o o X + o # 2 2 l E E j o                                                                                                                                                                                                                                                                                                                                                 ",
"                                                                                                                                                                                                                                                                                                                  X         X   7 9.B >.r.j 5 3 o # #     X . . . : * o * 5 6                                                                                                                                                         O                     o 4 ; o X - o X X X X   X + o # # M l B j X                                                                                                                 X                                                                                                                                                                                                                             ",
"                                                                                                                                                                                                                                                                                                                            O X 7 E Y ).0.l 4 - & - - & # - o o o p : X * 3 2                                                                                                                                                                                 4 8 # # # # # o o X X o & o o o 4 j C V o   X                                                                                         X                                                                                                                                                                                                                                                 ",
"                                                                                                                                                                                                                                                                                                                              O 4 x._.w.C 5 4 - ; - - ; : ; o : * p : * ; e 5                                                                                                                                       X                                     O     7 1 X   X - - o X - X o X * 2 ; ; l V j X                                                                                                                                                                                                                                                                                                                                             ",
"                                                                                                                                                                                                                                                                                          X                                     B oX!.V 5 4 4 - 4 o & o o $ . ; : * & * : N 3                                                                                                   X                                                                     X         # 2 #   X X X o o o o o o o ; ; ; l V j o                                                                                                                                                                                                                                                                                                                                             ",
"                                                                                                                                                                                                                                                                                                        X                   O O J ).9.B z j & - - - # * ; . . & o * * $ : N ;                                                                                                                                                                                     > * X X . . X X X o # ; ; 2 ; 5 z G C 5 X                                                                                                                                                                                                                                                                                                                                           ",
"                                                                                                                                                                                                                                                                                                                  O           + W j.C l l ; 2 - 3 * : 4 5 e : * % * * * 5 p X                                                                                               O                                                                                     @ 2 # . o X o X . X o o + o 2 z W J l l #                                                                                                                                                                                                                                                                                                                                           ",
"                                                                                                                                                                                                                                                                                                                        X     7 ).e.N N j ; 4 # o ; 4 z k e y : p e : y M : X                                                                                                           X                                                                 O         @ 2 - X o X X X X X X   X # - V B j B l O                     X                                                                                                                                                                                                                                                                                                                   ",
"                                                                                                                                                                                                                                                                                                                            O B !.E N B p 3 ; o : : y z u z e e e 3 = 5 3 X                                                                                                                                                                                           ; X X o o X + X     X o - - j l C M N # X                                                                                       X                                                                                                                                                                                                                                               ",
"                                                                                                                                                                                                                                                                                                          X         O       @ t.j.Y Y 5 p 5 ; ; 5 * i k : V p : w y y *                                                                                                                                                                                 X             @ ; o o o o # o X X X X o 4 ; 5 K C G B *                                                                                                                                                                                                                                                                                                                                       ",
"                                                                                                                                                                                                                                                                                                                          O O 6.5.b B 8 3 2 8 5 6 z @. .Z y y e y z y                                                                                                                                                                                                 X 7 - @ @ # # o X X o o ; l j 2 B C l V j @                                                                                                                                                                                                                   `.`.                                                                                                              ",
"                                                                                                                                                                                                                                                                                                X             X   X   O   > v C U Y S 2 5 p 3 3 : N q.#.z y i y p i :                                                                                                                                                                                             X     O 4 # # @ # : # o o # * 4 V 4 2 8 C Y B l X             X                                                                                                                                                                                                 v rXrXM                                                                                                             ",
"                                                                                                                                                                                                                                                                                                            X           O v b I 6.Y b 7 : 5 3 * : * S z = a : : p y .                                                                                                                                                                                                     > # @ ; @ 2 2 o @ # # 2 B l 2 j C <.V p 2                                                                                                                                                                                                               r.rXrX0.                                                                                                            ",
"                                                                                                                                                                                                                                                                                            X                             v v E W b b b l l z y 5 G G k z 3 y i i 6 .     .                                                                                                                                                                                                 2 * - # # 2 - o # # # 2 M 2 4 l K J B C 7 X   X                   X                                                                                                                                                                                   `.rXrX+X                                                                                      X                     ",
"                                                                                                                                                                                                                                                                                                                      O O M I j.e.p N 8 M b G 8 y H T z Z a e y y .                                                                                                                                                                                                         ; 2 o # # 4 4 o X o # 2 M B j V G 5 p C Y #   X                                                                                                                                                                                                     v rXrXrXrXM                           X                                                                               ",
"                                                                                                                                                                                                                                                                                                                      @ 7 7 0.x.I b 5 p b 6 p L R V a a i 5 3 y :                                                                                                                                                                                                             2 o - o - ; X - X 2 # , J w.l V S T B Y J #                                                                                                                                                                                                       k.rXrXrXrX!.                                                                                                          ",
"                                                                                                                                                                                                                                                                                                                      X > 6 0.W G 6 b Y C p 8 G U F x a a 3 i y *                                                                                                                                                                                                             2 4 - ; # - - o o ; # 2 B k.V p @.s.Y V J j                                                                                                                                                                                                     # rXrXrXrXrXrX2                                                                                                         ",
"                                                                                                                                                                                                                                                                                                                      O @ 5.c.G v , 2 B M p 6 l y p z : : y y p X                                                             X                                                                                                                                           X   @ 5 # ; # X ; - - - 1 - 4 T Y 8 C e.<.0.L J #                                                                                                                                                                                                   k.rXrXrXrXrXrXr.                                                                                                        ",
"                                                                                                                                                                                                                                                                                          X                           , Y ).l.M 8 M N 8 l * p S N y z u 3 e 5 - X                                                                                                                                                                                                             O 4 2 # # X - 4 o # # : 2 S w.B l l >.g.z B B X X                                                                                                                                                                                             > rX@XrXrXrXrXrXrXv                                                                                                       ",
"                                                                                                                                                                                                                                                                                                            X         b 6.(.E 6 M G C 8 5 Y l l y y : 5 p 5 5 .                                                                                                                                                                                                                 @ 4 4 o o - - - + @ # 2 4 >.C j S S z.1.z J j       X                                                                                                                                                                                       `.rXrXrXrXrXrXrXrX!.                                                                                                      ",
"                                                                                                                                                                                                                                                                                                                X   X M r.i.B p y V l : 5 T G Y p 3 l 5 4 p : X                                                                                                                                                                                                                   4 2 - # & ; ; # # ; 2 j B Y l l <.g.R.1.M B ; O                                                                                                                                                                                         9.rXrXrXrXrXrXrXrXrXrXY                                                                                                     ",
"                                                                                                                                                                                                                X                                                                                           X       7 ).(.@.H S 2 N B p 8 p G G : 2 5 5 e p o                                                                                                                                                                                                               X     - 4 2 4 o ; 4 ; - 5 2 4 l <.K j K >.z.e.J l C # X                   X                                                                                                                                                                 2 rXrXrXrXrXrXrXrXrXrXrX@X7                                                                                                   ",
"                                                                                                                                                                                                                                                                                                                X   Y |.'.G i M a V F p 6 < B N 5 : : 4 4 :                                                                           X         X                                                                                                                                 2 2 - ; o ; 4 ; # ; 4 j j Y >.z z K J V <.j C M     X                                                                                                                                                                               2 `.rXrXrXrXrXrXrXrXrXrXrXrX`.O                                                                                                 ",
"                                                                                                                                                                                                                                                                                                                  C _.l. .N B T L 6 6 6 8 S G 2 p ; * : l ;                                                                                                                                                                                                                       > 7 2 2 ; o 4 4 ; 2 4 4 4 z <.R l L >.J 1.R l Y *                                                                                                                                                                                   ).rXrXrXrXrXrXrXrXrXrXrXrXrXrX!.                                                        X                                       ",
"              X                                                                                                                                                                                                                                                                                           X X   1 ^.k.C @.T +.s.T p b y * N V o ; * o 4 l #                                                                                                                                                                                                                   X   O j 2 ; # # 4 8 - ; 4 4 j l Y L z S ,.K V ,.5 p 8 X                                                                                                                                                                               t.eXrXrXrXrXrXrXrXrXrXrXrXrXrXrXrXk.                                                                                              ",
"                                                                                                                                                                                                                                                  X                                                           O K.oXW a @.V U q.i a M 6 N 0.T * : : : p 5 X                                                                                                                                                                                                                       # j 4 2 # ; ; 2 - 2 7 4 4 5 S w.R V L V L w.1.l G 5                                                                                                                                                                             t.rXrXrXrXrXrXrXrXrXrXrX@XrXrXrXrXrX@Xk.                                                                                            ",
"                                                                                                                                                                                                                                                                                                              7 ).W p a 8 l P p B N C 3 E /.U , * 3 5 l 5                                                 X                                                                                                                                                                 X     O 8 4 # 8 5 2 2 O 2 2 2 : 3 N <.<.z l p l o._.R N W :                                                                                                                                                                       @ !.rXrXrX@XrXrXrXrXrXrXrXrXrXrXrXrXrXrXrXrX).>                                                                                         ",
"                                                                                                                                                                  X                                           X                                                                                         X O # Y G p B V z R N G T p p l Y z.p * < 8 V V 2                                                                                                                                                                                                       X                   7 8 5 8 8 @ @ @ @ 1 5 2 5 5 S i.<.l l l z i.1.4 T Y #                                                                                                                                                                   7 `.rXrXrXrXrXrXrXrXrXrXrXrXrXrXrXrXrXrXrXrXrXrX`.>                                                                                       ",
"                                                                                                                                                                                                                                                                                          O               + Y r.b 6 M T L z G S S b 2 8 e.g.5 ; & 3 V N 2                                                                                                                                                                                                                       X   2 M M B 2 # # X # 7 7 5 4 l z w.l.L 5 V 5 R z.<.W e.Y O                       X                                                                                                                                       E +XrXrXrXrXrXrXrXrXrXrXrXrXrXrXrXrXrXrX@XrXrXrXrXrXrX9.                                                                                    ",
"                                                                                                                                                                                                                                                                                                X         ; oX).e.C N S y G Z 8 a 6 b I l.T 4 & 5 M N M +                               X                                                                                                                                                                                       X   # l 7 v ; o * + # 2 l 2 ; l 5 R w.R k l l 5 0.).Y W G 2                                                                                                                                                           M ^.rXrXrXrXrXrXrXrXrXrXrXrXrXrXrXrXrX@XrXrXrXrXrXrXrXrXrXrX`.,                                                                                 ",
"                                                                                                                                                                                                                                      X                                                             X   * k.).L T b S b T 6.U Z B 6 8 @.r.p ; y 5 G N 5 X                                                                             X                                                                                                                                             1 M 8 ; ; o o ; o 4 7 7 8 4 l V <.i.R p 3 : p 0.C 7 p B # X                                                                                                                                                   1 t.rXrXrXrXrXrXrXrXrXrXrXrXrXrXrXrXrXrXrXrXrXrXrXrXrXrXrXrXrXrXrXrXt.>                                                                             ",
"                                                                                                                                                                                                                                                                                                        8 |.C ; b 6 < C T U F U b * 7 T E p 4 z S L B l X           X                                     X                                                                                                                                                                 X     X # v 4 # 2 X X o X - 2 4 8 : 4 R L 0.e.l 5 p p Y 0.l 5 L V o   X                                                                                                                                           b !.rXrXrXrXrXrXrXrXrXrXrXrXrXrXrXrXrXrXrXrXrXrXrXrXrXrXrXrXrXrXrXrXrXrXrXrXk.v                                                                         ",
"                                                                                                                                                                                                                          O                                                                         O   @.>.M l b b U 6.q.o.G M p 6 7 B B 2 5 4 z L l V 2                                 X                         X                                                                                                                                     O                     X     7 ; 2 ; o o X o 4 8 8 ; o ; M C B @.V 5 y p Y ^.L 5 V M ;     X                                                                                                                                   v e.+XrXrXrXrXrXrXrXrXrXrXrXrXrXrXrXrXrXrX@XrXrXrXrXrXrXrXrXrXrX@XrXrXrXrXrXrXrXrXrXrX`.0.M                                                                   ",
"                                                                                                                                                                                                                                                                                                  X   >.`.C S N < i 6. .U C a 6 * 2 p 6.M 7 j ; ; l N L M                                                                                                                                                                                                                             - 4 o - - o X X ; l 2 4 ; 2 5 B G R 1.V 5 M a R q.R R o.M :                                                                                                                                     oXrXrXrXrX@XrXrXrXrXrXrXrXrXrXrXrXrXrXrXrXrXrXrXrXrXrXrXrXrXrXrXrXrXrXrXrXrXrXrXrXrXrXrXrXrXrXoX                                                                ",
"                                                                                                                                                                                                                                                                                                    2 oXs.M p : 3 3 P p 3 p M 2 ; - l R j - 4 4 : l B C V                                                     X                                                                                                                                                                       X 4 - X X - o X # 7 ; ; - 4 4 C >.l W >.l 8 3 l <.q.o.V L W M .                                                                                                                                 oXrXrXrXrXrX@XrXrXrXrXrXrXrXrXrXrXrXrXrXrXrXrXrXrXrXrXrXrXrXrXrXrXrXrXrXrXrXrXrXrXrXrXrXrXrXrXoX                                                                ",
"                                                                                                                                                                                                                X                                                                                 X 0.r.L C B 3 6 #.H V N U p @ - - V C 4 l 5 ; 4 p L V L o                       X       O                                                                                                                                                     X                                 X X X - # o # ; # X # 7 8 7 2 2 ; l >.E L J j p N l V V L L G s.c.Y X                                                                                                                                 M e._.rXrXrXrXrXrXrXrXrXrXrXrXrXrXrXrXrXrXrXrXrXrXrXrXrXrXrXrXrXrXrXrXrXrXrXrXrXrXrXrXoXr.v                                                                 X ",
"                X                                                                                                                                                                                                                                                                               X C _.L V z 5 : N l.S l V B 7 # - 8 R L 8 l 8 ; 3 S T L W -                                                         X       O                                                                                                                           X                 X O         X @ - O - 2 1     6 8 7 l 4 - 4 L e.L V j 8 L V 5 l T k.L <.[.(.L # X                                                                                         X                                         M k.rXrXrXrXrXrXrXrXrXrXrXrXrXrXrXrXrXrXrXrXrXrX@XrXrXrXrXrXrXrXrXrXrXrXrXrX^.M                                                                         ",
"                                                                                                                                                                                                                                                                                              X j OX<.R <.p p N L.R i V B 5 ; 2 7 4 R B 4 B B 2 4 G L R >.-                                                   O X                                                                                                                                                     X         X         # # X # # X X 2 7 - 8 4 - 2 7 M L L B p p P N p M T L B 0.g.l.@.6                                                                                                                                       1 t.8XrXrXrXrXrXrXrXrXrXrXrXrXrXrXrXrXrXrXrXrXrXrXrXrXrXrXrXrXrXrX@Xk.>                                                                             ",
"                                                                                X                                                                       X                       X                                                                                                           X X z._.<.r.1.l : h.L.G M T Y y # 5 2 b Y 8 8 M B 2 5 V Y R R X                                                                                                                                                                                                                       X       # 1 @ # X @ @ 8 2 2 2 - - # 2 ; V L C L N S V 8 3 p N N V <.R <.z.J 2 X     .                                                                                         O           X                         > oXrXrXrXrXrXrXrXrXrXrXrXrXrXrXrXrXrXrXrXrXrXrXrXrXrXrXrXrX!.M                                                                                 ",
"                                                                                                                                                                                                                                                                                      X     O B R.V <.1.V k G K.H l a C C 7 X ; 8 E E 8 p B 5 5 2 l R w.R X                                                       X                                                                                                                                   X                       X             O # X   O o 7 b 8 1 2 8 2 2 2 4 5 B Y V V 0.w.N 5 l L K <.N l e.s.0.C O                                                                                                                                       0.rX@XrXrXrXrXrXrXrX@XrXrXrXrXrXrXrXrXrXrXrXrXrXrXrX@XE                                                                                     ",
"                                                                                                                                                                                                                                                                    X   X               X X - c.w.S <.1.S : l.L.S V G T S 5 @ 3 2 0.T 7 7 M C 5 5 M R >.B     X       X                               O                                                                                                         X                                     X                                     X         X 2 8 v 1 2 8 7 2 - j 8 j C l l R R.1.N p V V R C l G C T k.C ,                                                                                                                                       > oXrXrXrXrXrXrXrXrXrXrXrXrXrXrXrXrXrXrXrX@XrXrX`.7                                                                       X               ",
"                                                                                                                                                                                                                                                                                            8 w.z R l.V z k i.R N T P @.M < 5 # p 0.@.p p M B 2 5 B C W 8 X                   O                                                                                                                                                                             O                       X                 @ B 8 M 7 8 4 5 4 8 2 8 4 4 5 p M q.g.i.l 5 z p N p p L 5 0.T # U 5.8 X                                                                                                                                 > ).rXrXrXrXrXrXrXrXrXrX@XrXrXrXrXrXrXrXrXrX!.O                                                                                         ",
"                                                                                                                                    X                                     X                                                                                                   O         X O C 5 ; R o.5 3 p R k N G U B M 6 B M W R.L 5 p M l 2 - 4 j j 4 o                   X                                                                                                                                                                                                       X               2 I b 6 b M M 7 2 2 5 4 4 2 8 y V Y R f.>.l V j 5 4 z S 1.T I V j k.R.V X   O                                                                                 X                                             k.@XrXrXrXrXrXrXrXrXrXrXrXrXrXrXrX@XeXr.                                                                                            ",
"                                                                                                        X                                                           X                                                                                     O             X     O   O   O X j Y - l 1.S ; 8 % T F G F Z 6 p S G N g.E.T V T l j # X 2 4 j j o   X                                                                                                                                                                                                   X       X                 X         # M 7 > 2 7 v 5 2 2 5 j 4 8 2 N q.@.l J Y K z V k 4 l l g.a.y z 5 - Y >.J                                                                                                                 X                   k.rXrXrXrXrXrXrXrX@XrXrXrXrXrXrXrXt.                                                                                              ",
"                                                                                                                                          X                                                                                                                                       O   O X M l 4 <.w.p ; : N o.T G b B b 8 G G B s.K.C T R M 4 X X 2 4 j 4 O   X       X                     X                                                                       X                                                                           X                                         O           2 b 7 2 7 2 2 7 5 5 5 4 5 2 5 S 0.P z L R Y k V g.z ; ; S <.8 # l - 8 B 0.v                                                   X                                                                                 !.rXrXrXrXrXrXrXrXrXrXrXrXrXrX).                                                                                                ",
"                                                                                                                                                                                                                                                                                        7 C ; 4 R J 2 8 5 G @.S C N S 6 b N B Y (.g.l N V p 5 ; X o 4 2 -                                                       X                                                                                                             X                                     O                                 O 7 b B v l 5 8 2 2 2 l 5 8 M R T M 5 z e.<.V l R h.>.4 5 W R : - # V 7 B 5.C @                                                                           O                                                     @ oX@XrXrXrXrXrXrXrXrXrXrXrX`.2                                                                                                 ",
"                                                                                                                                                                                                                                                                    O           X     O C 8 X 2 L 4 2 4 l L R T W G N b p R G @.<Xz.S z p 5 3 o o # 4 5 @                                                                                                                                                                                                       X                     O               + 2 6 M v M B 8 5 2 2 4 2 5 G 0.H B p M T R z : 4 T XXK - l R 4 X   # 7 X B @.#                                                                                                                                   7 @XrXrXrXrXrXrXrXrXrXrXrX1                                                                                                   ",
"                                                                                                                                                                                                                                                                                      6 r.7 4 Y J 2 ; X C w.<.L U N 6 B T L G q.XXG.V l 5 l 4 X   X 5 2 X                                                                                                                                                                                                                             O                   2 7 2 7 M 8 7 8 4 4 5 l Y T B F y N y l C 4 ; 4 w.g.# ; L V X X   O 2 5 V M O                                                                                                                                   Y rXrXrXrXrXrXrXrXrXrX9.                                                                                                    ",
"                                                                                                                                                                                                                                                          X                     O O + E W 6 8 0.V ; ; 5 >.w.P R T N 6 M V T L z g.1.l p l L 5 o   X 5 #                                                                                                                                                                                                                                                   , 7 2 2 7 2 2 8 2 ; 5 l G N z R S L G k V p ; 5 l q.w.5 l B +       # M 5 I 7                                                                       X                                                             ^.rXrXrXrXrXrXrX@XoX                                                                                                      ",
"                                                                                                  X                                                                                                                                                                               2 t.6.T G q.<.l - & Y 1.T V P B y 6 8 M <.L z R R S V z V l o X @ 2                                                                                                                                                                                     X             O                   X                               O # 1 @ # - 2 ; ; 4 # : 2 6 V Z G y.L N p ; 5 2 V c.B # # @   X     # + 7 B X                                                                                                                                   v rXrXrXrXrXrXrXrX>                                                                       X           X                   ",
"                                                                                                                              X                                                                                                                                                 O 6.l.C M G @.G 4 o V i.g.Y P V l 4 5 l M C V V P @.z S V V V #   X ; X                                                                                                                                                                                               X                                                       O @ @ # 2 1 2 1 2 # @ ; p 6 * 6 Z Y T l X ; 2 2 0.V X X     X       @ # v                                                                                                                                       t.rXrXrXrXrXrXt.                                                                                                        ",
"                                                                                                                                                                                                                                                                              X b r.I b p @.R N 5 >.<.w.y.,.L p u 4 N l V w.<.S z.P z T L L z - X o -           X                                                                                                                                                                                                                                                   O @ O O X   o   X * 8 < # o * p 2 - * ; + 8 C X   X X           @ >                                                                                                       X                               2 rXrXrXrXrXrX-                                                                                                         ",
"                                                                                                                                                                                                                                                                          X @ Y t.T T r.a.6.6 a K h.1.G P V S l l 5 5 V <.E.<.L z.L K T G V 5 .   @ 2                                                                                                                                                                                                                             X                                               X X @ 2 2 o X   @ o - 1   O 2 Y 2                                                                                                                                                             !.rXrXrXrXt.                                                                                                          ",
"                                                                                    X                                                                                                                                                                                   # C 0.G T I Y !.s.C V l.R.P K G V V S 5 z 5 p <.z.h.q.i.z.1.G S z V 4     # 4                                                                                                                                                                                                                                                   X                                 - 2 X X X o o # @   , B 2   X         X                                                                                                                                               v rXrXrXrXb                                                                                                           ",
"                                                                                                                                                                                                                                                            X           C j.C i U 6./.6.b b y.K.s. .<.P V K l : : 4 l z.J.XXP @.K.@.P Z N G 3     # #                                                                                                                                                                                                                                                           O           X           X     o + . X   X X   O > O           X                                                                                                                                                   +XrXrXoX                                                                                                            ",
"                                                                                                                                                                                                                                                                O     * C b N b 6 U 6.N b 6.0.T S T R S V y 5 # * 3 i.w.g.l.H q.d.G S G G V 2 .                                                                                                                                           X                                                                 X                                             O                                   X         O     O     O                                                                                                                                                             e.rXrXe.                                                                                                            ",
"                                                                                                              X                                                                                                                                       O     X       O B j.E 6.U E a.b 6 a.|.T N V V p G G 5 4 * & 8 l.g.G.o.T l.i.G Z T G G &                                                                                                                           X                                                                                             O                                           O                                           X               X                                                                                                                                                   v rXrXM                                                                                                             ",
"                                                                                                                                                  X                                                                                                                 p @.U I T b 6.U b E .Xq.V G N B M B p * o o & V k.g.@.P i.l.#.G S P G S 2     X                                                                                                                                                             X                                 O                                                                 X                                                   X                                     X                                                                                                                     oX_.                                                                                                          X   ",
"                                                                                                                                                                                                                                                                  O C C 2 5 V L <.B l g.J.j.U b 6 Y B 5 *   X   2 E q.V N G G.G.F N N H G G 2         X                                                                                                                                                                                                                                                                                                             X                                                                                                                                                                                                                                                                                 ",
"                                                                                                                                                                                                                                                                  m >.2 8 4 C C V l N 0.o.r.a p N G B *   X *   * C 0.M 3 z q.d.G V a z l G ;                                                                                                                                                                                                                                 X                                                                           X                                                                                                                                                                                                                                                                                           ",
"                                                                                                                                                                                                                                                                O Y C 2 ; Y J j 8 l i.T @.C 8 p B V p #   X @ . * @.@.l 8 : @.K.H Z y a l l o                                               X                                                                                                                                                                                                                                                                                                                                                                                                                                                                                                                                                         ",
"                                                                                                                                                                                                                                                                2 B 2 2 j Y B 2 * M <.L R y 6 8 8 V M     # O   M <.R ; l y R s.P i p l l :       X                                                                                                                                                                                                                                                           X                                                                                                                                                 X                                                                                                                                                                                     ",
"                                                                                                                                                                X                                                                                             X B 7 # 2 2 C C # 2 2 W @.I 8 7 M 8 C 8 .   + o * <.k.c.R 4 p R o.S a 5 8 2 o                                                                                                                                                                                                                                                                                                   X                       X                                                                                                                                                                                                                                                                               ",
"                                                                                                                                                                                                                                                                2 @   X C B 2 X   B @.V p 5 8 B l 8 *   X O 7 M R `.G.<.5 l R R C V 6 .               X                                                                                                                                                                                                                                                                                                                                                                                                                                                                                                                                                                                               ",
"                                                                                                                                                                                                                                                                      @ M 7     O b C 2 2 7 < M 8 - X   X # C N L q.R z : p G B l p #                                                                                                                                                                                                                                                                                                                 X                                                                                                                                                                                                                                                                                               ",
"                                                                                                                                                                                                                                                                        @ X       6 7 2 2   7 b 5         # C j V V 5 p p ; p V p *                                                                                                                                                                                                                                                                                                                                                                                                                                                                                                                                                                                                                   ",
"                                                                                                                                                                                                                                                                                  2 7 @ + , # 2 O       O # v M T p 2 7 * 2 7 M 3                                                                                                                                                                                                                                                                                                                                                                                                                                                                                                                                                                                                                     ",
"                                                                                                                                                                                                                                                                                    O   + >   X     X     O 7 B G 6 * # # 8 l l #                                                                                                                                                                                                                                                                                                                                                                                                                                                                                                                                                                                                                     ",
"                                                                                                                                                                                                                                                                                    O                       M m 8 # # ; 2 v b ,                                                                                                                                                                                                                                                                                                                                                                                                                                                                                                                                                                                                                       ",
"                                                                                                                                                                                                                                                                                                            2 M 2 + O # @ 2 O                                                                                                                                                                                                                                                                                                                                                                                                                                                                                                                                                                                                                         ",
"                                                                                                                                                                                                                                                                              O                             O X                         O                                                                                                                             X                                                                                                                                                                                                                                                                                                                                                                                                                                                                       X       ",
"                                                                                                                                                                                                                                                                        O                                                                                                                                                                                                                                                                                                                                         X                                                                                                                                                                                                                                                                                                                                   ",
"                                                                                                                                                                                                                                                      X                   O                                                                                                                                                                                                                                                                                                                                                                                                                                                                                                                                                                                                                             X                                     X       ",
"                                                                                                                                                                                                                                                                                                  X     O                                                                                                                                                                                                                                                                                                                                                                                                                                                                                                                                                                                                                                       X     ",
"                                                                                                                            X                                                                                                                                             O                   X             X         X                   O                                                                                                                                                                                                                                               X                                                                                                                                             X                     X                                                                                                                                 X                                                     ",
"                                                                          O                                                                                                                                                 X                                     X                             X                                                                 X                                                                                                                                                             X                                               .                                                                     X                                                                           X               X   O                                                                                                                                                                         .                     ",
"X                               X                                 X                                                                                                                                                                                                   X                                                                                                               O                                                                           O                                                                                                                                 X                                                                                                                                             X                                                                                                                                       X                                                           ",
"                            O                                                               X                                                                                                                                                                                                                                                                                               X                                       X                                                                                                               X       X   X                                                                                                                                                     X                                                                       X       X                                                               X                               X                     X                 X       ",
"                                                                                                                            X                                                                                 O                                 X                                         X   X                               X                                     X                           X X                                                                                                                                                         X         X                       X                       O                                 X     X                                       X                                                                                                                                                                                                                   X                           ",
"                                                                                            X                                                                                                                                                                                                       X                             X                                                 X                                                           X                                                                             X                       X                             X                     X                   X       X             X                                                                                       X         X                                                                             O                                                       X                               X                         ",
"                                                    X                                                                                                                                                                           X                       O                     X             X                         X                                               X                   X                                                                                                       X                                                           X     X                             X X                                                   O                                                                                                                                                                 O                                       X         X                     X   O                                               ",
"      X                                                                                                                                                                                           O                     X           X                               X           X               X           X               X                                                                   X             X                                                                                                                                                                             X                                         X                             X                                   X                                     O                                                       O                                       X                                                                                   X                   ",
"    X               X                                                                                                                     X                                                 X                 X     O     X                               X                                                               X X                                 X                                                                                                                         X                             X                                 X   X                                 X               X               X                         X   X                                                                                                                                                                             X     X                                                               X           X                       X ",
"                                                    X                                     X                     X                                       X                   X                                                           O         X                           X   X               X X   X   X       X                         X X                 X                                               X                                                   X           X                             X                             X   X                       X             X                             X X   O                   O   X                   O     X                                         X                           O X                 X       X                                                                                                       X     X   O         X         X                   O           ",
"                                          X                 X                     X                                                                                               O                                                                                         X             X                           X           O X                                                                       X                             X                                                                 X                                                                       X   X               O                           X                                               X                                                                 X   O                 X                                   O       X                 X         X     O                   X                                                                     X ",
"                O                                               X             X                             X                                 X                         X                                                                                         O                                                         X                                                                                               O               X       X                                                                                                                                                 X           X                       X                                                 X             O     X                                                                                             X                                                                     X                                                 X               ",
"        O                                                                     O                           X                                       X               O                   X                 X                                                                 O                 O   X         X                                             X                                         O     X                         O         O     X       X                                                       O                                                                                                                                     O                         X               X                       X     X                                           O       X           X                 O                                                                           X   X                               X           X       ",
"                                  O                                                               O                                                                         X                                         O       X   X         X                                                                             O                       O                   O         .           X                           X                                       O           X                                 O                     X       X         X           O     O                                                                             X                                                 X                                                                                                                                                         O     X             O                                       X                       ",
"              X                       X                                                                         X                   X                                                         X             X                   X           X         X             X                                     X                         O                       O         X                             X   X                                   X                               X             O           X                   X                           X               O             X         X         X             O   X           X                             X   X   X               X               X                               X                                                             X                       X               X                 X       X                       X         X       X     X                   X     ",
"  O     O         X   O           X       O       X   O             X O               O           X         X       O               X       O                 X     X     X   X       X           O         X       X     O                           O                         X     O       X                 O         X   X         O       X           X             O X       O         O               X       O       X       X               O               X         O     O         X       X     X       X       X       O     X         O       O             X     X     X           X O     X   X             X       O       X       X       X       O               O     X         O       X   X   O O             O             X         X       O     X     O           X       O       O       X               O       X       O     O         X           X         X           O       X   O           O     X   X   O     X "
};
