/* XPM */
static char *result[] = {
/* columns rows colors chars-per-pixel */
"459 384 242 2 ",
"   c #010101",
".  c #0A0504",
"X  c #060806",
"o  c #0A0906",
"O  c #060709",
"+  c #090708",
"@  c #070908",
"#  c #0C0C0B",
"$  c #130404",
"%  c #190606",
"&  c #120907",
"*  c #120D0B",
"=  c #1B0C0C",
"-  c #0F100D",
";  c #12110E",
":  c #1A110F",
">  c #0E0E10",
",  c #120F10",
"<  c #1A0E10",
"1  c #0F1110",
"2  c #141412",
"3  c #1A1513",
"4  c #161815",
"5  c #1B1916",
"6  c #181818",
"7  c #1C1C1A",
"8  c #230C0C",
"9  c #290B09",
"0  c #310E0D",
"q  c #26110E",
"w  c #2A0E11",
"e  c #231414",
"r  c #2B1514",
"t  c #211917",
"y  c #271818",
"u  c #231D1B",
"i  c #2A1D1C",
"p  c #341010",
"a  c #331413",
"s  c #381616",
"d  c #331C1C",
"f  c #3B1B1B",
"g  c #1F201D",
"h  c #24211E",
"j  c #2A211E",
"k  c #36211E",
"l  c #1F1F21",
"z  c #251F20",
"x  c #381E21",
"c  c #1F2120",
"v  c #242422",
"b  c #2B2522",
"n  c #272825",
"m  c #2C2926",
"M  c #282828",
"N  c #2C2C2A",
"B  c #322524",
"V  c #3B2424",
"C  c #322926",
"Z  c #332D2A",
"A  c #392828",
"S  c #3A2D2C",
"D  c #2F302D",
"F  c #34312E",
"G  c #3A312E",
"H  c #352F30",
"J  c #2F3030",
"K  c #343332",
"L  c #3B3532",
"P  c #383737",
"I  c #3C3936",
"U  c #3C3B3A",
"Y  c #441C1C",
"T  c #48211F",
"R  c #411E20",
"E  c #432423",
"W  c #462727",
"Q  c #4B2425",
"!  c #432C2C",
"~  c #4B2B2B",
"^  c #562828",
"/  c #532C2C",
"(  c #43322E",
")  c #4C322E",
"_  c #492E31",
"`  c #532F30",
"'  c #433534",
"]  c #4B3433",
"[  c #423936",
"{  c #4B3A36",
"}  c #483738",
"|  c #443C3A",
" . c #4A3D3C",
".. c #533333",
"X. c #5B3434",
"o. c #563837",
"O. c #533C3C",
"+. c #5C3B3B",
"@. c #6B3936",
"#. c #623C3D",
"$. c #683939",
"%. c #3E403D",
"&. c #44413E",
"*. c #4A413E",
"=. c #54423E",
"-. c #5C413E",
";. c #66403F",
":. c #473F40",
">. c #5B3E42",
",. c #693E40",
"<. c #3F4140",
"1. c #444442",
"2. c #4C4442",
"3. c #474847",
"4. c #4C4946",
"5. c #4C4C4B",
"6. c #534544",
"7. c #5B4443",
"8. c #524946",
"9. c #5A4946",
"0. c #544C4A",
"q. c #5A4C4B",
"w. c #50504F",
"e. c #53514E",
"r. c #5B514E",
"t. c #545453",
"y. c #5C5452",
"u. c #5B5956",
"i. c #585858",
"p. c #5D5C5B",
"a. c #644343",
"s. c #6B4344",
"d. c #654847",
"f. c #634D4B",
"g. c #6B4C4C",
"h. c #764545",
"j. c #734C4C",
"k. c #63524D",
"l. c #6B524E",
"z. c #674E50",
"x. c #744F51",
"c. c #635553",
"v. c #6B5453",
"b. c #635956",
"n. c #6B5A55",
"m. c #6C5658",
"M. c #645C5A",
"N. c #6B5C5B",
"B. c #745454",
"V. c #7C5455",
"C. c #745858",
"Z. c #735C5B",
"A. c #7B5C5C",
"S. c #5E605E",
"D. c #63615E",
"F. c #6B615D",
"G. c #75625D",
"H. c #7B635E",
"J. c #5E5E60",
"K. c #695F60",
"L. c #785E61",
"P. c #646362",
"I. c #6C6462",
"U. c #6B6965",
"Y. c #6C6C6B",
"T. c #726463",
"R. c #7B6463",
"E. c #736966",
"W. c #7B6A65",
"Q. c #756B6A",
"!. c #7A6C6B",
"~. c #6F716E",
"^. c #73716E",
"/. c #7C716E",
"(. c #747473",
"). c #7C7472",
"_. c #777877",
"`. c #7A7976",
"'. c #7C7C7B",
"]. c #845A5A",
"[. c #83615F",
"{. c #845C61",
"}. c #856665",
"|. c #836C6B",
" X c #8B6C6B",
".X c #946B6A",
"XX c #84726C",
"oX c #8B726E",
"OX c #876E71",
"+X c #996F71",
"@X c #837573",
"#X c #8B7473",
"$X c #857876",
"%X c #8C7A75",
"&X c #847C7A",
"*X c #8B7B7B",
"=X c #967776",
"-X c #937C7B",
";X c #A37A7B",
":X c #87817E",
">X c #96847B",
",X c #9A847E",
"<X c #7D7E80",
"1X c #977E81",
"2X c #848382",
"3X c #8B8583",
"4X c #8B8A88",
"5X c #938483",
"6X c #9C8583",
"7X c #9D8B84",
"8X c #988B89",
"9X c #8E908F",
"0X c #96928D",
"qX c #949594",
"wX c #9C9A97",
"eX c #A48985",
"rX c #A48C8B",
"tX c #B08D8E",
"yX c #A7948C",
"uX c #A99894",
"iX c #B59C97",
"pX c #A8A29C",
"aX c #B7A49B",
"sX c #B5A59C",
"dX c #BAA99E",
"fX c #A8A7A5",
"gX c #BCACA2",
"hX c #B8A9A4",
"jX c #B8B1AB",
"kX c #B9B8B6",
"lX c #C09E9D",
"zX c #C2ADA6",
"xX c #C3B2A6",
"cX c #C4B5AA",
"vX c #CAB8AC",
"bX c #D1BAB3",
"nX c #C8C2BC",
"mX c #D5C6BA",
"MX c #C8C8C6",
"NX c #D8D0C8",
"BX c #D7D6D5",
"VX c #E4DBD4",
/* pixels */
"                                                                                                                                                                                                          X         X                                                         X                                   X           X                     X                                   X                               X                                                           X                       +                                                                     X                             X       X                         X     X                       X                                 X     X                               X                         X                                                                       X                                                                                           ",
"                                                                                                                                                                                                                  X           X X                                                                                                                   X                                                                                                 X                     X                                                                                                             X                                                       X                                     X                                                                                         X   X                                                           X                                                                                                   ",
"                                                                                          +                                                                                                                                                               X                                                                                                                                                         X     X                               X                         X                 .                                                             X     X       X                                                               X       X X                             X               +               X                       X                                 X                                                                                                                                                                 ",
"                                                                                                                                                                                                                                                                                  X       X                                                                                           X                       X                                                                           X                                                                 X                       X       X           +                                                                                                           X                                                                 X                                                                                                                                                               ",
"                                                                                                                                                                                                                                                    X                                                                   X                     X                                                                                                     X                                         +   O                                                   X                                                                   X                               X                       X   X                                                                   X                                                         O                                                                                                                                 ",
"                                                                                                                                                                                                                                                                                                                                                    X                                   X                     X   X                                               X                                     +                                                                             X           X                                         X         X                     X                                     X             X                                                                                                                                                                                                                     ",
"                                                                                                                                                                                                                  X                                                                                                               X                                                 X                                                             X                                                                                                                             X X X                         O     X   X                                 X                               X                   +                                                       X                                                                         X                                                                                                     ",
"                                                                                  O                                                                                                                                                                                                                                                           X                 X                                                                                                                                                                                                             X           X       X             X                         X                                         X       X                                                                                     X O                                                                                                                                                                 ",
"                                                                                                                                                                                                                                                                                                                  X                                                               X                             X                                                                                                                                                                         +             @                         X           X                       X                                             X                                                             X                                                                                                                                                                   ",
"      X                                                                                                                                                                                                                                                                                                                                                                                               X X                             X                     X                 +                                                   X                                                                                                                           X                                                   X     X                                                   X                                                                                                                                                                         ",
"                                                                                                                                                                                                                                                                                                                                                                                                                                                                                            +                                                           X                                                           X                           X                                                             O                                                                                     X                                                                                                                                                 ",
"                                                                                                                                                                                                                                                                                                          X                                                           X   X                                                           X                                                           X                                                                   X                           X                                   X                                               X           X                               X     X                         X                                                                   +                       X                                                                                       ",
"                                                                                                                                                                                                                                                                            X                                                                                     X   X                             X                                                       .                                                                                                       X         X                                                                                   X X                                                                                             X         X                                                                                                                                                                         ",
"                                                                                                                                                                                                                                      X                           X X                               X   X                                                                                                                                                                                                 X                                             X                                                                     X X                         +                             X X X                                         X     X                                                                                                                     X                                                                                   ",
"                                                                                                                                                                                                                                                                                X                                                                                                               X                                 X                                 X                           X     X                     +                                                                                                           X                         X                 X             X                             X                                             X                                                                                         X                                                                             ",
"                                                                                                                                                                                                                                  X +                                                                                                                                             X                                                                                                                       +                       X                                                 .                                                                                                                                                                                                           X                                                                                                                                                     ",
"        X                                                                                                                                                                                                                                                                                                                                                                                                                           O                                                 O               X             X               O                                                                                 +                                                                                                                                                                                                                                                                                                                               ",
"                                                                                                                                                                                                                                                                                                                                                                                                                                                                                                X         X                       O                       X                                                   X                                                                                                                                                                                                                                                                                                                                       ",
"                                                                                                                                                                                                                                                                                                                                                                                                                                                                          X                                       X                     O       O                                                                                                                                                   X                                                                                                                                                                                                                                                 ",
"                                                                                                                                                                                                                                                                                                                                                                                                                                                                                                                                              X                                                                                                             O                                                                                                                                                                                                                                                                                         ",
"                                                                                                                                                                                                                                                                                                                                                                                                                                                                                                                X             X             X                                                                               O                                                                                                                                                                                                                                                                                                                         ",
"                                                                                                                                                                                                                                                                                                                                                                                                                                                                                  X                                       X     O                 X                                                                                                                                                                                                                                                                                                                                                                                                   ",
"                                                                                                                                                                                                                                                                                                                                                                                                                                                                              X                               X                         X             O                                                                                           O                                                                                                                                                                                                                                                                                                   ",
"                                                                                                                                                                                                                                                                                                                                                                                                                                                                                                                X   +                   X                                                                                                                                                                                                                                                                   X                                                                                                                                         ",
"                                                                                                                                                                                                                                                                                                                                                                                                                                                                                                            X X   X         +                   X +                                                                               +   X                                                                                                                                                                                                                                                                                                               ",
"                                                                                                                                                                                                                                                                                                                                                                                                                                                                                                        X   X X X   X           X   X                                                                                                                                                                                                                                                                                                                                                                                                                 ",
"                                                                                                                                                                                                                                                                                                                                                                                                                                                                                            X   X   X       X - v %.i.P.S.t.e.L t & .   @                         X                                                                                                                                                                                                                                                                                                                                                                                   ",
"                                                                                                                                                                                                                                                                                                                                                                                                                                                                                                X     X 1 &.`.fXjXjXfXjXhXjXjXhXpX0XE.N o . .                 X                                                                                                                                                                                                                                                                                                                                                                                       ",
"                                                                                                                                                                                                                                                                                                                                                                                                                                                                                            X X     ; t.jXMXkXjXsXwXwXwXpXpXpXsXsXhXhXpX0X*.&       .                                                                                                                                                                                                                                                                                                                                                                                                 ",
"                                                                                                                                                                                                                                                                                                                                                                                                                                                                          O         X           X %.fXBXkXjXfXwX0XwXyXpXpXsXsXsXsXdXhXsXsXjX7Xj           X                                                                                                                                                                                                                                                                                                                                                                                           ",
"                                                                                                                                                                                                                                                                                                                                                                                                                                                                                          X X 2 '.BXnXkXpXpX0X0X0XuXpXhXsXdXxXxXgXzXdXdXsXdXgXpX8.  .                                                                                                                                                                                                                                                                                                                                                                                                 ",
"                                                                                                                                                                                                                                                                                                                                                                                                                                                                                        X   n kXBXkXpXwXwXwX,XwXyXuXsXgXgXgXxXxXvXvXxXxXdXgXdXjXcXE..                                                                                                                                                                                                                                                                                                                                                                                                 ",
"                                                                                                                                                                                                                                                                                                                                                                                                                                                                                      + X v nXBXkXfXqX9X`.>X>X>XpXpXdXdXdXxXdXxXxXvXxXxXxXdXdXdXxXxXW.- X                                                                                                                                                                                                                                                                                                                                                                                             ",
"                                                                                                                                                                                                                                                                                                                                                                                                                                                                                X       M MXMXkXfXwX0X:XXX>X>X>X>X>XyXyXsXdXdXdXxXxXxXvXxXdXdXxXxXdXnXU.                                                                                                                                                                                                                                                                                                                                                                                              ",
"                                                                                                                                                                                                                                                                                                                                                                                                                                                                                X   O 1 fXBXkXwX0X:X$XQ.G.W.:X>X,XpXyXdXdXdXdXxXvXvXvXvXvXxXdXdXxXjXvXcX&.X X X                                                                                                                                                                                                                                                                                                                                                                                       ",
"                                                                                                                                                                                                                                                                                                                                                                                                                                                                              X X X # ~.VXMXjX4X3X/.F.b.l.G.:X[.>XdXyXdXyXdXdXdXvXvXvXvXmXvXxXdXcXcXnXcXjXg X X                                                                                                                                                                                                                                                                                                                                                                                       ",
"                                                                                                                                                                                                                                                                                                                                                                                                                                                                            X X X X D BXBXnXwXwX`.E.n.F.n./.>X:X>XyX,XdXsXdXxXxXxXvXmXmXmXvXxXdXxXjXnXcXnX>X; X                                                                                                                                                                                                                                                                                                                                                                                       ",
"                                                                                                                                                                                                                                                                                                                                                                                                                                                                                X X 9XBXkXfX9X>XF.k.r.D.n.n.G.:X>X>X>X,X>XxXdXxXvXvXmXmXNXvXxXxXxXdXcXvXnXNX&.X                                                                                                                                                                                                                                                                                                                                                                                       ",
"                                                                                                                                                                                                                                                                                                                                                                                                                                                                            X   @ D BXMXpXqX`.U.u.r.=.=.-.k.F.G.>X>X>X,XsXxXdXdXvXvXvXmXVXmXvXxXvXxXnXvXcXvXwX-                                                                                                                                                                                                                                                                                                                                                                                       ",
"                                                                                                                                                                                                                                                                                                                                                                                                                                                                              O @ qXBXkXfX2X/.u.r.b.=.-.k.n.n.W.>X>X>X,X>X,XyXdXxXxXdXmXVXmXmXvXdXxXnXnXjXjXnX%.+                                                                                                                                                                                                                                                                                                                                                                                     ",
"                                                                                                                                                                                                                                                                                                                                                                                                                                                                      X X   X O M BXMXkXpX~.D.4.4.8.=.9.n.n.G.H.>X>X>X>X>X,XdXdXxXdXxXmXVXmXvX,XdXxXvXvXgXjXnX`.                                                                                                                                                                                                                                                                                                                                                                                      ",
"                                                                                                                                                                                                                                                                                                                                                                                                                                                            X   X           X X i.VXkXqXwXF.u.r.=.8.k.G.-.k.G.n.G.n.>X>X>X>XdX,X,XdXmXVXVXmXxXvXdXdXvXmXpXdXjXwX;                                                                                                                                                                                                                                                                                                                                                                                     ",
"                                                                                                                                                                                                                                                                                                                                                                                                                                                                            X O 2XMX9X9XfXE.b.b.4.9.n.W.k.n.H.W.n.H.>X>X,X,X,X,X,XxXVXVXmXvXvX,X,XdXdX,X,XpXdXjXj                                                                                                                                                                                                                                                                                                                                                                                     ",
"                                                                                                                                                                                                                                                                                                                                                                                                                                                                              # kXMX4XY.fX4X8.r.=.k.-.k.l.n.k.G.n.H.XX>X>X,X,X,X>XxXmXvXxXxX,XdXvX,XxX,X,X,XdXnX*.                                                                                                                                                                                                                                                                                                                                                                                    ",
"                                                                                                                                                                                                                                                                                                                                                                                                                                                                X   X         2 MXkX~.D.wX4X*.G 8.n.=.r.n.G.;.-.k.n.H.:XXXXX>X>X>XdXvXxXdXxXdX,X,X>XxX>X>X>XsXnXb.                                                                                                                                                                                                                                                                                                                                                                                    ",
"                                                                                                                                                                                                                                                                                                                                                                                                                                                                              h nXkX:Xw.D.:X| G &.k.=.=.n.>X:XW.k.l.H.G.n.H.>X>X>X>X,X,X,XdX,X>XvXmXxX>X>X>XsXxX$X              +                                                                                                                                                                                                                                                                                                                                                                     ",
"                                                                                                                                                                                                                                                                                                                                                                                                                                                          X                   h kXkX_.&.&.uXD.[ [ *.( { k.G.,X,XXXG.n.W.k.>XdX,Xl.>X,XxXdX>X>X>XvXmXdX:X[.>XgXjX:X.                                                                                                                                                                                                                                                                                                                                                                                   ",
"                                                                                                                                                                                                                                                                                                                                                                                                                                                                X             v BXMX(.3.I 0X:XG [ { k.=.n.-.XX>X,X,X[.H.:X,XmX,X>X].>X,X>X>X>XdXmXvX,X>X>X>XxXgX0X:                                                                                                                                                                                                                                                                                                                                                                                   ",
"                                                                                                                                                            O                                                                                                                                                                                                                                                                                                                 M nXkX^.u.&.:Xu.C G { n.r.v.G.%X#X>XcX-Xk.R.uXzXzXiX X=XhXeX=XyXiXbXbXiX=X XoXyXiX:Xb.L                                                                                                                                                                                           +                                                                                                                                                                                     ",
"                                                                                                                                                                                                                                                                                                                                                                                                                                                                            u Y.MX0Xe.*.U.:X%.G C { 8.{ =.G.7XyX1XuX@X] 7.,X-XlXxX#X#XzXrX}.oXH.yXeXeXdX%X=X>X,XG.>X:X;                                                                                                                                                   @                                                                                                                                                                                                                           ",
"                                                                                                                                                      O                                                                                                                                                                                                                                                                                                                   l J.2XNX'.&.&.E.u.k C ( *.*.{ ( 8.%X,X$XuX6X>.O.=X-XtXtXW.#X7XR.=X|.C.H.oXeXgX>X[.oX>XH.n.XXu .                                                                                                                                                                                                                                                                                                                                                                             ",
"                                                                                                                                                                                                                                                                                                                                                                                                                                                                        > J.l K qX`.&.u.:Xm 5 h C G m j C G c.F.Z.8X|.{ 7.d.C.1X}.7.k.v.Z.Z. .( { ..=XiX,XH.H.oX}.n.%XS . +                                                                                                                                                                                                                                                                                                                                                                           ",
"                                                                                                                                                                                                                                                                                                                                                                                                                                                                        6 t.> > u.S.&.3X:Xh 5 t h h : : h S =.=.k.c.7.( o.o.) G.G.7.9.v.' y = = r k =.,XyX,XoX,Xl.v.W.t .                                                                                                                                                 +       O                                                                                                                                                                                                                   ",
"                                                                                                                                                                                                                                                                                                                                                                                                                                                                          v 3 M U.t.F 4Xu.h h : ; ; - & & : j G *.! ( f.v.}.-.k o. .} ] B % $ % j j k n.,XtXoX=XXX%XN.. .                                                                                                                                                                                                                                                                                                                                                                             ",
"                                                                                                                                                                                                                                                                                                                                                                                                                                                                          X g U 0XD.5.4X%.; 5 & - - o - & - ; : y e A n.|.tXg.W _ i = = e = . & y j r -.yXeX[.B.XX-X[ .                                                                                                                                                                                                                                                                                                                       X                                                       ",
"                                                                                        +                                                                                                                                                                                                                                                                                                                                                                                   7 h :XD.:XpXF 5 4 - - - o - - & o & : q V c.v.tXuX .! r % $ 3 * . . ; 8 q d.yXeXH.B.|.E.e .                                         O                                       O                                                                                                     O                                                                                                                               +                                                       ",
"                                                                                          +                                                                                                                                                                                                                                                                                                                                                                                 h P D.b.jXwXN 5 - o - o o o ; # o & 5 i 8.v.k.eXcX|.! x = e y 6 = * : k r f.=XeX-X|.XX ..                                         X                       . . * > O X         O             +                                                                                                                                                                                                                                                                             ",
"                                                                                                                                                                                                                                                                          O                                                                                                                                                                                               + o P e.(.BX9Xm 5 o & - - o o o o & ; t j | k.l.#XrX#X] :.>.u e = y y B k =.rXgXyX-X=XXXS . .                                         X     O 4 2 v N L m u L K.Q.1XK.: .                                                                                                                                                                                                                                                       O                             +             ",
"                                                                                                                                                                                                                                                                                                          +                                                                                                                                               X                 X I u._.kX'.F j ; - ; ; X X o X ; 3 5 C G ( A m.1X6XL.f.L.:.! x = i A k A.aXbXaX#X-XrX ..                                             O 1 M U 3.U t.U.I.y.!.$X1X3X8XF.e +   +                                                 +                                                       O                                                                                                                                                                                   ",
"                                                                                                                                                                                                                                                                                                                                                                                                                                                              +       O     2 `.t.qXfXS.%.F g ; ; o & - o o 5 3 G I t : % z L.iXtX>.z.d.>.} A S ] l.[.eXzXiXeXyXhX:.. . +                                     X 7 v v n l u 6 n U ' y.8XL.y.Q.K.$X3X9.3   .                                                                                                                                                                                                                                                                                           ",
"                                                                                                                                                                                                                                                                                                                                                                                                                                                                      O +   M P.S.kXwXi.%.F 5 & ; ; X o * * 3 h I Z * $ $ = _ *XuXz.` L.L.OXO.d W B.oXzXiXlXiXtX%XC $ .                                     X 5 n g ; - + ; 2 & ; t  .E.b.} ' q.T.*X*X*Xy.Z 6                                                                                                                                                                                                                                                                       O                 ",
"                                                                                                                                                                                                                                                                                                                                                                                                                                                          +         O   X   7 1.fXBXfXJ.C m h h h : - 5 7 3 3 j G t   & + $ = m.1XC.x.L.L.=X=Xd.B.H. XiXlXbXzX-XXXr & . .                                 X g 4 # o X o   @ X ; t 5 : j b y S b ' z.K.*X*X5X1Xv                                                                                                                                                                                                                                                                                       ",
"                                                                                            O                                                                                                                                                                                                                                                                                                                                                                 O           X 7 K fXnX4Xe.m j C &.j h j m t 3 j G ' 5   . = = 8 L.iX+XL.eXg.,.A.A.-XV.V.+XeXlXtX}.H.y % X . @                               - g #   X X     X   o : 5 ; y y S S x y B  .N.!.@X5X'.=                                 O                           O     +                                                                                                                                                         +                                                       ",
"                                                                        X   +                                                                                                                                                                                                                                       O                                                                                                                                                   X O 2 _.fXqXe.*.F h C L j h C j t 3 Z G | j . & < % x L.tX1Xg.+X X~ _ ~ V.V.g.+X+X;XA.C.oXv.* *                                   - #     X   @     . @ X o X o & 3 b y e d i A c.$X@X8XZ                                                                                                                                                                                                                                                                                     ",
"                                                                                                                                                                                                                                                                                                                                                                                                                                                      X               X   O # P.9XS.Z 4.G j G Z 5 * : t < 3 B Z L B e i B r o.f. X[.g.;.d.) a r W g.].+X=X.X[.A.}.R.< .                                   + X       X     X   X .   o & o & ; e : y y r S :.K.OX'                                                                                                                                                                                                                               O                                                     ",
"                                                                                                                                                                                                                                                                                                                                                                                                            O                                                 X           O 1 n Y.4.m I h b G h * o * * < 6 u y b S z z { ] +...x.V.h.g...E W 9 a W g.;.V.A.H.,XaXc.3 & # .   # X X X             X     O     X @             X @ X & o & o & 3 e : % : x e >.N.!.$ .                                                                                                                                                                                                                                                                                 ",
"                                                                                                                                                                                                                                                    O                                                                                                                                                                                       X       X     X             X   O 2 e.u.%.&.b u u 3 3 3 o ; 3 i e i G B e e G ! 7.B.s.g.A.C.g.E -.V r f ] W +.A.l.C.G.Z & # 7 2 2 # - g o o X X   X X X   X                     X X   . o m 9.b.Q.F.!.XXT.6.:._ :.0.!.[ .   .                                                                                                                                                                                                                                                                             ",
"                                                                                                                                                                                                                                                                                                                                                                                                                      X                                             X     O -   g &.I I u 2 ;   2 ;   3 6 m 3 z :.} G r r W Z.B.a.V.,X}.=X-.6.v.r = q a k ..! A k y t < 3 2 4 # 4 - X o - 2 - - @ #   X X X X X   X   X X X   X 2 b I b.`.@XE.G.$X*X*X5XuXuX1X1X$X&Xe                                                                                                                                                                                                                                                                                 ",
"                                                                                                                                                                                                                                                                                                                                                                                                                    +                         X   X     + # X   X O O   O   @ # - 4 g h t h o @ @ # + & * * % t }  .c.A ! ] f.v.1X.X X}.|._ } T.e $ 8 r k f V A B j I L N m h 2 : g ; 5 ; 5 - o c v # # 1 # O X     X X O   # n 4.I Z L } M./.N.m.I.L./.8X8X1X1XR.).K.+                                                                                                                                                                                                                                                                               ",
"                                                                                                                                                                                                                                                                O                                                                                                                                                                               # ;   X X - @ 1 O 1 1 1 7 4 4 1 4 # h %.h h o   ;     K 3 + 6 * t i c.S ' f.O.! v.z.L._ :.! q.q.% $ % V O.{ XXR.9.c.E.F.r.y.L 5 5 h 5 g 4 5 5 %.7 v h c 7 6 6 2 X X   O 4 v m n n u I } G r.!.c.N.*XT.z.L.L.L.!.L.!.*Xz .                                                                                                                                                                                                                                                                             ",
"                                                                                                                                                                                                                                                                                                                                                                                                                                      X   X     O 2 - + - # 2 n c 4 6 N J c 2   n t.&.U n 3 ; @ 2 + 2 5.7 # 3 . 7 = C t y x B = V B  .x _ e S } % % = O.7.k.oXXXR.G.W.Q.M.I.F.M.&.m 5 5 5 5 D &.U U M h 7 v K v 4 ; X 7 1.F - ; # 6 | L B Z C S  .K.m.q.z.q.x _ O.:.c.A .         X                                                                                                                                                                                                                                                                   ",
"                                                                                                                                                                                                                                                                                                                                                                                                                                            X     O - 2 # - 5 g 7 1 c J P D N 5.u.i.N n 4.5 7 + #   + U 2 3 K 3 t u e = Z e i = e >.B { S $ x :.% e A a.o.g.=X6X7X>XW.!.%XXX!./.U.-.C g 4 g j F P U m 4 4 g K g 7 7 U D 4 o X -   # v z 3 3 e = e y z z A z e e ! W :.0.u .                                                                                                                                                   O                                                                                                                       ",
"                                                                                                                                                                                                                                                                                                                                                                                                                                              X X X X - 4 4 g D P %.w.t.P 1.2XY.D v 2 u t.u 3 +   @   b 2 2 I ; 3 N ; ; ' y G e i b.x ( } % ' A . e ] ] B.}.=X6XyX-XW.H.XX:XXX)./.XXF.=.%.%.h %.F j m D j n F m K %.N - X   o X # ; 4 t # . . o o & + $ * = < 3 r w S m.!.H >                                                                                                                                                                                                                                                                         ",
"                                                                                                                                                                                                                                                                                                                                                                                                                                                X X - 1 4 X %.u.~.i.J D v %.i.D 2 4 4 v u.t =   . ;   @ +   m 7 * K & * j ; 4.e 3  .& z 0.& } A $ d ] ..L..X-X.X6XuX,X>X,XyX,X,X:X:X:XU.=.*.e.r.&.G %.&.%.m m %.e.g X X X - X   # -         o o # o   . & < * = w z S q.R.1XK.& .                                                                                                                                                                                                                                                                     ",
"                                                                                                                                                                                                                                                                                                                                                                                                                    X X                 O   O   X X - 4 %.u.U.U.D.%.D J N F n 7 2 7 6 I (.6 u O # #   X + + t 2 + 6 @ ; Z ; I = 3 G = y x $ x x 8 w o.+.].}.#X X>XdXuX6XrXuXyXyX>X:XW.G.b.b.G.D.e.=.r.*.%.C &.*.h X   o X       + +   O         . .     # t < % < A 7.>.z.1X8X!.= +                                                                                                                                                                                                                                                                   ",
"                                                                                                                                                                                                                                                                                                                                                                                                              X                           X O X X - g %.<X`.5.t.%.D K n v N v 7 v 6 2 M.0Xv u < ; ;     @   o . X 4 * X 5 = m 2 ; u . e + $ y } w R +.s.].j.V.{.oXeXrXyXuXrX7XyX>X>X0X>X:XG.b.r.8.*.y.r.b.U.e.* o h U I F n -           . O +     @ + # + , 3 3 < y f.L.m.$XL.1X:.. +                                                                                                                                                                                                                                                                 ",
"                                                                                                                                                                                                                                                                                                                                                                                                                                1 # X X X X @ > - 1 P.wX~.u.S.*.n m g 5 h n 7 5 v 5 2 u.0XZ 3 * ; 2     - @   o   @   . # * h * . .   3 & $ x >.~ >.,.V.+X{.,.{.,X=XeXeXyXzXyXyX,XyXyX0X>XXXF.F.G.b.=.e.F.r.5 g 4.D.U.F.`.`.y.%.N 5 =           o o o . # = # & < x } z.f.7.OX).1X6 O                                                                                                                                                         +                                                                                                       ",
"                                                                                                                                                                                                                                                                                                                                                                                                        X       O   O @ 2 4 4 6 2 6 n l 2 c 4 4 c ~.'.S.&.~.D.%.h h g h h g 5 7 7 2 , u.pXL 6 & ; 3 + o 2 o   @   X * @ @ o = # . .   & $ = >.>.` x.#.].+X,.,.>.}.oX=XoX,XrXyX>XsXyXyX>X>XXXn.G.F.D.U.u.G 5 &.*.F F F F 4.5.%.&.Y.Y.e.| G v 2     o : & 3 3 Z 3 3 y W L.m.z.R.OXrXJ.. O .                                                                                                                                                                                                                                                             ",
"                                                                                                                                                                                                                                                                                                                                                                                                        O       O O @ 7 g 4 2 v l 4 N c c n g 4 S.4X3.D &.e.D m D g h g g g g g 4 3 2 :.&XH B 6 7 u *   2 #   . . o +   + 2 - *   #   = < = B.>./ g.j.].{.,./ ^ +.l.oXoX XH.XXoX>XyXyXyX%X/.G.F.r.r.b.C & Z 0.h 5 : j j h F I &.0.y. .4.E.^.U.U N 3 ; & < m K._.A y x :.m.K.L.L.1X1Xq.$ .                                                                                                                                                                                                                                                             ",
"                                                                                                                                                                                                                                                                                                                                                                                                              X     1 1 n v 6 7 7 4 g c g c n w.p.3.D %.e.%.n n n h m n g g n v 6 2 3 3 y.:.:.H 3 u = * ; * @ # :   .   O ;   # . 2 + < < x z.>.>.{.+X;X.X,./ Q W X.j.Z. XH.[.G.W.:XeX>XXX>X%XG.G.n.G : t h 5 3 X & X ; ; * h Z L L 4.6.2.8.b.Q.).r.C ( 8.c.OX1X1Xm.! >.L.1X1X1X8X8XuXq.. .                                                                                                                                     +           O                                                                                                         ",
"                                                                                                                                                                                                                                                                                                                                                                                                          O @   1 1 2 7 7 7 v J K n h v 7 6 U 5.K N i.5.&.n h n g h n g 5 7 v 7 4 2 2 * Z L y.2.z z t u + ,   * v . v   # ;   # , B < % = x d.>. X+XlX;Xh.].^ ^ ^ =.=.-.C.H.H.[.H.|.,X5X%X#XXX%X,X:Xr.b. .&.*.e.P h : 5 5 * & + ; 3 B L L Z ' L 8.q.N.F.$X!.K.R.uXrXOX1XOX1X1X1X1X1X1X1X:.O O O                                                                                                                                 X                                                                                                                     ",
"                                                                                                                                                                                                                                                                                                                                                                                      O               O O O @ 7 4 7 c 2 N 3.U P 1.m 6 4 7 v D n D U t.N F D j g g h h 5 5 7 5 6 2 # + 2 3 z 2.2.B I z < 6 2 O + 3 7 M * 7 3 O * + H z . e A g.OX=X+XtX{.,.].@.X.;.T T ( -.k.;.G.H.|.|.|.%X,X%X#X>X:XW.F.q.F.Q.Q.I.r.e.F 3   o # * # ; & 3 = (  .q.N.Z.|.N.L.f.d.!.OX!.1XOXL.OXOXL.1XL.1X1XK., O .                                   X                                                                                                                                                                                                                 ",
"                                                                                                                                                                                                                                                                                                                                                                                                        @ @ - h h - h K p.J.U J c l 6 6 n v n %.M N v h m j g 5 g h h 5 7 4 5 4 1 + # * 2 z L B z [ z e z t . . b K I   4 6   = < H = $ y >.x.tX;X+X].].h.h.@.^ -.) T E ) ;.d.l.G.Z.v.v.@X6X6X5XXXXXk.*.8.Q.@XE.c.0.N.`.*.7 2 @ 4 * & & G 8.m.W.Q.Z.Z.#X|.W.c.9.z.>.>.L.OX1X1X}.OX1XL.L.*X1XL.< .                                                                                                                                                                                                                                                     ",
"                                                                                                                                                                                                                                                                                                                                                                                                        +   - ; v D w.5.P N l c 6 v 7 4 7 g D N 5 4 6 v n g g g g 5 5 g 3 2 2 2 # ; , # 2 < Z z B S m y y z & , v Z | # v v   M B } y y o.L.z.=X;X.X@.@.@.h.^ Y T s s ) ) =.=.9.=.d.f.9.N.R.5X8XXXF.=.8.8.b./.E.F.E.Q.^.I.e.I v + 3 | 0.Q.OXc.N.9.9.M.v.N.Z.:.! A A >.:.>.m.C.z.{.1X1X{.#X*X1X*X' . .                                                                                                                                                                                                                                                 ",
"                                                                                                                                                                                                                                                                                                                                                                                      O                   2 7 g S.(.4.N v h h 5 7 6 4 3 5 7 7 5 2 2 v n h 7 7 l 5 5 g 5 2 2 2 - # - + @ # & 3 j z B b S A B e , < z z $ z b * y x B N._ x.A.].tX+X].@.h.@..Xh.^ Y 0 0 Y ` ) E k V ! =.} >.c.OX|.v.9.' O.[ ' [ ' ' q.Q.I.0.b.3.5.e.u.F. .:.r.N.N.9.f.r.6.9.2.b e < z x G } W >.>.>.}.}.C.OXOXR.OX$Xq.*   .                                                                                                                                                                                                                                             ",
"                                                                                                                                                                                                                                                                                                                                                                                                    X X #   D _.S.P N K n m 7 h v v u 7 7 2 4 4 6 7 c 7 4 5 v u 5 3 5 4 4 4 + + + # o @ @ & * t t t x :.S G e e z < < + * < < e $ i 7._ o.].+X+X{.@.h.].@.].h.^ Y 0 0 a k k V ! A ! { =.9.c.c.q.6.q. . .k. . .' S ' ' } G I [ Q.F.U 3 * i 6.0.>. .' [ S y u i y < e i r x S >.>.>.B.m.d.L.1XOXZ.OX8XOXz .                                                                                                                                                                                                                                             ",
"                                                                                                                                                                                                                                                                                                                                                                                                      O X 7 _.w.U P P &.K M n b Z m v v 7 7 7 v 6 l 7 4 2 4 7 6 1 2 2 2 - # o . X + X . # & 3 e 6 y z  .} q.:.x x < % < % < e z % d W Q >.}.+XV.,.$.,..Xh.@.h.^ s Q ) a r r d ] A S ( } N.m.:.[ 6.6.6.6.q.N.!./.0.:.Z y Z L *.r.F & . o 3 x z z j e i 3 3 = 5 C 3 3 i u S x } >.L.OXA.L.}.}.}.L.|.*X1X/.6.$ .                                                                                                                                                                                                                                         ",
"                                                                                                                                                                                                                                                                                                                                                                                                      X N wXS.K 3.0.P K N N L G m m Z N v v 6 l 7 6 7 2 1 2 4 , 2 - # # * * @ . @ & @ & . . 3 3 < e y i } q.f.:.! = < e < < = r s R ~ $.{.;Xx.$.h.@.@.].h.@.h.].;.T -.Q 0 = r x x B W 6.f.z.} } ( ' ] 6.N.*X@X$X$X).r.} 8.r.b 3 . ; * * 2 t i A m 5 : ; ; 2 5 m z < < e z S m.OXOX1X1XeX#X XA. X=X5X*X*X8XK..                                                                                                                                                                                                                                         ",
"                                                                                                                                                                                                                                                                                                                                                                                                  @ @ 5 wX<X<.P J.3.J N N F F F Z Z Z F N 7 v v 7 2 7 6 2 , , > # O # . # + .   + + + . & & < * 3 3 < e i ' 6.! } ! x S y e w x R ~ s.].+X+XX.^ @.^ ^ h.@.]..X,.h.;.X.T 0 i a q e r O.N.q.! x A A } :.d.k.W.$X!.E.Q.&XF.T.I .   X . o : L [ *.0.[ C 3 4 # ; 6 b u ; * = 3 } OX#X!.OX1XtX8X1X+XOXA.-XXX@X-X8X|   .                                                                                                                                                                                                                                     ",
"                                                                                                                                                                                                                                                                                                                                                                                      X         # 2 7 2XqX3.<.5.<.M c N N b G I L L K F M v n v 7 7 6 7 2 > # > + O + + . +   +   . & + * & # $ e 3 = = y e S 6._ :.x A x w x _ ~ s.=X}..X$.Y $.@.@.@.^ @.]..X].].,X.X].;.r r e d B O.6.:.! S A B ' >.6.*.9.T.@XQ.E.).I.j . . ; X o g G 1.M.0.4.4.I 5 ; # ; 2 u Z 7 = x } K.OX8XuX1X1XOX=X1X X#X=X#X6X-X$X*X5Xt .                                                                                                                                                                                                                                     ",
"                                                                                                                                                                                                                                                                                                                                                                                            X > 6 v t.qXw.3.Y.w.M n M J m N F L G I L N z z 6 l 7 7 6 7 2 , # > # +     @   X @ , * * * . . + , e t = & 3 e B 9.>.6.W r a a f Q X.x.}.[.#.Y s X.h.@.@.@.@.@.^ @.].;X].j.B.k q 8 B _ >.} S } } } b x A }  .6.E.8X3X!.@XZ .   o   ; 5 I F 0.b.u.1.*.U N h ; 6 6 u h i B y.5X#XOX1XtX1X1X1XOXL.A. X#X X7X7X$X@X8XI..                                                                                                                                                                                                                                     ",
"                                                                                                                                                                                                                                                                                                                                                                                          X # 1 # N 4X5.J 5.3.J v 7 n n n Z F Z Z Z m b z 6 < # 6 6 l 7 6 6 , # #         . * ; 3 < , + # & * % < 3 3 & % e i ] ' o.! r x x R {.].V.+X{.Y a p ^ h.@.^ @.h.h.T Y ^ ;.;.^ E k y k O.N.q.y y z G S H G G B S S 9.Q.3X*X2.  .   X 5 t t F G ' 0.*.:.8.e.F n 3 v u u L y.T.!.1X$XR./.).L.1XK.x.d.L.d.C.#X#X-X#X*X5X8X'                                                                                                                                                                                                                                     ",
"                                                                                                                                                                                                                                                                                                                                                                                            + * - K Y.P 5.5.M c 7 7 c g v N D m b n N m 3 3 , , , 6 7 7 7 7 , # +   .     . @ @ # $ * 6 < $ , < < < < , & 8 B k z ! } ! W _ ,.1X+X=XeX..9 0 f X.^ @.T ^ $.^ Y p p Y 0 9 a 8 r k f.K.>.e 3 = 3 b S 2.' ' B y t G F.2.& . . 3 *.5.L m h G *.6.q.3.e.D.4.F 5 : u I y.I.@X!.*X#X#XOXm.:.} ! } ..C.C.Z.#XA.R.R.OX$X$X@X#                                                                                                                                                                                                                                   ",
"                                                                                                                                                                                                                                                                                                                                                                                          O # 2 v 2Xi.5.U N c 7 c c c 7 h h h g h j v t 3 3 , > # # 2 2 6 3 4 * + +     @ . .     # * * + + $ % < < % * . * e i d A _ _ x x s.L.-X>XA.f 9 9 0 X.^ ^ T Y @.].X.@.^ Q E ~ a k k ) N.q.u 3 = = = * u S L } 2.2.j B L t   : *.D.e.D.4.j h j 2.2.q.b.*.y.0.I j h &.E.8.q.N.T.9.c.W.K.} e e r _ z.d.C.B.v.|.XXG.Z.W.!.3X0..                                                   +       +         O                                                                                                                                                           ",
"                                                                                                                                                                                                                                                                                                                                                                                        O 7 7 2 U (.t.P 7 6 7 6 7 l 6 6 v g 7 v g g 5 5 7 6 < * > * + 4 5 6 6 2 ; +     .     . * # < + + + $ + < < < , $ = = = i A x S z x x _ v.d.V q r 9 p ` ^ T @.^ ^ s.$.j.{.#.B.g.! f k k.Z.q.e = * . & & & t e b } 8.2.*.j $ b &.D.F.e.b.8.[ m j L 8.0.t.8.*.*.G r.D.N.E.9.| N.N.6.}  .B q < e e >.m.#X XB.v.|.-XR.T.|.R.T./.3                                                                                                                                                                                                                                 ",
"                                                                                                                                                                                                                                                                                                                                                                                    X # 2 l 7 N '.5.K M 7 l 1 2 l 7 7 7 6 4 7 g 5 5 7 v z u 6 6 4 , #   2 4 7 5 6 2 + +     X X + O + . . + + < < = * < o < & = e e e 8 w x w z ! k y 8 a 9 s s.^ Y ;.@.X.Q ^ $.}.x.~ d.+.f { W.W.' i e i i 3 % * < t t b L } 1.b Z &.*.4.8.b.2.r.e.F N j G q.8.&.8.*.*.F.E.[ r.I L } } B u e < * < < B S >.L.m.z.g.B.}.G.v.OXK.N./.N..                                                                                                                                                                                                                               ",
"                                                                                                                                                                                                                                                                                                                                                          O                           # h 7 4 t.Y.P M M M l 6 7 7 6 4 6 4 4 6 6 4 6 h m n u 7 3 7 3 . + # # # 3 3 6 # @ .   # @ O O   + + $ # < , * * < # $ & : y 3 & $ $ % = % % i 8 9 9 9 k g.X.p Q [.].Q T ^ ;.].` T W s ) H.f.x = e B L C Z u t ; 5 3 b b h h Z &.C } L Z [ ' 4.&.U m m ' I } 6.4.b.0.r.M.[ b i y * o . & 3 u 3 t z S } f.m.L.OXL.L.f.9.f.m.b.T.1X6                                                                                                                                                                                                                               ",
"                                                                                                                                                                                                                                                                                                                    X                                                             X 2 # - 4 2 3.3.J U J l l 6 6 2 2 4 6 4 4 2 2 7 7 v 7 v v v n t ; # # + 2 # # , # 2 4 # X .       + + + + < 6 * . < y = & & & y : $ = . % $ $ 8 ! 8 % 8 r E -./ 9 9 ;.,X^ Y ^ ;.X.o.X.k +.l.v.! S B < 3 3 h u 5 5 * * u m u Z j t j G C [ S S Z F L  .Z Z Z r.M.2.Z [ u G 2.b * + . .       + 7 u < e e S A O.m.|.L.L.T.>.>.N.N.L.@XH O                                                       O                       O                                                                                                                                             ",
"                                                                                                                                                                                                                                                                                                                                                                    +     X     X O 1 - - 4 m w.J H U l 7 7 6 7 > 2 6 6 , > 2 2 6 7 7 7 v u n M 7 ; ; X # * X . + 2 2 ; - - @ o .   + + . # < 3 + & * < & . * = y y * * $ % $ $ d v.9 9 9 E W ;.T 9 9 Y .X XY ^ x.V.` X.o.s.G.f.x S z % $   . & o * ; 2 7 u b Z m j n j j Z 2.2.S L | Z m Z I 0.0.u e y < * 6 * . .             + 4 7 3 3 u i x ! z.z.z.q._ } m.q.m.L.L                                                                                                                                                                                                                               ",
"                                                                                                                                                                                                                                                                                                                  X   X                                                       X O @ O X 7 4 &.5.J K v l l 6 l 2 1 > > 4 2 # 1 6 4 6 7 v 7 7 v u u 4 o o @ + X     + - # 5 3 # .       . . & < # . + * t = $ & * u j e * . % $ $ A v.9 % 9 T E ` o.9 9 p ) +Xj.^ X.;.-.+.L.#XH.d.O.] } :.z $ o & * & # # = 7 5 3 h h C m y u G  .I Z I Z | 0.C 5 3 t z * # b 4.Z     .               3 u t t y z A A ' A _ } ! ( q.c.0.5.+                                                                                                                                                                                                                             ",
"                                                                                                                                                                                                                                                                                                                                                                    X           O 1 @ @ 1 6 M <.K M v N 7 7 > > 2 # 2 2 @ - 4 2 # 2 7 6 6 7 v g v 5 # @ X # +   @   X - 4 6 4 # X       # < & . $ o # y * $ 3 % : i i & . $ . % S R.s 9 0 R 0 x j.0 9 a p x.tX;.~ W ` >.}.OXo.! >.6.R.$XQ.| u : * ; * * : 4 ; ; - ; h j v b y C C h h m 8.I * . * . 3 h m y.(.M.u   +                 2 5 3 ; : z i y i G S y r S Z L 1.+                                                                                                                                                                                                                             ",
"                                                                                                                                                                                                                                                                                            O                                                                         O     X # 1 2 @ O O 1 3.<.l M P n 2 2 # 1 > > > > X > 1 1 2 4 6 2 7 7 7 u n 4 ; o + 2             # , 7 5 +   . # 3 3 . & * . $ 3 3 & % % 8 q j 3 $ & . $ d 9.a w E Q 9 R g.k 0 f f / ,X.XX.,.j.B.{.x..._ m.L.L.Q.N.c.Q.[ : o o o ; * 4 4 3 4 ; 3 3 u N b u u F 0.b o . & . & I 8.w.M.M.M.e.h                     # 2 ; ; < < y 3 y 3 < < y 3 i 0.3                                                                                                                                                                                                                             ",
"                                                                                                                                                                                                                                                                                                                                                                            X 2 7 # O @ > N i.M c N P 7 > , > # 2 6 # # @ > > > > , 2 2 7 7 h v 5 ; X ; 2 1 X   +         # 4 7 4 & O , 6 & . . o . . = z $ % $ 8 e ! i $ $ . % y _ 9 8 / R 9 p -.T 0 0 f f l..X}.g. X=XB.+.O.>.} m.7.] B *.r.| C h ; : ; : - - 4 4 4 ; * 3 z 7 2 2 3.&.& . ; * t Z *.4.p.b.8.2.r.u.n                     7 g ; 3 < 2 < * # * * i 3 3 &.5                                                                                                                                                                                                                             ",
"                                                                                                                                                                                                                                                                                                                                                                            O 2 > 1 @ > 1 3.3.U J l 6 6 2 , > 2 6 > > # > @ > 4 > > 2 6 6 3 7 5 2 ; # # 4 + X X     X       # : 7 u = , * .   . & . $ & i = . $ = k ] S % . . . q w $ a ` ` p w / g.k 0 Y T ;.>X=X X}.B.d.z.L.L.L.L.q.8.O.q.' b C G h h g 5 : ; - : * 4 2 * 3 3 = v F * . o h &.u.[ | ' 8.@XM.2.u.Q.b.I .                 2 g 2 # # * + < * * S L e b &.u + @                                                     O                                                                                                                                                                   ",
"                                                                                                                                      X                                                                                                                                                                                                                                     2 4 # 7 7 6 4 K 3.3.6 6 > 6 1 > > 1 6 2   # # 1 4 1 # 1 7 7 2 2 2 2 2 ; + # # #     X           o * 5 h t u & X . . . . % * y = = $ q r } >.e $ . . % = = f >.~ w p ~ L.,.~ Q ;.B.[.+X=XA.g.-.H.oXoX>XH.=.7.n.T.' i L G j t h h 3 ; n 3 ; 4 ; ; 3 3 N 1.; . & m u.c.U.Q.y.q.6.M.K.c.y.E.F.i.| #             X - n ; # - - * * * ; G  .u t 1.b                                                                                                                                                                                                                             ",
"                                                                                                                                      +                                                                                                                                                                                                                                   O O 2 6 4 v 2 1 i.3.J 6 6 4 1 > 1 6 6 4 # + > > 2 2 1 2 7 4 2 1 > 1 2 # # - # +   X     X   * X X ; o * : t 5 : : & : & = 3 e y B r = d i ] } x . $ . % % 8 s >._ x R R ,.,.s.[.;.;. XB.l.+...n.l.H.n.oXH.XXuX@X@XN.2.*.S t ; t n N h g 5 # o ; 4 ; # M l + + # F M.y.y.Q.T.y.:.2.L q.M.y.r.e.P.t.4             X g 2 # : o o # ; ; B | C Z 0.1.. . X @                                                                                                                                                                                                                     ",
"                                                                                                          X                                                                                                                                                                                         X               X                                               O   O   X 7 c 1 2 + c 3.J 7 6 l > 1 2 2 6 4 - # # + 2 1 1 1 2 6 2 - > > 4 , * # # @   X @ X # # ; o o - * ; & o & ; h j t : * = i < y :.x = x ! m.O.A w $ $ % $ 8 x ` ~ X.x.~ X.+.s. XV.g.j.o.~ W ) k.l.G.G.f.v.!.rX7XF.k.r.[ C j h v h 5 h g 2 # - o # @ @ # # + + o ; F 8.K.I.K.!.T.t.0.:.b.`.F.e.M.Y.2.#         X o g 4 - - - X ; 5 ; b  .' L 4.b.g @                           O             +     X             X                                                                                                                                                           ",
"                                                                                                          +         O                                                                                                                                                                                 +                                                                   O   1 7 # # 4 c K c c N 6 4 6 2 2 2 > # # O # > # # @ 1 2 - 2 > > 2 > ; ;       X # # ; ; ; 2 4 : o o o ; ; & : t j t i B B B A  .} x x A z.>.d ! $ $ = % 8 w _ ` ` C...Q ` ,.V.a.Q k k ~ ~ ! ) ) -.=.v.=.q.W.G.G./.8.*.*.C t h g 2 - # ; # # o o @     + ; h 3 3 ; i 2.Q.Q.y.!.1XT.J.b.F.T.D.M.P.U.0.3 @   # X - n g - ; - # # 2 2 e [ 2.m [ U.D.;                                         O                 +                                                                                                                                                             ",
"                                                                                                                                                                                                                                                                                                                      X                                                       2 6 7 1 7 n P 7 M M 4 2 2 2 7 2 - > # # > > 1 > # - ; 1 2 , > > 2 & o @ + # + # # - - ; 5 5 5 3 & * : & o o ; : & u B B i S 9.9.z.W d _ ! d ! r $ 8 8 9 R ,.>.,.,.x./ >.X./ a 0 E a ) =.) ) ) T k { =.=.n.*.( *.S G G C t u 5 - + # # X   @     + X X ; h j G h : u | y.Q.Q.!.).).T.M.y.c.y.0.D.D.&.o o o o o j g - - # o ; ; ; 5 L  .Z *.D.`.m + X                                                                                                                                                                           O                                         ",
"                                                                                                                                                                                                                                                                                                                    X                                                         X g v 1 6 3.U 4 c 7 6 # # 6 7 - + # # > 2 # # + # 4 ; # # 2 6 2 + @ X # # # # 2 2 ; 4 7 7 t 5 3 : 3 3 * & & * : = 3 e k A B W 7.C.>.W W x W B.>.a 8 8 s E >.,.` >.,.>.X.p s 0 a ! ..;.=.-.n.;.=.=.{ =.{ G ( ( ' I S S Z [ m ; - - # X   X @ + X @ X X - 2 u G U [ x t m 2.Q.Q.c.E.F.I.).Q.c.4.b.u.U.I X o o o g 4 - o ; - ; 2 * 3 Z  .G  .u.U.P.@                                                                                                                                                                                                                       ",
"                                                                                                                                                                                                                                                                                                O             X                   + O               X                 O +     - 7 6 @ 2 <.N 7 n 6 7 1 2 4 2 # # + # > > 2 # # > 4 - - 2 1 2 # O X @ @ # # # 2 4 4 7 h h u 5 3 h j h 5 ; t t : : e % = e q S _ >.d.L.s.E W x.A.~ w 8 s _ / ,.,.,.R ,.^ Y T ~ ) #.-.-.-.;.;.n.l.-.l.H.n.=.k.F.=.=.8.[ G G h # + X X X   . +   X     o # : 3 t C I  .4.b B 8.I.!.I.M.N.$X5XQ.M.y.D.U.D.h - - o h g - - ; - ; ; ; 3 m } L L P.K.`.K +   +                                                                                                                                                                                               O                 ",
"                                                                                                            +                                                                                                                                                                                                                                                   O           + + 7 1 # N <.%.N 7 g c 2 2 2 1 # # O # > > @ > 2 1 2 # # # 1 # # O X @ # - - 2 4 6 4 5 5 5 v h h 5 h h t h t j t j i e e e = 8 A d ] {.j.>.>.,.>.o.a p Q ,.^ X.X.^ Q >.V.X.s $.j.-.;.[.n.;.n.n.XXXXH./.H././.W.D.9.*.G C h 2 - #     X + @ X   @ X   X # X : h h B I 0.q. .S } I.).E.Q.).3X3X$XD.y.`.`.U.g X o h g - ; 4 ; ; : * 3 u | 2.L 8.Q.'.J.2                                             +                                                                                                                                                                       ",
"                                                                                                                                                                                                                                                                                          O                                                         +           X   X         X 1 g @ t.<X<.N K n c 2 2 2 > # # # > 1 1 1 1 2 # # # - # # 1 # # @ > 1 2 4 4 4 7 g g 5 h t 5 5 5 : : 5 t 5 : j j B y r = q q q r a ..o.a. X].+./ s p _ X.Q Y 0 p p T ].x.$./ ;.` ^ >XV.n.l.l.G.G.n.G.G.E.W.U.u.=.*.G j 3 + ; X         # + X   X     @ X ; t h C C [ =.r.F.[  .q.`.>X`./.).:XF.u.u.~.:XD.g - m g ; ; ; - - : - g t [ y.I *.F.U.U.g X                                                                                                                                                     +                                                             ",
"                                                                                                                                                                                                                                                                                                                      +                                                     @ - 4 4 P.2XP.P M K c 1 6 6 1 - # 4 1 2 1 + @ # # - # 1 # # # # 1 # 4 2 2 4 g 6 7 u g 5 5 5 5 4 5 5 ; : 3 5 t q y j S V r r k r e r V ..X.#.V..Xx.a.Q f R Q Q ^ R R p Y ,.,.h.;.X.Q @.l.l.l.n.{ 9.k.W.G.n.n.n.r.*.=.8.G g * 2 >             O     o X O X X o * g j C &.*.&.b.$Xu.L y.@X:X).F.:X4X^.u.D.:X^.D.m n 5 ; ; ; - - 3 ; : t j r.8.[ D.u.i.U +       X                                                                                                                                                                                       +                   ",
"                                                                                                +                                                                                                                                                                                                                                                                           + # 4 <.wXY.<.%.J <.6 , 6 2 # # 1 6 2 2 > O # # > 4 1 1 @ > # # - # 2 2 6 6 6 6 7 6 : ; ; 4 5 5 h 5 t t j k e r k A S d w 8 r r q 9 p W E Y ` s.h.j.Q Q Q s / ,.,.^ p Y Y Q V.}.s./ ;.H.k.-.{ ) =.k.W.G.F.F.r.*.=.*.G j : * 2 #             X X # X o o X   o : : h h F G ' *.M./.E.[ 0./.$X4X:X4X:XD.u.D.U.`.e.n ; - ; ; - - ; ; ; : h [ *.L 4.F.y.U - #                                                                                           X                                                                                                                     ",
"                                                                                                                                                                                                                                                                                                                                                      X X                       %.wXi.5.c %.K M h 4 4 # # > 2 1 1 # O X + O 2 > 1 1 1 > > # - # # > 2 2 > 1 2 2 ; 5 5 5 h C j C C G C C m k A k f f r r r r a k ~ ~ / s.j.+.,.#.R p R _ / ,.x.x.,.,.Q Y ;.[.;.#.-.l.-.{ -.=.{ { k.9.k.r.=.*.=.G m m 5 ; #                 X @ o   X # X o * 2 - h h Z L [ *.r.b.$XD.[ D.:X:X4X0X>XU.u.D.`.u.g ; ; 2 - - - : * * : ; j =.} S y.u.4.5 ; @                                                                                                                                                                                                               ",
"                                                                                                                                                                                                                                                                                      +                                                                                     # 7 ~.P.w.<.7 n 7 4 6 2 - 1 1 2 1 1 # # # # # # > > # # # @ # # 2 # # > > # , 2 2 2 5 g g j h m h m j G G ( k j k ) ! ) k s f s s ! Q >.>.,.}.x.R R p w R Q ,./ / X.].].#.Y s +.-.) l.;.) =.k.=.( *.r.=.&.e.*.G C j m h ; o o                     + + O # # X X o - : g j j Z I &.' r./.b.G *.F.>X>X0X:XD.*.r.&.4 ; - 4 ; & - ; o o - = e 2.0.G u.4.u.n # #                                                                                                                                                                                                               ",
"                                                                                                                                                                                                                                                                                                O                                                                   X       # S.S.P ~.<.1 M 7 1 6 4 + # 6 1 1 # O # O # # # # O > @ > # # + # # > > 2 2 2 2 5 5 4 g 5 g m m I G Z C k S S C { =.! ! W ) E ! +.W ` g.{.{.V.s.~ _ x w s s R Q R Q ,.h.X.~ Q ~ ..) -.) ) =.{ { ( ( ( { { F C m &.&.k 5 ; -   X                     O @ X O X X # - & - g j j S [ [ ' *.b.$Xe.=.^.:XU.`.~.u.&.Z 4 ; ; 4 ; - - - @ o + = ; C 8.F &.D.y.3.4 # +                                                                                                                                                         O                                                   ",
"                                                                                    +                                                                                                                                                                                                                                                         X                         X O g S.c P t.n 4 K # 2 n 2 + # 1 > O O @ # X # X X O O # > 4 4 > # + # > > , 4 , 2 2 4 5 g 5 h j F ( &.G Z F G j S *.9.{ ) o.=.W k W Q _ >.,.{.{.L.>._ x w R R s Q Q / f Q R p R E -.d.) ) k.=.{ { { { { m j g ( *.&.%.j g ; X X   X           +         1 O # + # O o # - 3 h h j m C C G | u.:XU.k./.`.U.>X~.%.u ; - ; 4 - - o - - - # * * h [ F C e.t.e.M 6 6 + X                                                                                                                                                                                                         ",
"                                                                                            O                                                                                                                                                                                                                                                 X                         1 c ~.5.D J M g 6 7 M v 4 # - 1 > O > O - # O @ # # # + # # K K 1 # # # , , # > # 2 4 2 5 g 5 j j m D F F G L G h k { =.) k ) -.o.W E k R R ` Q Q >.>._ 8 w x x s x w w p s a R s s o.o.) { -.=.{ { &.{ j j m =.=.&.m m h g - X X X X                     X 1 # X o - @ X - & - 5 5 h t j C S B =.r.e.e.n.U.U.u.F 5 ; ; 4 : - o ; - o ; * @ = ; G I j C 4.&.%.M v v                                                                             X   X                                                           O                                                             ",
"                                                                  O                               O                                                                                                                                                                                               +                                                                   # + P '.J c J J l # 4 m v # - # O # # - # # O X +   O > # @ 2 %.3.g - 1 # ; ; ; # # # # 4 4 4 4 5 h 5 h j h j j j j r C E k k k k W r a a Q >._ _ R _ >._ w 8 = w r x a w a s ^ -.) ) ) E T C { ( F G G j t ( -.e.*.&.m m u 6   X X +     O           .       + 2 - # - - # # # # * # 5 : ; t h j k C [ *.F &.&.D g 4 - ; ; ; ; - # ; + 4 ; . o & m I b N 2.U I M v N #                                                                         X X                                                                                                                             ",
"                                                                                                                                                                                                                                                                                                                                                                      X O S.<.P M i.J # l z l # @ #   > # 2 #   O # O > # # # # @ 1 K P n 1 2 # # o ; # # # # O - ; - - 5 g g 4 : 5 j j t j S ( k E ~ E k ) a a f Q Q W >.,.R s 8 8 8 8 x _ _ >.-.) ) =.) E V E T =.{ { ( j j ( &.*.=.%.*.%.C C 2 2 X   X +                             - - X @ @ X o # X # @ # 5 ; 5 h h m j C m h h j 5 4 - - 3 ; - + # * @ * ; o & * 3 } Z u I 0.M K n 7 v #                                                                         X                                                                                                                             ",
"                                                                                                                                                                                                                                                                                                                                                                      + J ~.P U J i.c 6 7 2 + X # + 2 4 > O X @ - # > # X # # @ - 4 K %.c 4 1 1 - - @ # # ; # + - - ; 4 : t 4 5 h 5 j k k k *.=.*.o.d.d.-.+.) W s x s a R .._ x e = e 8 y d x ! E a a k q a a ( { ( ( ( F C =.8.*.( ( &.C C G h h #                       O             O 2 - X O @ X o - @ X X * : : ; t 6 3 5 : : 4 4 - - - - 4 ; # ; ; ; o 2 7 & o : 2 Z B z Z P v 7 K v g -                                                                                                             X                                                                                         ",
"                                                    +     X                                                                                                                                                                                   O                         O                                       + X                                                   # <Xi.U 3.(.3.n 6 # O > #   # 2 2 # # # - # 2 2 # @ @ X X - - F 1.n 7 # # 2 ; @ X # 2 1 # - - - - ; ; ; ; ; 5 h t h j k k V k ! ) o.! W k _ ` Q ~ ..>...} x % $ e y 8 w 8 q q : k k r k { C { 9.=.{ 8.8.*.Z ( &.Z j m n 5 5               +                         X - @   @ #   - ; X # X o # # * # 4 5 2 4 ; - ; 4 ; 4 ; ; # # ; 2 # 3 h & o ; 6 B t t m &.N M v m n 6 +                                                                                                                                                                                                     ",
"                                                    +                                                         +                                                                                                                                                       +                       +                 O                                                   O J (.J J t.P.7 4 > @ # > # 4 2 3 2 - ; + o - 2 ; & X o # # o - h P h g - - 4 2 # # 4 1 # > 2 2 4 - ; ; ; : ; - : : j i e e r j r r r 9 r r V _ >.o._ E x _ S e = 8 % = = 8 % q q d q k ( { ( { =.{ =.k.e.&.F &.G Z G C v u @             @     .                 X     # - - X # # X # - @ @ O - # + ; 2 4 - - @ - - - g ; ; ; - ; 2 3 # 3 h ; o * 3 b e 7 u y.U u m v 7 v 7                                                                                                             +                               O                                                       ",
"                                                                                                                                                                                                                                                +                                                       O                                                             3.i.n w.P.g 2 4 4 > 1 1 6 4 2 ; @ ; ; # # 2 - o @ X @ o   X # - I %.h 2 - # v 4 + > 1 O O - 4 - o - ; 4 5 3 ; h h C C u j k k a j r q r r r d ~ _ >.>.x x x = % e = 8 r i j k k d k ( { ( F ( F &.{ I { C F k C I L h h 5           .                     X             X - - X O # O O @ # 2   @ # + # # - 1 o - - & 4 ; o - o & # 2 # 7 Z 3 ; = = z u u v | 4.N N v N n v +                                                                                                                                                                                                   ",
"                                                                                                                                                                                                                                                                                                                                                                  X   p.J 3.9XU 1 1 4 1 2 > 7 c 4 2 * - ; @ o ; 4 ; o o @ @ #     X - %.&.n @ - @ N 5 - > 1 2 > - 4 ; 4 ; - ; 4 4 4 h n t j j q k A k k i r 8 % 8 8 w x >.>.} x x % r z w r d d V V i r V ( { =.( ( &.{ F G m I G C [ | m t 5 ;                                                 O - - O O # # X # - # X # - # 2 o o o o - - ; 5 & - - - # 2 + t I 3 * ; = u Z 3 b [ t.Z 4 7 M v 7 #   X                                                                                                                   X                                                                           ",
"                                          O               X         +                                                                                                                                                                                                                     X                                                                         n Y.3.<X1.g 1 4 2 7 4 c v 7 2 ; 2 5 # ; ; ; ; ; & * @ #       X X g 3.N - - 1 7 g + @ O 4 2 > 1 4 ; g 5 5 4 : : h j C G j C m C k k k k e 8 = 8 x x _ >._ } x = e < r i e e y k j k k j G { C C G C k j C ( C C ( F j h v +                                                     - 1 - o X # X # X # # # + X o - # # o - - ; - - o - + < * 3 G b & 2 < i b < 5 m t.K v 7 4 6 v -                                                                 X                                                   +                                     +                                       ",
"                                                                                                                                                                                                                                                                        X                                                                                           <.J.9XY.6 , 1 1 7 7 l M v 6 2 6 7 , & ; 5 5 - o - o               O M n 6 2 7 c n 7 1 @ 1 6 2 # # - 5 g g g 5 5 5 g u C G G L k h j y k r = % % z W } ! x x e % * % r B i i x B ' ' k C S t q h h Z C S I S B G L j j N n @     .                               O                 + 2 ; # X - o - - o @ @ o X # - # + 2 ; # ; - # * # 3 * 6 L B 3 = 3 A L z t h [ P I K l 4 > O X                                                                                                                                                                                                 ",
"                                                                                                                                                                                                                                                                                                                                                                O > J.Y.qXU 1 7 > 7 l 7 M c 7 6 t z 7 * ; 5 3 ; o ; o X o       O     O 1 N 2 6 N P 4 n # - X X 4 4 - ; 4 5 4 5 g h n h 5 t C j G ( S S { ( ( G 8 = 8 d ! x y x 8 % = % : q y d y B S A k y h h q j ( G k F F k G G k h h m 5                       X                                     @ # # o # o - o - @ X X   #   # 5 @ # ; ; 3 ; + < < e H B e < 3 z } H u b N v K 1.v 1 O @                                                                                                                                                                                                   ",
"                                                                                                                                                                                                                                                                    +                                                                           X   X         X + P ~._.Y.l l > 1 l l n J M 7 7 u 7 3 * 5 u 3 & - o o X o               # J 1 1 J K 7 7 # # > # 4 c 4 2 4 4 4 : 4 g h j 5 5 q : 5 k k C ' 6.=.*.A w q 8 A } A A i % % % : i e i 8 e y e : t j j j C %.Z C h Z Z j C G j h m : @               X                                   X         X + - - X X @ - @ @ # X X #   5 ; o ; ; 3 ; * * < u Z B z z < z H [ v 3 b N n K N 7 # X                                                                                                                                                                                                   ",
"                                                                                                                                                                                                                                                                                                                                                                1 _.5.P.K 6 1 7 4 4 l M c c 7 7 v 6 = 2 5 3 ; ; o o & X                   6 c 2 n l 6 4 # O # # # 2 6 6 2 2 - 4 ; 4 5 t g j g : : t 5 : 5 j ( V ]  .i e x ( _ } S q 3 % 8 e : % : 3 3 t t h C F m j j j j j k t y G G t h j - X                                                                   X - - X - @ 2 # #     # 5 # o ; ; ; ; * + 3 3 z A y z e e z H n b b K v v 6 4 6 X X                                                                   +                                                                                                                             ",
"                                                                                                                                                                                                                                                  O                                                                                           X X           O X i.P.t.Y.l 4 1 l 4 7 N N 3 g h h u 3 : t u ; ; * # o + X                   @ N 7 M M 6 4 6 # 2 1 2 2 1 2 g 4 ; ; 5 4 4 5 3 h h h 5 5 ; : $ & q j r ' S d i G V ] ( u i i e e = e e = y j u b j F j j h j j j : t t C C h j 5 X @ +     X                                                             X - 2 - @ 2 2 # @ # g n - o ; 2 2 2 * * 4 < z G B z 3 3 6 z F Z v N M v - # @                                                                                                                                                                                                     ",
"                                                                                                                                                                                                                                                                                                                                                  X O   O     P ~.3.<XU 4 1 7 l g n N g g h j h 3 3 h t 5 ; & ; # X                       X 4 v n <.# 2 7 4 , # 1 1 # + 2 2 2 2 ; 3 - ; ; : 3 4 h j j N t t * 8 i y i y = x ] S V y B B e 3 % : 3 e j j t 3 t h h ; 5 t 5 3 5 3 j I j h j ; .           X                                                               @ 1 - - O 1 - + g F ; ; 2 3 * , # < = 2 z B B B < < 6 < v F v 7 7 4 7 4 O                                                                                                                                                                                                     ",
"                                                                                                                                                                                                                                                                                                                                                            z 2XJ P t.6 > 1 l 4 g I h 5 5 h j 5 : t h t : ; * ; X   X           O         X O J K w.c z 2 2 2 # 4 7 4 1 1 2 4 4 ; - - - ; ; ; : : h j m Z j t : 3 3 % e e x [ ' Z e y y e 3 : = e 5 t u 3 5 u h : : 4 - - & : u | G n j C -                       +                                                         @ 2 - @ # + 1 v - o 5 3 * * * = * = u B z u e 7 < 6 7 N v v 6 2 2 2                                                                                                                                                                                                       ",
"                                                                                                                                                                                                                                                                                                                                                    O     n wXi.M 3.N > @ 4 4 4 N j 3 5 : t 5 : 3 5 5 ; 3 ; ; @             X                 K i.J N P 6 # > > 2 4 4 7 g : ; - - ; - - - 5 4 4 : : 5 3 h j j j i y 3 3 y i S ( i 3 t e 3 e : : 3 3 3 ; 3 3 u : : - & o & & : h G F m C n @             X     X   X                                     @                     X 2 2 O # X 7 4 o 2 2 # & , 2 ; 3 u u u A 6 7 = 3 5 7 n N 2   # o O                                                                                                                                                                                                     ",
"                                                                                                                                                                                                                                                                                                        O                                         X O O l fX_.l c 3.c > > > l N l 4 7 7 g 5 : 5 3 e 3 2 * ; # @     X                         l 4.F h i.v > 6 2 # # 4 2 h 7 5 2 # o ; ; - ; - ; - ; h t : 5 5 y b i t : y e k ' B e e y 3 t : * ; 5 ; : & - - - & o o o & & j j %.L C F : @                                                                           X         + ; - X - 7 4 - 4 ; o * > < * 3 3 u v Z u 7 < * 3 4 h g - X # @                                                                                                                                                                                                       ",
"                                                                                                                                                                                                                                                                                                                                                  O   6 fX_.N 2 6 c 1 1 2 2 v M 2 4 h 7 3 : 3 t 3 3 2 * ; ; .                       O           U 3.D w.M , > 2 2 # 1 , 5 5 h 5 ; * X @ o o ; ; ; * & : t t 5 : : y y b e u j G B 3 i u 2 = * ; 5 ; & - & X o o o X * & : h m F G m &.F X     X X X X                                                                               # 2 X ; N ; ; ; o o # * * * 6 z u z z u ; + - g %.N X                                                                                                                                                                                                             ",
"                                                                                                                                                                                                                                                                                                                                            X X O + 6 1X<XP v 6 6 l 1 1 > c v 2 * 7 7 3 ; ; 3 5 ; ; ; # 2 + +                                   c P N 5.c 2 # 4 6 # # 2 5 3 5 5 : ; ; o o - o - ; ; ; ; : : : ; : 3 e B z i S S u t C C 3 : 2 : h 5 & o X o & & ; : * : j j j F j m %.4               O                                                                               # 2 2 D u o ; # * & < & # 3 z 7 z 2 2 ; 2 2 m t.D     X                                           X                                                                                                                                                             ",
"                                                                                                                                                                                                                                                                                                                            X     X       O - #   6 2XJ.P P 7 2 l > > > , M 6 1 2 7 3 ; * ; ; ; ; * * # ;                                       # 1.7 N F 6 # # n 5 # 2 5 g ; ; 4 : ; ; & o - - & & - ; : 3 : 5 t t y u i i Z S t e C C u y t Z j t o : & * ; 5 : 5 j j C j I C C F G o                                                                                               X - 5 7 7 o - ; # * # # * 3 6 3 3 = * # 5 ; v 5.u                                                 +                                                                                                                                                             ",
"                                                                                                                                                                                                                                                                                                                            X   O   X   4 4 > @ F <Xw.K P M 2 > 4 > 1 1 2 4 # 2 2 3 ; ; ; ; ; 2 * @ # #                                       O # P c 4 U v 2 # 7 M 1 # 2 2 2 2 : g ; 4 ; - ; & & ; & & ; 5 5 e B C B b b z z j : : C [ m e y L A k h 3 ; ; C F j C G C h j m C &.*.N                       O                                                                         .   O 7 7 - - @ o @ o # ; ; 2 2 2 # + # ; # F U @                                                                                                                                                                                                               ",
"                                                                                                                                                                                                                                                                                                                            X # O X X # 7 6 > J 4Xw.N 3.J l 2 2 6 1 @ O 1 > 2 4 4 * ; ; * ; 2 ; + ; #                                             7 J 7 U v - 2 # 7 2 > , 2 2 3 ; : 4 ; 3 5 5 5 - : 3 5 3 u C L b b S } A B e 3 ; ; h G C t C | [ [ j j k &.F G Z F Z j j j j I *.*.3                                                                                                         # : 2 # X @ 2 # * 3 2 @ - - - # # ; m g     X O                               O                                                                                                                                                                         ",
"                                                                                                                                                                                                                                                                                                                          X X 7 > @ 4 n M > J.2X<.P <.3.N l 6 6 6 1 > # 1 # 2 6 # # ; # # ; ; o ; # .                                             + N 6 U <., , # 2 c 7 , # 3 3 4 3 : 2 ; 4 u 5 h 3 t 5 e y C  .[ Z Z ' S j 3 e & : j j e 3 k I S I j C *.=.G &.j h k F j j [ 8.*.F &                                     O +                                                               O + 4 2 # # # ; # @ - 2 + # # ;   ; - #                               O                                   O +                         O                                                                                                                   ",
"                                                                                                                                                                                                                                                                                                                              7 6 1 l K M J.~.3.c U U U M v 7 2 1 1 > > # 1 2 # > + + ; # o o o #       X                             O             h K N | 6 # # # 7 l 4 ; 2 2 ; 3 : : 3 3 5 5 h j j j u j i Z S B b j y i 3 ; o & ; t : 3 t j Z Z Z S G ( &.G k Z F j m G *.*.%.%.- X         X                   X                                                                       +       - * 2 ; # # - 2 - # ; # + ; - X                                 O                                                                                                                                                                                 ",
"                                                                                                                                                                                                                                                                                                                            O l c 4 c c M S.<.J K P N J z J 6 4 - - X # - - - - # - - - o @ # -                                                     > N v N 7 4 & - - 5 5 h 3 : ; : ; ; 3 : 3 ; q j C F G F j C j j h : h j * o . . . & o * : : e t j b j G Z k k F j Z =.&.&.m m N                                                                                             .           O       +   + + # 2 2 > 2 > 2 #   +                                                               X O                                                                                                                                                     ",
"                                                                                                                                                                                                                                                                                                                    X   O O # 6 4 N c l J K J t.U J N D J J n 6 - o # X - # - # o o ; - # # #                 O                               O       6 K h 2 N - - g ; ; 5 4 5 3 5 : : 5 5 3 : 5 5 j j ( Z m u : : : t : : & o X X .   . o * * * * 3 3 5 j C C *.*.*.*.=.I F j I j X                                                                                                                           O                                                                               X                                                                                                                                                     ",
"                                                                                                                                                                                                                                                                                                                        O 2 > 6 g D 7 c K P P 5.U K n K K M M l - - o X X # # - o - - o - o         X                                             X   2 w.K 1 7 N ; ; 5 ; ; ; ; t h 5 5 5 h h : 3 5 h h j j 5 5 & & ; ; * & . X X o X o o o o # o & * 5 4 h k F *.=.*.&.F h j F *.;                                                                                                                                                                                                     X                                                                                                                                                             ",
"                                                                                                                                                                                                                                                                                                                        O # h v c J D w.n P P P U P v K :.J 7 6 2 @ - - o X - o - o o - ;                                                   X       X O U 1.c > n h - ; 4 ; - & ; 3 t g t h 5 t t 3 3 : : ; ; ; & & ; - * X . . X - & - o o o & . o o * - 4 h h D %.k h j F m I I o                                   X                                                                                                     X                                                       X       X                                                                                                                                                         ",
"                                                                                                                                                                                                                                                                                                              X     X   1 2 v M 7 %.P.p.P K P U P L Z H P H l < 1 1 - @ # O # X o X - o X     X                                                       # 7 3.7 6 2 5 2 - ; 5 : - & 4 : - 3 3 3 h u 3 - : & - & & ; * : : * * o o ; - - - - ; ; ; # * # o o o ; g 5 5 h b &.F j I g                                     + +                                                                             .                                                             +                 O           X     X                                                                                                                                             ",
"                                                                                                                                                                                                                                                                                                              X X     > 1 - g c 7 1.w.U J v %.1.Z I H H H J l 6 - @ @ @ @ @ @ # X X o X                                                                   M 3.7 g   - 4 5 3 g h 5 ; 4 : 2 ; 4 4 ; ; o & - & ; ; : 3 5 5 ; * & & - ; ; - ; 5 4 ; ; ; # o o X o - 4 5 m G F h F F X                                                                           O                                                                                                                                                                                                                                                                                         ",
"                                                                                                                                                                                                                                                                                                                    @ # 4 c 7 n K t.U 7 v v F %.N L [ L H H z 6 - - - @ # # # O O - - X                                                                   2 3.v 7 2 X - g ; 4 g g g 5 g t ; ; ; - X o & - - ; : 5 h g t : & o - ; ; 4 ; ; 5 4 5 ; * - - X o o X - ; t 5 3 5 h #                                               O           +                                                                                                                               O                                                                                                                                                                           ",
"                                                                                                                                                                                                                                                                                                                    1 1 l n c c P 5.K n N v N n K P :.2.P H l z ; # @ @ # # # O # 1 #                         +                                     O       n n # g ; o - - - - o - : : ; X   X X o - * - & ; 4 : 5 5 3 : * & o ; : 5 5 5 g 5 5 3 5 : : - o X X X X - ; u v ;                                                           X                                                                                                                                                                                                                                                                                                             ",
"                                                                                                                                                                                                                                                                                                                    # 4 M g 4 4 7 1.D N h g N N v | 2.2.1.N 7 7 # - # # # # + # # #   X     X                                                               v F 2 # 6 2 # ; 2 2 ; o + +       @ o - - ; - ; 5 : : h g t 5 & - ; ; 3 5 5 t 5 5 5 3 4 5 - : o     X X   o 4 ; X                                                                                                                                                                         X                           X X                                                                                                                                                                 ",
"                                                                                                                                                                          O                                                                                                                                         X 1 M g 1 c n n 7 D h 4 n F v F 1.I 2.F g 4 - - o - - # 2 1 # X                                                                       X Y.i.5 @ - 1 @ X # o @ @           . - - - - ; : : 5 h h t 5 5 - o - ; ; ; 4 u 5 4 4 ; 4 ; 5 o o X   X   X - o         X X                                                                                                                                                                                                                                                                                                                                                                 ",
"                                                                                                                                                                                                                                                                                                      O         X   X 7 n 6 2 1 c D 5 n h n D D m I *.&.2.K g 7 - # # - - 2 4 4 X X   @                                                                   1 fX`.5 ; - 6 -                     + X - - ; ; ; ; 5 t j h 3 - o o - - ; ; 5 t g 5 5 5 5 4 - - X X       : 4 @                                                                                                                                                                           +                                                                                                                                                                                                 ",
"                                                                                                                                                                                                                                                                                                                  X O 1 n g 4 n %.D g g g n 1.U v G 3.| 1.D g 6 2 2 - # 2 6 # # # o                                                                       w.fX`.F ; # - - o @             #   o o   - o ; - ; : 3 5 4 ; o - o - - - ; 4 : ; t 5 g ; ; o X - X X X X g g                                                                                                                                                                                                         X   X                                                                                                                                                                 ",
"                                                                                                                                                                                                                                                                                                                  O O 2 n 4 2 U 5.D 4 g 5 N 3.| h Z *.1.&.h 3 2 6 2 - 2 g 7 # + +                                                                       v kX4X2Xu.6 4 + X # #         X X + # X o   X X o o - ; : 5 3 : - o o - - - ; 4 ; ; ; ; ; ; ; - - - o   o - g 5                                                                                                                                                                                         X                                                                                                                                                                                     ",
"                                                                                                                                                                                                                                                                                                                X X # n J 6 F 3.K g g 5 4 n &.I b L 8.*.&.h 5 4 6 2 g h h 4 2 #                                                                         t.kXU._.p.6 > # # 1 @ @ .   + # O + - - - # X o o - - 3 5 5 - - o - - ; ; ; 5 ; : ; : - ; 5 5 4 - ; o o 4 5 N 5   .                                                                                                                                                     O                                             X                                                                                                                                                                       ",
"                                                                                                                                                                                        X                                                                                                                           # M N g U w.n m 5 g 5 D 3.[ j I 0.*.F 5 5 2 4 7 n m 6 - 5 #                                                                       1 9X2Xt.~.i.7 * # # ; @ . X     X # # # - - : * o - - : 5 5 5 ; ; - - ; 4 4 : 4 5 4 ; 5 : 5 h n 5 3 ; X - h g n 5 @                                                                                                                                                                                 X         X                                                                                                                                                                                 ",
"                                                                                                                                                                                        +                                                                                                                           c M K %.D N h g ; g g F &.I C G 2.[ C n 3 5 7 6 g 5 2 2 2 X                                                                       p.kX(.i.5.%.K 7 # # # # # @   X   o o # o o ; ; : ; 5 5 5 t 5 ; - - - ; ; 4 4 : 5 t g 5 5 h h 4 g ; o o 4 v h F K .                                                                                                                                                                                                                                                                                                                                                                             ",
"                                                                                                                                                    X                                                                                                                                       +                       v l N P c g 2 2 2 4 v N &.| F L [ L b h 5 5 3 2 4 6 4 4 2 # O X                                                                 > qXwXJ.<.J v U z 2 + # O + 2 X X X o # ; - # ; ; : 4 5 5 h h m 5 5 ; ; 4 g t 5 h h j j g j j j h j 4 ; ; h g t %.&.- X X                                                                                                                                                                                 + +                                                                                                                                                                                     ",
"                                                                                                                                                    X           X                                                                                                                                               # # 6 7 1.D 4 g 2 2 2 2 7 1.I  .} L S m u b u 5 2 5 7 2 2 6 @ X X                                                                 O P MX9X<.:.P 6 v 2 6 ; > - # - ; X o - - # - ; # ; ; : g h m m j m 5 ; ; 5 t h h m m h h j j t j j g 4 5 g n 5 C e.e.n X                                                               X                                                                                                                                                                                                                                                                       O                                   ",
"                                                                                                                                                                    X                                                                                                                                           > # 2 7 5.K 6 v 2 1 4 2 b I P [ L A S B C n 3 ; 7 N g 4 6 1 @                                                                     O ~.BXqX5.w.H > #   * + 2 # 2 o # # X o - ; ; - - : ; 4 5 j D C j h 5 ; 4 5 5 5 j j C C m j j j j g 5 5 ; j g n C =.e.N   X                                                                             +                                                                                       O                                                                                                                                                                                                   ",
"                                                                                                                X                                         X                                                                                                                                                     O # O K <.v v 2 4 2 4 7 N Z L  .' Z I Z Z h 3 7 n m g ; 2 1 O X                                                                   # fXMX4XJ.:.z , # O   # # X - - @   X X X # ; ; - - : ; 5 h j h h 5 ; ; ; ; 4 5 t h m C j t j j j 5 5 5 5 g 5 C %.&.%.P X                                                                   X       X             O                                                                                                                                                                                                                                                                                 ",
"                                                                                                                                                            X                                                                                                                         +                       O   1 2 w.1.c 6 5 2 2 7 g n [ [ 2.[ G G j t h h 5 F m 5 3 - X                                                                       + fXBXqXY.t.7 # +   + 2 2 # # - - O # X X X # @ o - ; 5 5 g j n n g ; - - - 5 g h h m C j C m j h h 5 h C g h L &.F N 4.4                                                                                       X       X                                                                           +                                                                                                                                                                                               ",
"                                                                                                                      +                                         X                                                                                                               X                                 > 6 t.P l c 7 2 1 v h F 4.&.[ *.G j q t h h G F h ; 3 O X X                                                                     6 kXfX_._.3.7 # - +   # # # # X @ @ - # # # O o ; ; - ; 4 4 5 h h ; ; - - ; 5 t h j b j j G m 5 g 5 m C m h C m G m I 4.%.X                                                                                                                                                                                                                                                                                                                                                                         ",
"                                                                                                                                                                                                                                                  O                           O                           O X   # # v w.c c v v 4 4 7 7 I 0.I L C t : 5 h 5 t F j 5 ; -     X                                                                     1 wXqXp.w.H > 2 # + @ X X # # # X o X + - 2 4 ; o o - ; 4 ; 5 g 5 ; - ; - 5 5 5 5 5 j j j C j h 5 C &.C g m m h &.I %.I w.g                                                             X                                           X           O           O O                 O           +                       O                                                                                                                                                                               ",
"                                                                                                                                    X     X O                     X       X                                                                                                                                 +   # 2 t.5.c n l v 7 4 7 N L | P C i 3 t j 5 : h j h 5 ; X   X                                                                       @ _._.U J N l 2 2 X     X O 1 4 - X # O 1 6 5 : 2 - o - - g n j h g ; 5 n m j j j 5 j C j j m C C F F m C C m &.*.I F F w.&.                                                                                                X     X                                       +                                                                                                                                                                                                 X                       ",
"                                                                      +                               O                                                                                                                                                                                                         X 1 ~.%.n F h v 7 4 z Z H :.N e t t Z u 3 5 b h h 5 o                                                                             2 K J z H z 6 4 2 # O # O O @ 2 - O X - - ; 4 5 g 4 5 4 3 : h m g 5 g j C F %.I &.S C Z j C *.%.j b G F m h %.*.e.%.%.C &.*.- X   X                                                                                             X X             X                                                                                                                                                                                                                               O                   ",
"                                                                                                                                                                                                                                                                                                                  M _.c v D h 6 N z J I H H z t z N h 3 t m C h h ; X                                                                           O 2 J v 7 v 4 4 2 2 4 3 7 7 # X # 6 2 - 2 2 2 2 - 4 5 g 5 h m F j u ; ; g h j m %.&.G C j %.G ( Z j %.%.m j &.&.*.&.Z j &.%.4.g X                                                                                       X                             X                                                 @                                                                                                                                                                                             ",
"                                                                          X                                                                                         X                                                                                                                                     O     O 3.t.l 7 v v v N v J P B z b b S u 3 = h Z u 5 2       X                                                                     @ O > <.P l 4 6 4 # # 2 2 7 c 2 #   - 7 ; 2 2 2 6 4 5 5 4 5 j G &.&.%.5 ; ; - 5 5 j G G C &.&.&.&.C C %.Z j F *.*.&.j n j %.L %.;   X                                                                                                                                 O                                                                                                                                                             O                 X                                                 ",
"                                                                                                          O                                         X                   X                                                                                                   X                                   X (.U 7 7 N z K M 7 J :.H B S S m 3 3 t j 7 u ; .   +                                                                       X - > P (.i.M 7 , 2 - + 2 2 2 6 l M 2 X 2 - X + 4 > 4 g h n h h Z G &.*.%.t 5 g t m &.u.D.b.=.&.G G C j m m m C *.G F m C %.I F I X                                                                         +                                           X                                                                                                                                                                                                         X                                       ",
"                                            +                   +               O                                                                                                                                                                                           +                                 O 6 Y.h 7 v U M J Z u F U B G L b t t k m u b 3   .                                                                         X X X 4 P.<Xi.5.c 4 1 2 - 2 2 2 4 7 P v # , 6 # # 1 4 5 7 7 m j m I %.&.4.&.F n j F &.e.U.E.r.k.*.( C m D n h m j G m n C %.%.D D g X                                                       X   X                     X         X     X       X     X     X   X                                                                                                                                                                                                                                     +       ",
"                                                                                                        +                                                                                                                                                                       +                             O M P.6 7 J P M 3.N v G F j G C t t j F t u 7 *                                                                             X X X N qXP.5.5.g 1 4 - # 2 + 2 g 2 M l # + # - # O # 4 5 6 6 j m C &.e.&.F I j h %.*.&.r.r.*.=.&.F C C m t 5 h h h j G D.&.=.I m 4 X       X                                                                                               X   X                 +   +                                                                                                                                                 O                                           X                                       ",
"                                                                      @                                                                                                                                                                                                                     O               O   N 5.7 7 K N M t.Z h C G C C t t j F h t t &                                                                               X X ; U qXY.S.3.n 7 7 4 2 # # 1 6 z n v 2 2 O > 2 # # # ; 5 h 5 j h %.e.4.I C h g j %.*.D.=.=.&.%.C m m j t 5 3 h h F r.F.&.F 5 C h X X                                                           X                       X                   X                                                                                                                                                                                                               X                                             ",
"                                                              O             +                                                                                                                                                                                                                       O           U t.7 4 K M v 4.I j F L j B j i F h h h o X                                                                             X   X - P.2X~.S.J n c g 6 4 2 # , 2 7 l v v > 7 2 1 # O X # ; 2 h m j C *.&.( F h h j C &.=.=.&.%.G C j h g 5 5 3 h g F e.%.F n g D %.-                                                                   +             X           X                     X X                                                                                                                                                                               +                                                                 ",
"                                                                                                                                                                                                                                                      X                                                   X   X (.i.n c U n N 0.I m F S m Z i u C j n :                                                                                 O X # 4 t.S.J.3.c c n 7 2 - # - g ; ; ; v N g N P 2 o o + @ o ; u m h h b b j N h 3 h F m G I S L G h u h t 4 : j m h j m N ; ; g m %.4 +                                                                             +                                                                                                                                                                                                                                                                                       ",
"                                                                                                                                                                                                                                                                                                          X O 2 '.3.D N K v P 1.m Z | Z Z C j C j m 5 o X                                                                                   1 7 3._.5.J J c 7 c 2 2 - - ; 5 - ; 6 v h g P g X   # # # # 4 b I [ m m h h h u h m D k G [ &.j h j t 5 j C D j 5 j n h 3 5 h I K m +                                     O                                                                                                                                                                                                                                                                                                                               ",
"                                                                                                                                                                                                                                                      +                                                       J 9XK U K J 7 P 2.N G I Z B u Z b t 7 *                                                                                       2 h S.<X5.5.J c J N 4 2 - ; 2 h h ; 2 m N g I %.;   X X # - - 7 F &.L j 5 3 u h h h j Z ( &.L Z j h 3 h &.&.j g g h h 5 h h j I F m # X                                     +             O                                                           O                       + X                                                                                                                                                                                                                         ",
"                                                                                                                                                                                                                                                                    + X                                       K <XU <.l J v 3.P b L Z S i b S t 5 2                                                                                       # ; U 4X~.<.3.M M <.n 4 4 - 4 2 Z %.h ; 4 g N D D N # o X o ; ; 5 h b F N h h h m j B Z %.( I &.( h j j F &.F j g j m 5 j I F j n K F 2   X                                                                 O       +                                             +                                                                                                                                                                                                                                         ",
"                                                                                                                                                                                                                                                                                                            O i.<X%.M N P M t.U C [ S Z j G B 3 3                                                                                     O X + - 1._.p.%.D J n M c 2 4 4 - 4 D *.F : 5 : g v 4 v 4 o # - - 2 5 5 u j C j h b m b C G %.G S I m j Z G %.I j g h F j u F I G j m I F 2 X X                                       X                                                                                                                                                                                                                                                                                                                         ",
"                                                                                                                                                                                                                                                                                                          O   Y._.J c P N 3.y.[ Z | b b j Z u 5 #                                                                                         O + 3.S.P.w.S.D c 4 7 g h g ; 4 j *.F 5 3 - 2 h 6 N U 5 @ o o # 3 v h N h g h m h B b C C C Z j j C *.G h j m h h n h N 4.C m j Z D D 6 X X   O                                                                                                                                                                                                                                                                                                                                                             ",
"                                                                                                                                                                                                                                                                                                          @ X S.w.M J H H i.i.G S L B C j i u :                                                                                     X   X   6 P.P.3.t.i.c 4 g 4 g D j ; : j I F h g - 5 v 7 m &.F - # ; - ; g h m Z j h h h j C m C S j j j G &.j h C m g g h 4 D *.m m m &.%.F g X   X                                                           +                                                                                                                                                                                                                                                                                                   ",
"                                                                                                                                                                                                                                                                                                            2 2XU N :.H H p.6.H } C Z b t h u                                                                                               7 P.e.P.4X3.c n 4 1 g F m 5 h h I *.j v 5 ; 4 7 m n &.1.2 @ # ; 5 7 h F m C h h j n m j j h t t C j m j m h 5 h g - C L m b h %.w.I h +                                                                                           +                                                                                                                                                                                                                                                                       ",
"                                                                                                                                                                                                                                    O                                                                   X   U 2XU K 1.K P J.:.' *.G L e e t #                                                                                               2 w.i.wXqXD g h 4 g h F m h 3 j %.&.Z h C 3 ; ; g g n 3.N 6 - ; 7 h h h m C Z t h h h 5 5 h 5 u h g G N h 4 5 F g 5 F &.F G j G &.K h #   X                                                                                                                                                                                                                                                                                                                                                               ",
"                                                                                                                                                                                                                                                                                                            U.P.U 3.4.H 6.t.:.0.| Z S 3 u 7                                                                                           O   + n 3.~.9XU.g 4 g g m %.D 4 h 5 m A &.L h F m ; 3 N K 4 g 7 v n 4 5 g h n G L m b j h g h g u u u Z G F N h g h F ; : I e.G G F h D j m -                     O                                                                                                                                                                                                                                                                                                                                             ",
"                                          O                                                                                                                                                                                                                                                               + '.<.M t.1.Z :.6.:.c.[ G y 3 b +                                                                                         X     X v <.qXwXw.g g ; 4 h F n g 5 5 k ( L S y b F 5 ; g N g 2 X - v 4 ; ; h n G | ' j C h m j 5 : 5 j F G n b : - h h - : I 4.G j j h h g v ;   X                                                                                                                                                                                                                                                                                                                                                               ",
"                                                                                                                                                                                                                                                                                                @         N 9XN F 4.Z I y.2.2.9.L B 3 u 3                                                                                             X   # D U.wX_.F n 2 2 g F F m g h 5 j G &.Z u j I | 5 ; 4 N g - 2 6 7 4 3 t m j G L L G &.j j h g u j m j N b 2 g h ; o 5 C U F C G F h g h h @                                                             X                                                                                                                                                                                                                                                                                                   ",
"                                                                                                                                                                                                                                            +                                                         +   u.u.v U 3.G :.K.6.:.:.B i 3 3                                                                                                     1.9XqX<.g g 4 ; h %.%.j h j u j G S G i u G e.n ; ; N P g 2 - g n g j F m C F C *.0.G j h 5 h h t h h 2 2 5 g o - ; C F j m F &.j h v N -                                                 O                                                                                                                                                                                                                                                                                                               ",
"                                                                                                                                                                                                                                                                                                        - 9XP K t.I P y.J.6.q.:.x z y 2                                                                                         +       X 2 5.9X4XM g g g j &.%.h j h j j j C C | j j b | I 5 ; ; n g 5 - : h D m C C m C &.8.*.%.j h j b h 7 g 4 ; 2 v h o ; ; n L F C j %.F D K Z v                             O                                           X O                                                                                                                                                                                                                                                                                     ",
"                                                                                                                                                                                                                                                                                                        5.2Xv P e.Z K y.K.q.0.} u u 3                                                                                                 O X v w.9XP.D n g m %.5.I j F C j j j G S [ F j C G 1.m 2 + 2 4 n g 4 j j D j j m C &.r.*.C j m C b u 2 5 ; ; # v h X o - h %.&.( j %.L j L K N #                                                                                                                                                                                                                                                                                                                                                               ",
"                                                                                                                                                                                                                                                                                                      # fXt.N p.&.v  .0.K.b.:.A u Z =   .                                                                                               6 U 9XqXt.D g 7 &.u.%.%.m F m C j k &.L [ C t j G [ Z 7 ; # 4 c g 4 h h h m m C C ( &.[ j m j C n 5 h 5 ; ; 7 h - o & ; h C j I G Z %.F I K P v                                                                       X X       X                                                                                                                                                                                                                                                                             ",
"                                                                                                                                                                                                                                                                                                    O M wXc 5.(.H m :.:.K.K.:.x b C * .                                                                       O                     X   D e.qX<X3.%.D D 5.4.F F F F I G C C [ | } Z e u C b j 5 & * # 2 2 2 7 5 u b m C C [ [ C C F n m 5 h 5 - ; : h m : - ; - m G j F j j I %.F L K N #                                                                                                                                                                                                                                                                                                                                                             ",
"                                                                                                                                                                                                                                                                                                    O 4X_.<.1Xy.:.| 2.8.M.c.G S A B     +                                                                       O                 X   g P i._.i.w.&.D 5.4.F F &.I G I G C Z  .*.6.Z y u B Z 5 h 3 * # # + ; 4 3 u j h b C S G I C D h t 5 h 5 ; 3 h m h 3 - - g j I j j F j C F | I n F u                                                                                                                                                                                                                                                                                                                                                             ",
"    O                                                                                                                                                                                                                                                                                 .           O v fXJ.qX_.| K } q.8.c.6.[ B S v +   X                                                                             O             X N P U.i.e.&.D I t.I m I *.I I [ ' C (  .*.4.Z v x G C b b t 7 * > 2 * ; 5 u h h j Z Z G G C C 5 5 5 5 4 ; & h C m ; o - h F I C j D m j F 4.U F N v #                                                                                                                                                                                                           O                                                                                                                                               ",
"                                                                                                                                                                                                                                                                                              O     <X4Xi._.U K 2.P 6.:.m.0.' u S z                                                                                           X     2 g S.4X5.t.K K Y.u.F j F I G G G Z S G *.G } } u b S ' [ G b m 2 + ; 2 3 3 u u h C m j m j F j u g ; ; g 5 ; - j h 3 & - 5 K F h 5 L F j j [ 4.G F K M @                                                                                                                                                                                                                                                                                                                                                         ",
"                                                                                                                                                                                                                                                                                                + 4 pX5.t.3.m F 2.} 8.8.Q.8.S y m t     X                                                                                         X 7 K :X~.%.U P 5._.5.N F &.[ I [ L G G ' *.6.8.6.A B Z  .} L L u : # # # 2 2 3 5 h m m j h j h u 5 5 4 5 j t ; 3 u h j ; ; 5 C m j 5 m F j h I 5.&.F I I h                                                                                                                                                                                                                                                                                                                                                         ",
"                                                                                                                                                                                                                                                                                                O P.4Xp.Y.Z Z F L ' N.b.T.q.B i S h     X                                                                                       X g 7 3.9X&.P I S.'.S.K v Z I G }  .Z Z L S 8.c.q.6.S B [ 8.4.B Z u ; ; # # ; ; ; 5 h j m k h h j u : ; ; 5 F b 3 3 : 5 h & ; g h L j 3 h C n j C [ &.[ F &.K ;                                                                                                                                                                                                                                                                                                                                                       ",
"                                                                                                                                                                                                                                                                              +                 > <XJ.Y.y.Z K B H G q.!.q.6.B y [ t +                                                                       O       X           4 n g i.`.%.h %.<X(.%.m h N G G U [ S S I ' 9.c.f.8.S b 2.K.2.P Z t 5 2 ; ; - 2 3 5 u j j j h t n 5 ; ; ; 3 h j h u : h h 3 ; 5 j 4.Z 5 h F D h m Z 4.2.L I F h #                             X                                                                                                                                                                                                                                                                                                                       ",
"                                                                                                                                                                                                                                                                                                M P.P 4.P N [ G ' S L 9.6.} A B L 5                                                                                           O 4 g &.:Xw.D n 0.(.e.n N 5 m F &.I L I ' 8. .2.c.q.0.G B  .c.9.' b u j b 5 2 # # ; 5 u : h j j t j 5 ; - - ; 5 u m C h 3 h 5 ; j N &.I h h j Z m m h | 0.8.L %.F v +                                                                                                                                                                                                                                                                                                                                                   ",
"                                                                                                                                                                                                                                                                                                :.3.N K J m B [ } Z m P y.:.S i S 3     .                                                                                     6 g D S.(.K g F S.u.F h h g j L *.[ L ' :.0.:.6.6.k.c.} Z [ r.9.B S j ( L h ; - - ; - ; 3 : g u u 3 5 - - 5 : t 5 j G m g 5 ; 4 j I L 4.j 5 h j N m m G *.u.&.[ U U 7 X @       X                                                                                                                                                                                                                                                                                                                                       ",
"                                                                                                                                                                                                                                                                                                K N K N Z n u b | } S S :.f.S b S 3 .   X                                                               X                 X # g h K `.e.D n D %.%.m m g j C &.[ F S :.0.8.:.6.N.k.c.} L | n.8.L G L &.G j : - - ; - - ; : 5 5 : 5 ; ; h n h 5 5 h F m j 5 - : j I I | n 3 5 5 h L j F F 2.8.F L U N #                                                                                                                                                                                                                                                                                                                                                 ",
"                                                                                                                                                                                                                                                                                            X X v l v z Z K v y S 0.[ Z S } :.' C t . . @                                                                   X               2 5 4 D u.P g g g N n D g 4 h F I L C S 8.8.6.} r.W.v.q.L S [ 8.2.:.k.*.&.C 5 3 ; ; o - o - ; 5 ; 5 ; - - n F C 5 5 h C m j 5 : : h I G *.C : g : h G j h j &.t.%.F K N 6   X                       O                                                                                                                                                                                                                                                                                                                     ",
"                                                                                                                                                                                                                                                                                                z K 7 u v Z [ Z z L :.' ' S >.8.y.G o                                                                                   @ 4 o 4 j w.K D h g N %.g g 4 4 n F F C m L } 6.q.} 6.G.c.c.[ Z  . .r.f.n.&.C j h h ; o - o - - - ; 3 ; - - ; - m F C 5 5 j m G ; : ; j C F &.F m 3 3 h G *.j b m 4.*.F I P N 2 X                                                                                                                                                                                                                                                                                                                                             ",
"                                                                                                                                                                                                                                                                                          X X   v K m m b m P 2.Z h B } 9.] !  .b.r.Z . X                                                               X               # ; 2 5 D t.K U n n %.&.D g 4 5 n G N j S L 2.r.m.'  .c.6.b. .L 2.9.N.c.8.' F j h g - - X X - - - - - - - o o - h C %.g ; 3 m F h ; : j I I *.G F ; : 3 h 0.I j h Z I j F *.K m - @         X                                                                                                                                                                                                                                                                                                                                 ",
"                                                                                                                                                                                                                                                                                                3 | N N z u C Z G C y b  . .S ( :.r.E.m .                                                                               @ o ; m P.~.%.D N %.P.D.F 5 - 4 v b h j G 8.8.q.6.S } 9.v.c.0.}  .N.K.6.2. .j j j 5 ; - . @ @ + - o o X o o X - ; 5 C j : ; 5 j b ; ; h | *.2.m b h : 5 u r.I.m m m &.%.n U %.F c # X X X         X                                                                                                                                                                   O                                                                                                                                                       ",
"                                                                                                                                                                                                                                                                                                - 0.P N m Z b C I [ b i B 2.} ' _  .N.r.t                                                                     X     X X * 2 3 1.:XD.F g v 1.U.D.F 5 - g b b b b 8.q.8.q. .S ' q.T.N. .' [ !.!.8.8.S B b j g - o o X o # o X X X X X o X - ; j C 5 ; 5 m h ; o j [ &.2.Z h m 5 h : [ F.F u F e.*.L %.&.D m 1 X X             X                                                                                                                                                                                                                                                                                                                         ",
"                                                                                                                                                                                                                                                                                                # 1.N N v Z m h G } ' S i A ( S  .' q.y.y.3                                                                         X 2 # 2 6 &.^.5.n v v %.e.%.D h ; h m h u F 2.r.y.y.' L } 8.T.M.=.S 8.@XE.q. .C C C m 5 & & o o o @ o X X X X X X o o - 5 m b 5 : 5 N ; ; t [ *.2.Z h [ F n h b r.I j G *.t.%.F &.&.K c   X   X                                                                                                                                                                                                                                                                                                                                   ",
"                                                                                                                                                                                                                                                                                                7 3.N N h b b j b S } ' k C j k ( } S 6.b.H                                                                         o - - 2 M e.t.3.U N F 5.%.<.v g 3 5 h j b G 8.I.M.y.' G :.8.N.M.] B 8.G.k.k.| S j j t g - ; & o o # X X X X X X X X X - 5 h j h ; ; 5 ; ; 3 F [ *.G h I U C u b [ | Z 4.8.e.&.F L &.%.m - X O                                                                                                                                                                                                                                                                                                                                     ",
"                                                                                                                                                                O                                                                                                                             O N &.g M F F b b Z B [ ' j k j i B } G [ :.:.t +                                                                     X X 2 g %.u.K e.K N 4.4.K U 4 5 g h t h F G y.M.F.*.Z ' q.N.c.q.' G [ r.y.9.' S k h h t ; : & X # -   o - o o o       X ; 5 j D t : : 3 o h m G e.G h C [ 4.Z [ Z [ G I M.t.&.&.%.&.F D g o   X X       +     +                                                                                                                                     +               O                                                                                                                                                             ",
"                                                                                                                                                                                                                                                                                        O       v N h 5 P N j i G !  .' j r j V b [ ' L :.:.G . .                                                                   X 2 K K P 3.e.5.N M 3.:.K K h t j 5 h h F [ y.N.N.8.S [ r.T.q.v.6.G *.k.*.[ I ( j j h 5 : - X X   # 1 # X @   + X   X X o * 5 j h 3 ; ; & t m G 8.G h e G 0.G | [ 2.[ L 2.y.*.r.&.&.D n n ; X   O                                                                                                                                                                                                                                                                                                                                 ",
"                                                                                                                                                                                                                                                                                              # K P h U [ I u m Z S  .S i t j Z z A Z B :.r.0.U .                                                           X       1 2 K n U S.t.P n m K P K M h h n F F F G 9.M.y.M.L B G } q.q.q.{ '  .0.[ *.9.&.h h 5 ; ; #   X   X 2 - # O @ X X   . o o o ; 5 n h ; - & g m F *.| h t B 2.8. .L *.&.F C G &.u.=.&.%.D F g     X                                                                                                                                                               O                                                                                                                                                                 ",
"                                                                                                                      X                                                                                                                                                           X     X   X   i.%.N e.2.L j B B B ' S i b t C z i t b B  .r.i.Z                                                           O   O O 4 v v P 5.i.Y.J z z J 3.P N h F I 0.&.I I r.b.M.r.' A L G 2.' ' S A [ ' *.9.b.( j j 5 ; o         X O 4 # O o X X X o ; ; - o : h j g ; o 5 C L 4.0.C t h *.b.8.| F I [ Z I %.*.%.%.&.%.F F # X                                                                                                                                                                                                                                                                                                                                   ",
"                                                                                                                                                                                                                                                                                              - 5.h &.&.2.m Z B A ( S m b x t 3 3 t 3 t b h 8.w.D.F                                                           O # , > > M 5.N i.i.l J J P :.J J h j &.4.u.8.*.c.@XQ.8.G L ' A ' ' ' Z B ' *.G.b.r.C m j 3 ; o             # - # X # X   X 4 4 ; - & 5 j j 5 - 5 F I 8.q.( t j C u.r.[ [ 2.1.G U F &.C %.&.G %.F v                                                                                                                                                       @           O                                                                                                                                                                 ",
"                                                                                                                            +   X                         X                                                                                                                                   2 y.h P F G C C Z } } } x b y ; * < 3 3 ; u M m :.u.u.v   O         X                                           X > > > O M P 5.Y.J l N N <.J z M j N I e.r.=.0.F.@XT.} Z S ' S L 9.} S B A G./.F.&.j j 5 ; ; X               g 1 # o X X o ; g 4 ; : * g h 5 o ; N G 2.8.G t b B 4.9. .*.b.*.L Z &.=.=.&.*.G F m 7 #                     +                                                                                                                                               +                                                                                                                                                             ",
"                                                                                                                                  +                     +                                                                                                                                     7 P ; h Z I m y b } G ' S C u * & + # + + + 3 m B 0.0.t.Z     O                                             X     O O O 6 M i.4XP.M 7 z M P J l M N m G F e.*.F./.).M.[ F L L L :.9.6.! S 9.F.F.r.C C h 3 ; ; X               - 4 X X o - o & 5 h ; 5 3 : h 4 - g j N [ *.[ j h b [ F.0.[ M.c.*.*.=.r.r.r.%.&.%.C h ; +                                         O                                                                                                                                                                                                                                                                                       ",
"                                                                                                                                                                                                                                                                                          X   P U 5 m Z &.C B B Z ' ' S r 5 o X o .       @ 5 5 v | 2.3.M O   + X                                           X   # # 4 7 J _.qX5.7 6 l v N M 7 M v m m S &.8.U.Q.&X0.' S  .I L 8.8.9.' { c.F./.| B C u : 2 o                 X 2 - X o - X o ; j h 5 5 : 5 u ; 5 m j %.( &.C h j F F.D.*.M.E. .u.D.&.r.U.*.I I F K - - &                                                                                                                                                                                                                                                                             O                                 +               ",
"                                                                                                                                                                                                                                                                                              F K ; 7 &.m m j i i i V j t h : & X o   .   @ ; 5 h F n P 5.2 +                                                 @ ; + 4 7 J._.~.M 6 v l 6 7 l v v n Z b K I e.F.N.I.| L 2.y. .S  .9.*.} S r.F.9.S G Z u ; ;                       # @ X # # o - ; h j t 5 5 5 : ; j F C F G m h h m 0.D.=.F.&X*.2.D.&.&.r.4.&.0.*.&.F o -   X                                                                           O                                                                                                                                                                                                                                               ",
"                                                                                                                                                +                                                                                                                                             7 v ; v &.Z t i e y y k u i : ; : 5 ; @ @ @ o X o 7 Z h v K 5 +                                                 # # X # M U.~.1.7 7 M 7 6 7 v 7 b j m m C *.M.b.M.8.I [ 0.b.' L *.*.q. .' 8.[ G Z L Z 5 : @                       # 2 X X # o X - h h j h 5 5 ; 4 g D C G %.Z h h j [ 0.| b.N.0.| U.=.&.r.| G 4.y.&.&.g - -                                                                                                                                                                                                                                                                                                                             ",
"                                                                                                                                      X                 +                                                                                                                                     n v 7 m F C j b C j B j j k 5 t ; * X     + @   @ 2 7 h h N K     X                                         X X X X   2 3.`.P.M N l c 7 2 7 v h 7 n N Z L 4.p.Q.M.} } } 9.N.2.' 9.=.q.[ G [ C ' ' G b 3 ;                         @ g # X - ; o - 5 j t n u 5 4 4 h m m F Z m 5 5 n C *. .8.Q.y.' =.^.&.=.e.I L | e.4.%.: - X                                                                                                                                       +                                                                                                                                                                                   ",
"                                                                    X +                     X     +       O       O                   +         X   X                                                                                                                                         1.J v K [ Z Z S S S B b y i t ; +           X - X - 4 2 ; N P g X X                                           X   - 2 J 3.P.5.K U l 7 > 2 l 6 7 u t h F G *.b.N.q.[ *.0.n.N.*. .8.8.6.G S Z C [ [ S b u #                         X - 4 X ; 4 - - ; h h 5 5 h 4 ; h m j n C j g 5 h C &.8.*././.*.e.:X4.G *.&.C m &.&.%.; o -                                                                     X                             +                                                               @                                                                                                             +                   O                     ",
"                                                                                                                                                                                                                                                                              X X             U z z | :.Z x } S B x B x b u .                 X X # g 2 7 N 5.1                                           X   # 4 g K J P.5.J N g 6 2 1 6 6 3 5 h j F G 0.b.y.[ ' 8.r.F.c.' [ =.c.8.( G S ' 2.{ S b h +                           - D 2 - 4 - - ; ; 5 h 5 g 5 : g m j h j h 5 5 t h *.e.&.F.:X9.*.>X/.*.0.r.I m m %.%.n - o X                                                                                                   +                                                                                                                                                                                                                     ",
"                                                                                              +                                 +                                                                                                                                                     O       1.v m 2.4.Z S } } A x S Z j :     X           X   X X 7 - 2 6 1.M     X                                     X X 4 h 7 J i.p.P M n c n 2 4 7 7 3 5 j j m G r.N.8.' ' 8.8.F.r.*.[ 6.M.q.[ G L  .*.[ b h 3                             X g g - 4 4 ; - - 5 g 5 5 5 ; 5 C n j j j h 5 5 h F 8.8.r.E.r.*.G.0Xu.r.M.2.Z C j m m 4 - - X                                                                                             O                                                                                                                                                                                                                         ",
"                                                                                                                                                                                                                                                                                            v 5.u 3.4. .S [ G S S A S B h :                     o - 4 2 @ 6 M i.h X                                         X 4 2 2 U J.w.K P J 7 c 7 4 6 4 6 7 h n Z *.0.u.8.L ' | r.@X9.*.L  .k.0.( ' *.*.*.L C m -                             X g n o - - ; - - ; g 5 4 ; ; 5 F C m t t n h : 5 m *.8.0.E.D.e.u.>X:X8.b.c.[ F h h h 4 4 o X         O                                                           +                                       O                                                                                                                                     +                 @                                                 ",
"                                                                                                                                                                                                                                                                O   +                       U J 2 U 1.S S  .6. .m.9.' i i *                       # 6 6 X   ; P 4.O   X                                     # 7 4 c 3.i.3.U p.N l 7 6 v g 4 5 g D C &.r.r.Q.*.*.[ *.F.%Xe.*.[  .b.c.' [ 8.*.*.G j j X   X           X             O 2 c 4 1 - - # # 2 2 : 4 - ; 5 F F m h 3 h h : 4 t %.&.=.W.F.c.T.5X0Xy.9.y.} I F F v g n ;                                                             X                                                                                                                                                                                                                                                           ",
"                                                                                                                        +                                                                                                                                                                 4 Y.7 6 | L t B ' N.N.L.K.6.z t +     X                   O + - + + 2 K 2                                       X - 2 7 g w.i.~.P.5.M 6 7 v 7 h g 5 n m G e.u.u.c.8.r.[ *.E./.8. .G  .c.n.' } *.I L Z C 5   X                             2 c c 1 - - + - # 2 ; - # - ; h F F h h h h t 5 t h %.=.D.b.b.T.uX8X!.2.0.t.L L 1.F g g g 1                                         O                                                                                                                                                                                                                                                                             ",
"                                                                                                                                                                                                                                                  O                           X           K P.5 N 4.N j v b 8.q.!.m.' u =     O                         + -   O > 7                                   X X X # 2 1 n P w.'.w.M g 6 c v g g 4 g h I %.4.y.e.=.r.r.[ 8.!.D.' *.} 2.F.q.S ( { [ S m n o   X   X                     X   # c c 2 - 2 # # # # o - - & - t C F h 5 j j h 5 5 5 %.=.D.n.q.N.5X8XQ.0.b.4.[ F [ I h g 4 v +                                                                                                                                   O                                                                                                               X +             O                                                 ",
"                                                                                      +                                                                                                                                                                                         X         n 1.  h &.G [ x S } ( c.q.G y .                                 @ + # + 7 #   X                                   O 4 c n P (.~.%.n M c 7 7 g g 4 g h %.L 4.^.r.L 8.*.| 6./.8. .*.L *.b.8.C G G G j j 5                 X                 X # c v - # 2 # # 2 o - o o ; : j C j g j F m C u 5 k =.e.F.9.y.T.).@X0.2.M.*.G I U P ; - ; 1 @                                                   X             X                     O                                                                                                                                                                                           O                               ",
"                                                                                                  O                                                                                                                                                                           X           6 7 X 5 [ m B i B ! ( ' S B &                                       > # -                                         2 7 c n t.2Xi.J M n 7 v 7 7 g g j D L %.u.:Xe.*.*.' ' c.$X6.8. .L  .F.*.Z S S C j h X       X   X   +                     + 4 c 1 # > # - - # # o o ; - g Z C 5 g m Z Z %.h j &.4.r.q.y.b.Q.&XM.2.K.D.&.F L K 4 X X X #                         O                                                                                                                                                                                                                                                                                         ",
"                                                                                                                              +                                                                                                                                       X             X     4 M * v I t Z S 6.6.6.S b j .     .       O                           X ; +                                     X - # v P P.J.U N J M v v 7 6 g g j F G u.F./.n.*.' Z Z M.T.6.c.} G ' r.[ C G j h h 5                 X                     X X 7 c # # > + # ; # o X - ; 3 g m 5 h m m Z %.j h C *.8.:.m.q.b.@XM.r.c.Q.8.Z F &.h X X   X                                                         +   X       X   X                                                                                                                                                                                                                                         ",
"                                                                                                                                                                                                                                                                                          # h 3 u 0.L B ! q.9.6.B i 3                                         O   @ - X                                 X @ @ 1 J <.P.3.N J J M c v 7 7 h h h C [ D.F.F.[ [ C G L c.q.8.c.} S I 8.G j n h 5 5 o                                       X   # 7 - # # # ; ; o - - ; - ; g h 5 g m m m F F h j &.=.:.q.:.y.M.r.8.c.M.8.I | 3.D o o   X                                             X       X                           + X                                                                                                                                 O                                                                                             ",
"                                                                                                                                                                                                                                                                                          2 h 5 U.M.G S 6.6. .S A b .                                             + 4 X   X                               @ # 4 N 3.Y.1.J v M n v 7 6 l n j j I [ 8.D.=.G G &.( 2.T.q.q.q.G G  .=.C C j h t ;                 X       O                     4 2 # # + # - ; o o - ; 5 : g 4 h h m m F G %.C %.=.:.q.:.:.0.c. .2.u.D.[ I e.&.4 X   X                                   O                                                                                                                                                 O                                                                                                                             ",
"                                                                                                                                                                                                                                                              X                   X       # ; h 3X2.' ] 9.v.' S S = .                                               ;                                     X 1 7 c P i.%.n n N J v 6 2 4 z v Z | &.&.k.=.%.F *.&.r.K.6.c.c.' Z  .I i b i h 7 +                 O                             2 v ; o # # # ; # # - ; g ; g : 4 j j j K I &.G C %.} :. .| 4.9.2.0.r.D.*.&.*.5.N o     X                                                             X   X                                                                                                                                                                                                                                               ",
"                                                                                        O                                                                                                                                                                   +           O           X   X o g 0XM.} q.k.f. .} S u                                                   + #                                 X   @ 1 4 5.w.J N n n n v 5 3 4 6 v F | &.u.=.&.k %.*.=.!.N.q.W.r.' S } L b h h h 5           X   X                       O           4 ; + # # ; # # - - ; g 5 4 ; 2 5 N m F C &.G j j S [ S '  .8. .0.*.e.4.F &.e.&.-   X                                     +       +                                                                                                                                                                                                                                                                     ",
"                                                                              O                   O                                                                                                                                                                   O       O     X X o # M.4X}  .c.N. .'  .y .                                                   ; X   X                             X   @ 1 4 3.t.J D J n n c 7 4 4 h j I I *.u.*.( F Z ( r./.q.q.Q.q.' L 2.L b b h v #         O                                     X   # 7 # # ; ; ; # # - 4 g 3 : 2 - 5 m m F L &.[ h h Z P S G :.r.8.4.*.4.*.F &.&.&.-   X                                             X X                   +                                                                                                                                                                                                                                               ",
"                                                                                                                                                                                                                                                                                  X   O X w.fX2.' 2.k.=.}  .Z $           .         X                               2 +                                   X O - g %.t.%.n J M n N M 6 4 h n I 4.*.*.&.&.( %.*.:X@Xr.q.K.q.I } 9.S j b u 2 X                           O                 + X O O v 6 # # 2 - - X o ; h g 5 5 ; 5 h j F F &.&.I h m L Z L S :.0.6.*.8.G F &.&.%.j X                                     +             X                   O                                                                                                                                                                                                                                             ",
"                                                                                                                                      O                                                                                                                                               # v uXN.[ q.N.f. .q.' = .                                                     @ X     X                           X X   O g P 3.%.n D g n D m g ; g h %.&.&.&.S &.' *.F.:X*Xc.c.E.r. . .2.Z u j 5               O                                     X + 2 g - @ 2 - - - - ; h h : ; & : h h h F &.%.&.h 3 5 j K Z L 2.8.L [ [ Z &.5.y.K ;                                                                     X                                                                                                                               O                                                                                                               ",
"                                                                                                                                                                                                                                                                            X     O   + U.P.I 2.c.m.q.6. .i .                                                                                           X X   X 1 %.i.J n n n m n m g 4 : m &.&.I %.%.L [ F.`.&X/.c.G.!.q.*.8.*.C j h 2     X                                             X   # @ 7 4 # @ # @ - - ; u u : 3 ; ; 3 h j j G I %.j : ; t u u m G Z [ &.*.F I 8.P.1.2                                                                                                                                                                                                                                                                                                                     ",
"                                                                                                                                                                                                                                                                      O O       O   O N P.G [ 0.N.6.>.' S b &   +                                                                                             X X %.i.n n n n m n m g 5 4 m &.%.D F %.m &.^.$X:XD.k.E.G.8.6.q.[ B j 5                                                         O O 6 c 1 # # # # - - 5 5 5 u ; ; ; g h m L [ &.m u 3 3 z 3 h N j I Z U C C 4.M.1.2                                                               X                                                                                                                                                                                                                                                     ",
"                                                                                                                                                                                                                                                                        X     O O   > J.L Z *.9.6.S } Z [ &.* . @                                                                                               X %.3.%.n g n n h D n g 5 j %.F m D C P 8.).8X$Xc.b./.F.6.:.6.' m m 3                                                           O O 6 4 # ; # - o - 4 h 3 t u ; - h 5 k [ F *.*.N n 3 3 5 h b G j I G N G 4.e.5.v                                                                                                                                                                                                                                       O                                                                             ",
"                                                                                                                                                                                                                                                                              O O O v :.z i S L ' 8.' m I 0.2 .   @                                                                                           X - w.3.%.c n D D n D n g g n %.I D m F K t.&X&XI.b.b.E.b.=. .8.[ C m 2           O                                                 + 2 7 2 , # # # # 2 u 5 3 h ; 2 u u z L :.0.2.I G h 5 t N F &.8.%.F Z &.&.u.e.N #                                                                                                                                                                                                                                                                                                                   ",
"                                                                                                                                                                                                                                                                              X   O v M t b Z B }  .B 3 b I &.@ .   @                                                                                           - 4.%.P n n N N h h n g h K D %.F D K &.y.Q.u.!.F.G.N.c.8.8.8.F Z 7 @                                                               O > 4 , # 2 # # ; 7 7 4 h 5 * 6 z z H 4.u.0.G I K m h j *.&.0.&.G F 5.8.y.5.I ,                                                                                                                                                                                                                                                                                                                   ",
"                                                                                                                                                                                                                                                        +                     O   O l Z z u m Z } L y i C L u.* .                                                                                               # %.&.h g n D n j n g 5 g F I I n D %.*.P.b.I.5XE.N.b.N.0.6.8.I h @                                                             X   O O 2 4 > # o # ; u u 2 7 3 = 5 b b M [ u.0.&.I I I h m I *.&.&.I F &.8.e.&.Z 4                                         O                                                                                                                                                                                                                                                                         ",
"                                                                                                                                                                                                                                                                                    2 N v i C } 8.[ y 3 B u K N X                                                                                                 D K g n h N N h h g g 4 D D n m j K &.y.b.E.*XE.N.XXb.8.r.=.Z ;                                                                       + 2 2 # + # # 6 7 * 3 7 ; ; b H z B 2.4.*.0.[ &.F j n h &.=.&.Z F &.5.[ P z                                                                                                                                                                                                                                                                                                                   ",
"                                                                                                                                                                                                                                                                                O   > 7 6 x m 2.q.8.y = 3 t 3 e.N   .                                                                                     X   O X n D g v n N m h g h g h N N m F F G U y./.8X).N.Z.!.k.r.r.&.h .     X                                                               O   > 2 # @ + # ; 6 4 2 z 2 2 u S b b ' 9.*.e.2.*.C h n b Z U 1.F Z | 3.L | v                                                                                                                                                                                                                                                                                                                   ",
"                                                                                                                                                                                                                                                                      X       O     + v 3 z  .c.6.6.b = : : : L  .# + .                                                                                   X   O X 4 n 4 g g n h h n g g n D h j m F F F *.U.@XN.b.*XF.r.b.r.&.;   X X                                                         O     O       # 4 o # + 2 z 3 * t 3 2 3 b ' B Z L =.e.&.[ L n v u m m  .U Z F &.| P v O                                                                                                                                                                                                                                                                                                                 ",
"                                                                                                                                                                                                                                                                        O             7 z b :.z.6.6.Z < 3 3 y Z 4.0.6   O                                                                                         # n g g 4 g h n 7 g 5 5 n j g h h h D I K.I.y.$X%XF.9.y.r.Z o X                                                                       O   O 4 1 # X 6 M 6 , u 6 = < t  .I C Z 0.u.*.G | Z u u m Z y.2.Z P 5.1.I v                                                                                                                                                                                                                                                                                                                   ",
"                                                                                                                                                                                                                                                    O                                 Z Z B } :.>.8.q.3 & & h C Z 3.H m 6 # +                                                                                     g D g 2 2 g 5 g h 5 5 j I Z N m h I I y.@XI.T.*XT.k.9.r.=.j X X X                                                                           O 6 - + 2 M u < 7 u 2 3 3 Z 8.Z B [ D.r.y.*.I u 7 v L 0.2.m P 0.e.&.b @                                                                                                                                                                                                                                                                                                                 ",
"                                                                                                                                                                                                                                                                                    . P [ H G }  .7.c.B * & : t 3 b v L F U v +                                                                                   v U 2 1 6 u u n h t t m [ K K v b I | I.I.r.!.>XN.k.9.2.G h                                                                       O           # 6 O 2 M v 2 3 5 ; ; t u *.F.F m | 0.u.0.4.m h h C &.8.L F 3.e.K N o                                                                                                                                                                                                                                                                                                                 ",
"                                                                                                                                                                                                                                                                                    O S K B } q.] ' 6.' % & o o 3 b u h 4 v m K 6 #                                                                               2 J 6 2 # v N N m n h u F D h h h b G 8.y.@X@X!.c.n.9.[ G t     .                                                                             O 1 - 1 c c 3 2 h 3 3 u u h e.y.Z | 8.c.9.[ L t h u F I Z Z G 1.F D ; X X                                                                                                                                                                                                                                                                                                             ",
"                                                                                                                                                                                                                                                                                O   * n u z :.f.} } ] S * . . . # 2 3 5 # o # h 7 v 2 # O O                                                                       c 4.7 g 7 K F C G m b j n t 5 h m t j | G.$X@XN.r.c.*.G C ; .                                                                   O               # 2 - u n 3 2 5 3 : t 5 3 h [ e.G I 8.2.K Z h 3 3 b m 5 b %.4.U N 4                                                                                                                                                                                                                                                                                                                 ",
"                                                                                                                                                                                                                                                                                      7 < 3 G :._ } S ' i . .           @ # 2 5 > 2 # # 4 7 2 ,                                                                   N t.n 5 4.u.F h C C F m Z 5 : ; 5 h m Z r.M.c.6.q.6.( ( m .                                                                       O               - - 3 u u 2 3 t 5 5 u 5 3 u 4.&.b I  . .[ P 5 h t h h h L U 4.F :                                                                                                                                                                                                                                                                                                                 ",
"                                                                                                                                                                                                                                                                              +     O 6 3 3 u L S A A S B .   .           + ; # # +   O O # # #                                                                   v 3.J 7 p.u.F F F b B b G h 5 5 3 : h b  .2.*.8.6.{ G G 5                                                               O               X       X + # 2 v N 6 5 t 5 5 u b 7 e j [ F G Z } 4.} m t 5 5 m t C I &.m ; X @                                                                                                                                                                                                                                                                                                             ",
"                                                                                                                                                                                                                                                                                    + # # , t x A ' B B L u                       O O                                                                             M J.P w.fX1.m G C b Z L *.G C t 5 t j  .6.}  .=.'  .L F *                                                                               X           2 7 6 m b : h 5 : t h j u u u C G B S 4.L b : t h m j F C [ I 3 X                                                                                                                                                                                                                                                                                                               ",
"                                                                                                                                                                                                                                                                              O       # + & 6 z B S z z B H *               X                                                                               O     N P.5.2X2XI v m Z B Z ' *.| [ j m G F :.6.' ' ' G [ S C o                                                                                       X   > v 4 u u 3 5 5 5 t h u j h t 5 Z  .[ |  .Z t j G G j m F *.U h @ +                                                                                                                                                                                                                                                                                                             ",
"                                                                                                                                                                                                                                                                                  X   > , O 3 B < i i z y L 1.#                       O                                                                           1.t.:.fX^.[ m F ' ' | [ S G C b n G L ' ' S ' ' L b Z b                                                                                             X 6 5 2 h t 3 t t 5 j C B F Z u j P :.4.' G G C I G j L e.4.[ 5 #                                                                                                                                                                                                                                                                                                               ",
"                                                                                                                                                                                                                                                                                      # , # 2 b < & 3 x 3 Z 3.:.+                                                                                     X     X   1 5.w.J.fXJ.Z K Z ' | c.8.G G j t u i b S S L 6.' B u b 3                                                                                           X X - 7 2 v u 3 5 t 5 u m b Z [ Z b z A } [ N S F Z Z m [ D.5.4.5 o                                                                                                       X                                                                                                                                                                                                       ",
"                                                                                                                                                                                                                                                                                      X # ; O 3 , . & = 6 t z P 3.+                                                                                           - M J.P <XwXU L I m Z 2.c.r.S C j i b t 3 u B S [ Z u u m .                                                                                               X 4 - g v 2 : t 5 j m j m L G Z b z G P } P 8.y.L L C y.D.b.m X .   @                                                                                           +                                                                                                                                                                                                             ",
"                                                                                                                                                                                                                                                                                    X   ; # + ; z . + . & , < , U 3.O                                                                                   X   X # <.J.N _.P.J P Z m Z 8.G.q.[ Z B m m t 3 u B H B e t B b                                                                           X                 X   X - 7 4 h 2 ; 3 h 5 h j m L S L B A m S [ [ b.). .' L  .b.u.C @ +                                                                                           +                 X                                                                                                                                                                                               ",
"                                                                                                                                                                                                                                                                                  X       # @ # b 2   . + 6 2 < 6 J P >                                                                               X   X O @ <.3.U '.K J Z Z Z S | 9.v.6.L ' ' [ y 3 t b m 3 < z K z                                                                                                   X 4 4 5 2 ; ; 5 t h h Z F ' 2.} K  .q.[ &.c./.M.B I ' r.5.n                                                                                                                                                                                                                                                                                                                 ",
"                                                                                                                                                                                                                                                                                  X       O ; ; 7 2   @ O * 4 O > + M <.                                                                              X X   O 2 1.<.%.5.v h j m G C ( c.N.*.' L [ [ M u t 6 3 = 3 B S 6                                                                                         X     X   X 2 4 ; 5 - ; : 5 h h h G ' | q.*.*.r.8.G 2.T.&Xy.L :.c.3.u                                                                                                                                                                                                                                                                                                                 ",
"                                                                                                                                                                                                                                                                                            # ; 2 b #     . * , > 6 > z h                                               +               +                 X @ - U P 1.D h h h b S S ' 6.q.6.2.q.:.L A S t 3 & e Z B Z >                                                                               +                     # 4 ; 4 ; ; : 3 : 3 b C Z ' 2.8.G [ L b B L @XE.[ G 0.2.m O +                                                                             X                                                                                                                                                                                                                               ",
"                                                                                                                                                                                                                                                              O                             X # @ 7 #   @     O 2 3 3 2 N 7     O                                                       X               X O X # v N 1.N v n v j j k [ { =. .q.9.:.S Z Z t < 3 B L B m #                                                                       O                           X X ; g ; - & ; ; ; ; j C C S | *.&.G C j j B u.F.| n :.p.J O                                                                                                                                                                                                                                                                                                               ",
"                                                                                                                                                                                                                                                                                              @ + 5 v +         O + 6 7 7 7 > #                                                                           O   O 6 <.K v v n u t j j G ( ' ' 6.} S S B S 3 t B I Z B m                                                                                                         - g 5 - & & ; - ; 5 j C C G G C h t j Z b *.E.t.L U w.F # +                                                                                                                     X                                                                                                                                                                                       ",
"                                                                                                                                      +                                                                                                                       O                               O # 2 v #         O   @ ; O # > 6 6 2 #   +                                   O                           X   X # 7 P n 4 u v u 5 i b B B ' } ' ' ' } G z y u A I Z G b                                                                                           +             @ - - - o # ; ; ; 3 t h j C C h t 5 t h C S K.@X2.:.t.m   +                                                                                             +                         O                                                                                                                                                                                     ",
"                                                                                                                                                                                                                                                                                                + # 4 l           X       O   X 1 4 6 O +                                                                   X X 4 <.c 4 6 6 7 h u u m n B G B S S L B B S b S S b G h                                                                                                         @ g ;   X - - * ; ; : 5 t j C h h j b h j 2.t.).M.} 4.Z +                                                                                                                                                                                                                                                                                                               ",
"                                                                                                                                  X                                                                                                                                         X     O       X X     1 2 c ,   O             O X       X                                                                     X O > N 3.c g 4 6 u v t t B x z z A G S A B :.Z Z Z b h m :                                                                                                   X     X u.%.o X * o X & 2 3 5 t t j h j G C j t L 8.M.b.*.U Z #                                                                                                     +   +                                                                                                                                                                                                     ",
"                                                                                                                                                                                                                                                                  O               O                 + 6 M O       X           O                                                                           O O 4 t.3.g g ; 4 7 5 6 t 3 3 e i b A z i B L B B C u j b *                                                                                                         h pX`.g X o - - o ; 2 7 t 5 t t h F [ L } :.2.c.b.[ 0. .#                                                                                                                                                                                                                                                                                                               ",
"                                                                                                                                                                                                                                                                          O                           # 6 6 O                     X                                                                       X O l t.%.4 7 2 2 2 7 2 ; * = 3 y b N j t j j i b C y j j X                                                                       +                 X       +   X   D.wX`.D 4 & o o o ; ; ; 5 3 ; : 5 m *.b.r.y.6.:.6.&.8.e.3                                                                                   X X                                                                                                                                                                                                               O         ",
"                                                                                                                                                                                                                                                                  O                                   O # z 6                                                                                           X X 1 t.5.P 7 7 4 1 2 # # * # * * ; t 3 : 5 t h u b j u C h X                                                                                                       P 9XS.e.N h o o o o o o ; * ; : 3 h 5 C q.8.r.r.6.2.*.&.0.7                                                                                                               X                                                                                                                                                                                               ",
"                                                                                                                                                                                                                                                                                                        O # l 4 O                                                                                     X X O c i.%.K g - 2 # - # + & # . - ; : 3 : 3 : t h h 3 t j h *                                                                                                     X ~.(.&.I h g ; o o 4 ; o - - ; 4 ; : 5 t G | c.M.9.0.8.| 4.b . +                                                                                           +                                                                                                                                                                                                               ",
"                                                                                                                                                                                                                                                  O                                                   O   O # 6 # X                                                                                     O 1 K U n K 4 1 ; 2 # # 2 2 * * ; : o ; : : : h h t t h m N ;                                                               +           O       +               X D Y.i.%.D g g j g - - - - - & 5 5 : 5 : h m ' 2.y.2.} 8.8.1.b +                                                                               O                     +                                                                                                                                                                                                       ",
"                                                                                                                                                                                                                                                                                                                                                                                                        @ 4 K 7 v U 7 6 7 # # # 2 u h * & ; ; ; ; & 5 h 5 5 u j b Z 5 .                                               X                       @                       O @ 3.<.P c D 4 4 v v 4 * o - - - 4 5 h h 5 3 h Z  .} [ P 2.3.| v +                                                                                                                           +                                                                                                                                                                                 ",
"                                                                                          O                                                                                                                                                       O                                                     +                                                                 O                             O - N l 7 J 7 6 7 ; @ # # 3 t 7 h 3 : ; 4 5 5 ; ; 5 m n h L m @                                                                                                 6 w.J J J c 4 1 3 v 6 4 - - o # - - 5 5 g * 5 t S ' :.} } |  .M                                                                                             +                                                                                                                                                                                                                 ",
"                                                                        O                                                                                                                                                                     X                                                           X     X X   X                           O                                                   X X 1 M 6 z v 6 2 5 2 + # o o 2 h j h - - ; 5 4 - : 5 m j j B m O .                                                                 O                             7 U N M J n 7 7 5 h 5 - : - o # - - - : o & t q B ' *.[ L ' 8.h                                                           O   O                                                                                                                                                                                                                                               ",
"                                                                                                                                                                                                                                                                                                                    X             X                                                                     X @ c 1 7 7 # # 4 4 * # & o * & h : - ; h h 4 - : t t j b Z Z 3       X                                             +                       O                   7 D c N c c c 4 7 n g 4 5 4 o X o - o o o ; * h C S G ' S Z | h .                     O                                         +               X                       O                                                                                                                                                                     O                               ",
"                                                                                          +                                                                                                                                                                                                 X                   X                                                                                       O > 2 2 1 l 4 2 6 2 # ; # # ; * 2 3 4 g g 5 ; ; 5 h t j B C G t   +                                                                                             6 K n M v 4 g 4 ; h g 2 4 5 - 2 * o @ * o ; t j ' G ( I L L L 3                                                                                                                                                                                                                                                                                                               ",
"                                                                                                                                                                                                                                              + X                           X           X O                                                                                                             X 1 2 @ l 4 > 1 7 2 # # o o + # # * g h ; ; ; 5 g t 5 j G b F v .                       +       O                                       O     + O               - M n n c 4 g ; ; 2 g 2 # 2 - 4 ; @ X o * ; h j C C Z F } | F -                           O                 X                             +                                               @                                                                                                                                                                                   ",
"                                                                                                                                                                                                                                                    +                     O               X   X   X O             X X                                                                                     # 1 O 4 4 @ 4 7 1 > # * , + # ; ; u : - - 4 g 4 4 t j Z C Z u                                                                                             O   2 N g l 7 7 7 ; + 2 v 4 - + @ # # @ o o ; ; : t t i j k G L v                                                       X       +     +             O                                                                                                                                                                                                                             ",
"                                                                                                                                                                                          O                                                                               X                           X             X                                                                                 X X > 1 1 6 2 # O > 2 # # # # # * ; : ; ; - - : 5 - : h j j u b 5 .                                                                                       O     2 2 N c c l 4 7 4 # + v 6 # o . X # # X @ o # & o * : h h h h 3                                             X                                                                                                                                                                                                                                                                   ",
"                                                                                                                                                                                                                                                                                    X                         O       +                                                                                 X # - 1 l 1 O + 1 1 # > # + @ X - 4 - - - - 5 4 ; ; 5 j j h j 5 X         X                   +                           O                               X X @ 2 n K J z 7 g 2 - X - 6 + + + # # - o * o X o o * ; : 3 3 3 #                                                                                                                                                                                                                                                                                                                 ",
"                                                                                                                                                                                                                                                                                          X       X X                                                                                                   @ # 4 4 7 4 X O # # O O # # + # - o o - 4 5 4 ; - ; 4 m t m j 3           +                     X         @                         O                       X X D i.J K M g h 4 # X + 4 4 # X   @ # o X X o X X o ; ; ; 5 4                                                         X     X       +         +                                                                                                                                                                                                                     O           ",
"                                                                                                                                                                                                                                                                                                          X                                                                                             O X # 6 1 2 O > # > O O + # + @ X o & - g 5 ; ; - ; 5 C j j m *                     +                           +                         O             X X X N 9XP.%.M 7 c g 4 # @ + 2 6 #   @ # #     X X o X - * # ; 5 ;                                               O             +                   X                                                                                                                                                                                                                                 ",
"                                                                                +                                                                                                                                                                             O                     O       X         +                     X                                                                           X X + 2 > 7 @ > > @ O O O > + # o - - - 4 ; 4 - - - 4 m n j j o   .                                                                       O           O     D jX(.w.K J 6 4 7 2 - # # @ 2 ; # # # #   X   X X X & - ; 6 5                                                                                                                                                                                                                                                                                   O                                 ",
"                                                                                                                                                                                                                                                        O                 O                 X                               X                                                                           X O # 1 1 6 > O @ + X # O # + + - 4 - - 5 5 ; ; - - ; h h h t .                                                                               O           2 4XqXp.1.U J 4 1 ; 2 # > X O # ; # # @ #   O X X o # X # ; 4 2                                                       X   X   X           O                                                                                                                                                                                                                                         ",
"                                                                                                              O                                                                                                                                                                             X                                                                                                         X X   @ 6 > 6 > O @ O   + O   + > 5 ; o 4 5 5 - - o o ; & u v 2                                                   +                 O                       F wXi.P 3.N c 7 2 - + > # O   X X X       # # .   X @ # # - - X                               +           X     X                                                                                                                                                                                                                                                                   ",
"                                                                                                                                                                                                                                    +                                                                                                                                                                   X   # 4 > 4 - O # O O O X O X 2 5 ; - 4 4 4 - - - o ; ; h n 2                     O                                                                   X   M U.K P %.M 2 7 1 - # # # X X   # # O O O # O .   o * + + 2 -                                                                                                                                                                                                                                                                                                     +                 ",
"                                                                                                                                                                                                                                                                                                                      X                                                                                     X # 4 4 2 - O # + #   X X # 4 - - 5 4 ; o ; - & - : b h @                                                                               O           X - J P M J g 6 2 2 # # O > O O X X X X X O +   . + O # # ; 2 #                               O                                                                                                                                                                                                                                                                                       ",
"                                                                                                                                                                                                                                                                                                                                                                                                          O   X - 2 c - @ O X O X X   - 2 # - : g 4 o - 4 - - - h 5 X               X                                                                               v n J 5.K J 7 g c - O + X X O # X X X   o X X O + O # 4 #   X                                                                                                                                                                                                                                                                                                                     ",
"                                                      O                                                                                                                                                                                                                                 O               +                                                                                                     O - 1 7 1 @ # + # X X X o - - o # 5 ; o - 5 ; & 4 g &                                     +                   O                                     @ 7 M Y.~.J M l c g # O @ O @ + +   X X o X o > 4 2 2   @                     X                 +                     +       +   O                                                                                                                                                                                                                                                 ",
"                                                                                                                                                                                                                                                                                                                                                                                                              # 2 4 7 > # o # @ @ X X # # # o 2 g 2 o & 4 ; - g 4 X   X                                                 O                                           # 3.qXJ.n l D g - O @ O # * X @   X . @ # # 5 7 2 #                                                     O                                                                                                                                                                                                                                                                         ",
"                                                                                                                                                                                                                                    O                                                                                                                                                                     X   O 2 1 g 7 # # X @ X   X + # # o ; 5 4 o # ; o ; 7 -                                       X                                                     O     @ ~._.<.c J J 2 O 1 X X # o . +     @ O > * 2 #         X                   X                                     X                                                                                                                                                                                                                                                               ",
"                                                                                                                                                                                                                                                                                                                                                                                                                X O 4 7 1 # X # + O O + o @ @ ; g 4 # # 2 ; # #                                                                                                     M 2X3.z 2 7 6 X @ @ + @ # #   X X X . X * X X                                                                                                                                                                                                                                                                                                                                     ",
"                                                                                                                                                                                                                                                                                                                                                                                                                    > 7 4 # # X   X X   # X * ; 5 5 # X # 2 #                                                                                                       t.Y.J 6 6 7 #   X # o @ @   X   X X o   o             X                                                                                                                                                                                                                                                                                                                           ",
"                                                                                                                                                                                                                                                                                                                                                                                                                    X 2 2 # O   + O X X X + # o 2 4 - o 2 2 @     X             O                                                                             @   O 3.J 2 7 v 4 X   @ o @ .     X X X X #   X     X X                                                                                                                                                                                                                                                                                                                                 ",
"                                                                                                                                                                                                                                                                                                                                                                                                                      > 4 # X # +   X   O X X o X 4 5 - 2 -                                                                                                       > J 6 1 4 3 @ X       .     @     X & ; ; X                                                                                                                                                                                                                                                                                                                                         ",
"                                                                                                                                                                                                                                      +                                                                                                                                                                               2 7 - O O + + +   O X X * o 3 6 # # #                                                                                                       O 7 O - X X .       . + +   + X X - o 2 h @                                           O                                                                                                                                                                                                                                                                                             ",
"                                                                                                                                                                                                                                                                                                                                                                                                                      O 7 1 @ # +   X X   # @ o o   4 2 * #                                                                                                         2 2 X # @ . X @   + @ @ # # X - - 4 F N h X               X                                                                                                                                                                                                                                                                                                                       ",
"                                                                                                                                                                                                                                                                                                                                                                                                      X               + 4 2 # - X X   X # # @   X   # 4 4 #                                                                                                         1 2 X X @   @ @ X @ + @ o @ - - # h F F N                                                                                                                                                                                                                                                                                                                                         ",
"                                                                                                                                                                                                                                                                                                                                                                                                                  X     1 2 # # + + @   O # X   #   + h v +                                                                                                         X 2 O + @ @ o o   o @ @ @ # - X X g j F P #                                     +                                                                                                                                                                                                                                                                                                 ",
"                                                                                                                                                                                                                                                                                                                                                                                                                      O 4 7 1 >   @ @ X O O @   # X X 5 v #   X                                                                                                       1 2 o # X X @ o X @ + # # X o g I Z L n #                                                                                                                                                                                                                                                                                                                                       ",
"                                                                                                                                                                                                                                                  O                                                                                                                                                                   O > l 1 > @ . +   O @ - - # X @ ; v +                                                                                                           X 4 - X o # o o o . @ # # o : m &.F Z F h   X                               X                                                                                                                                                                                                                                                                                                   ",
"                                                                                                                                                                                                                                                                                                                                                                                                                        1 v 6 #   @   X   # 1 1 2 X o 3 v +                                                                                                             - 4 X X * & o o # + @ o * * j m h b | K o X X               X                                                                                                                                                                                                                                                                                                                 ",
"                                                                                                                                                                                                                                                                                                                                                                                                                  O   O > v 7 # @ X X   X X - # 4 : o - v 2                                                                                                               ; # & - o o o o @ & # - & 5 Z m F L F # X   @           X                                                                                                                                                                                                                                                                                                                   ",
"                                                                                                                                                                                                                                                                                                                                                                                                                        # 7 4 @ > X   X X # O + ; 3 - o 5 #                                                                                                               # 5 ; - ; @ @ X o # # : ; 5 G 4.4.I G h   X                                                                                                                                                                                                                                                                                                                                 ",
"                                                                                                                                                                                                                                                                                                                                                                                                                      O O c c 1 O O X X     # + * 4 o o 2 5                                                                                                               + 4 2 o # X . o # # + ; 5 ; 5 G &.I F g X   X X   X                                                                                                                                                                                                                                                                                                                         ",
"                                                                                                                                                                                                                                                                                                                                                                                                                  X   O @ P c 1 # # O X O + # - # ; : o 3 h @                                                                                                             X # 4 - - o o o - - + ; ; ; 3 m 8.5.[ n - X X   X X                                                                                                                                                                                                                                                                                                                         ",
"                                                                                                                                                                                                                                                                                                                                                                                                                    O # c %.6 4 # # # O # # # - ; 3 u & ; h h o                                                                                                               2 4 # # o & ; ; * ; 3 : h h K 1.F F g X X X         @                                                                                                                                                                                                                                                                                                                   ",
"                                                                                                                                                                                                                                                                                                                                                                                                                  O     3.<.2 2 + # @ # # # + # o 3 h ; & u L 2                                                                                                           X   # 7 1 - - o # ; - 3 7 3 3 t L m N K N & X X           .                                                                                                                                                                                                                                                                                                                 ",
"                                                                                                                                                                                                                                                                                                                                                                                                          X           6 t.M l 6 # # # o @ # + # * ; u 3 X u m 3                                                                                                                 4 4 2 2 ; # - ; 6 u N K b F [ Z P K g X X . X                                                                                                                                                                                                                                                                                                                         ",
"                                                                                                                                                                                                                                                                                                                                                                                                      X             O 3.%.2 v 7 # X @ X X ; # - ; : t t ; j m 3                                                                                                               X O 7 2 4 2 - ; ; 2 3 L 0.| m N m I j : X X X                                                                                                                                                                                                                                                                                                                           ",
"                                                                                                                                                                                                                                                                                                                                                                                                            X       @ K 7 6 v 7 o @ @ @ X # ; # ; : n u ; h Z 3                                                                                                                   2 5 2 2 # ; ; 2 = h F | Z 2.&.I K j - X   X                                                                                                                                                                                                                                                                                                                         ",
"                                                                                                                                                                                                                                                                                                                                                                                                                    # n 4 l U l # # O # + @ o . * * h t & = h *                                                                                                               +   # 7 6 - ; - - 2 2 2 N 2.K 1.y.L C I 4 #                                                                                                                                                                                                                                                                                                                             ",
"                                                                                                                                                                                                                                                                                                                                                                                                            X       X O 2 c P 4 1 1 O # - = ; ; * t t t 3 = u 7 .                                                                                                             O O + 4 4 ; 4 - - 1 7 3 t Z Z u I t.I K h                                                                                                                                                                                                                                                                                                                               ",
"                                                                                                                                                                                                                                                                                                                                                                                                            X   X     O > 7 N > + - X # 2 3 * 3 t * : t 3 & 3 t                                                                                                                     + 2 - - - - 2 5 5 7 v t 5 C 0.P v 7                                                                                                                                                                                                                                                                                                                               ",
"                                                                                                                                                                                                                                                                                                                                                                                                                        > K v > # - ; * 3 e 3 t j t j k u y u 3                                                                                                                     X 2 2 ; ; ; # 2 6 3 h [ h 3 I U m m 7                                                                                                                                                                                                                                                                                                                             ",
"                                                                                                                                        O                                                                                                                                                                                                                         O                                       X     X       2 1.M 7 ; 2 # 2 3 3 e 3 q h k G j k C ;                                                                                                                   X   2 4 4 ; 4 2 ; 5 4 3 U b 5 u y.K m K #                                                                                                                                                                                                                                                                                                                           ",
"                                                                                                                                                                                                                                                                                                                                                                                                              X       # U K 7 l 2 - 2 u 3 < 3 : 5 i h k j h b &                                                                                                                     X # 4 g ; ; ; - ; 5 C G [ 3 3 P 2.m z M                                                                                                                                                                                                                                                                                                                           ",
"                                                                                                                                                                                                                                                                                                                                                                                                                    X 1 t.3.l z # > l N z h t y j j V S k j h o                                                                                                             X     X     2 7 5 2 - # # 6 F &.I 2 = Z p.P u N 6                                                                                                                                                                                                                                                                                                                         ",
"                                                                                                                                                                                                                                                                                                                                                                                                                    O 1.w.J 6 6 1 # 5 b x b u t B B j i j j 3 X                                                                                                               X         - 2 2 5 # 2 # # m C 4.m 2 3 5.t.Z M 1.#                                                                                                                                                                                                                                                                                                                       ",
"                                                                                                                                                                                                                                                                                                                                                                                                                O   O <.P 7 6 4 7 4 u 7 3 u e e i B B j C i o                                                                                                                       X O 2 5 2 - o * o o 2 7 0.:.t u N 1.Z 6 J v                                                                                                                                                                                                                                                                                                                       ",
"                                                                                                                                                                                                                                                                                                                                                                                                                    > K M m + + 6 2 v F I m u z B S Z j j 3 .                                                                           X                                               # 7 # ; o # # # # 3 Z P z m 2 u Z m z H 3                                                                                                                                                                                                                                                                                                                     ",
"                                                                                                                                                                                                                                                                                                                                                                                            X                       2 2 7 2 O O O + * h L m t G C L C i j ;                                                                                           X                                   2 4 # # ; X @ 2 = M 2.P H 3 7 1.I , 3 m                                                                                                                                                                                                                                                                                                                     ",
"                                                                                                                                                                                                                                                                                                                                                                                                                  > 1 K J 7 * + , 3 & ; h h i B B Z j i h .                                                           @                         X                               X         X 6 2 X o #   + 2 3 Z Z z t v H | Z z K F     X                                                                                                                                                                                                                                                                                                             ",
"                                                                                                                                                                                                                                                                                                                                                                              X               +                   O 2 1.N v # , 6 6 < t 6 } I z S B z u ;                           @                                       +                                 X                             7 2 # # - # o ; 2 5 m u 7 z M y.q.z N 2.7 O X                                                                                                                                                                                                                                                                                                             ",
"                                                                                                                                                                                                                                                                                                                                    O                                                                             O J P 7 4 , 3 < 2 < 6 u Z b 3 i 7 b v .                                               +                                   X                                               6 2 o # ; @ . @ # N U H 6 * z H i.H N U 5.# X                                                                                                                                                                                                                                                                                                             ",
"                                                                                                                                                                                                                                                                                                                                                    O                         +                                   > p.1.z l n M u u u b G } u t e 5 b 6                 +                                                                           X                                       7 7 # o # @ X + + b 2.N & 6 B z :.H v u F n                                                                       +                                     +                                                                                                                                                                                                 ",
"                                                                                                                                                                                                                                                                                                                            O                                                                                     M w.M 3 4 v v z 6 z u L m e < u e u #                                                                 O                                                                   n v @ # # X   # + 2 :.:.t t P N :.P.P v M K M O                                                                                                                                                                                                                                                                                                           ",
"                                                                                                                                                                                                                                                                                                        X                                                                                                   X X 2 5.5.v , 6 6 3 2 3 H L B < * e C e h .                                                                                                                                     v n o o ;   @ # # 2 K 1.h 7 m H 2.M.t.t b F y.6   X                                                                                                                                                                                                                                                                                                       ",
"                                                                                                                                                                                                                                                                                                                                                                                                              X 1 3.J 7 N v l M 6 u Z H [ 3 e e h h h                     +             O   +           +         O               X                           X             X             X J K ; * 2 ;   ; ; * u 1.P 7 t u e.8.[ Z b N | U O                                                     O                                   O                                                                                                                                                                                                               ",
"                                                                                                                                                                                                                                                                      @                                   +                               +                                                                   # O M 6 # M v 3 M 6 t z S B t 3 y t j 5                                                   O     X         +                 O       X                 X                       U N ; 2 u #   X o ; 4 U %.z 4 3 L 0.0.8.L 4.v | 6                                                                                                     +     O                                                                                                                                                                     O                       ",
"                                                                                                                                                                                                                                                                          +                                                                                                                               X   @ # U v h 6 6 v K L z Z M.Z b B u 5 h &                               O                                                                                                       N v # # 7 # # 2 + ; 2 v t.P 7 u 7 Z 2.I.S L 0.:.4.# +                                                                         X                                                                                                                                                                                                                           ",
"                                                                                                                                                                                                                                                                          +         @         +                                                                                                             O # M i.Z v C n v F M b L q.S u Z u 5 h               O O   O                                                                                                                   K n - - ; * o # o ; 3 z 2.:.t u u I 8.4.L j &.I | h                                                           O                                                                                                                                                                                                 +                                         ",
"                                                                                                                                                                                                                                                                                                                                                                                                          O O 2 i.| M 5 b u 7 h 3 z 8.2.z y b t u g                                                                     X                                           X   X                   M 6 - o - X X ; * 2 6 3 H :.P v u n 0.q.4.I Z Z L K X                                                                                                                                                                                                                                                                                                     ",
"                                                                                                          X                                                                                                                                                                                   O                                                                                                           O O 6 ~.3.K m 3 m h v 6 m u.4.e j B u 5 5                     X                           X                                 X                 X                                   4 - o o - o X 2 2 > 6 6 u :.4.z 3 6 Z 4.9.0.L | 0.L h   +                                                                         +                                 O                                                                                                                                                                   + X               ",
"                                                                    O                                     +                                                                                                                                                                                                                                                                                                 # U.p.N N 7 J v 2 6 3 z 4.Z t 3 j 7 h ;   X                                                     +                 +     +                                     O                 ; 2 & - X o X 2 3 2 2 7 u H 4.[ < 7 z b &.y.| F &.F P v X                   +                                               X       +                                                                                                                                                                                                                     ",
"                                                                                                                                    +         X                                                                                                                                         +                                                                                                                 # 7 _.P 5 7 h 5.K 2 7 ; m u.D g 5 h t g - X X                           O           +                       O                                                                     # 4 - - - - # - 2 4 5 l N I.5.8.z z n h 1.Q.I u b u K F X                                       X                         O                                                                                                                                                                   +         +                               O                 ",
"                                                            +                                                   O                                                                                                                                                                                                                                                                                         O J.P.N h N 5.1.N 5 N ; %.u.n 5 j j n j -               X                   O                                                                                                 O   # ; - o - - - ; v n 4 7 J t.Y.K K M 7 u F 4.4.Z Z m m Z N                     X X           X O                               +                                                                                                                                                                                                                           ",
"                                                                    +                                                                                                                                                                                                                                     O                                                                                           O   7 i.K 2 l K t.N g n P g %.%.; 5 *.%.t n o                                                     +                                             O +                                   @ 2 ; - - ; @ # v v 7 7 4 1.P.&.K I g 5 5 u P | N b Z g %.3                                                 O                                                                                                                                                                                       O                                                     ",
"                                                                                      @                                                                                                                                                                                                                                                                                                               + 4 U.5.F 6 N M U v n ; N D &.D ; ; G m 5 h -             X                                       X                                                                                     6 - o - o - - v K v z 7 7 %.3.N K v 2 5 5 &.y.Z n I I &.%.#                                                                                                                                                                                                                                                                                             ",
"                                                          O                                                                                                                                                                                                                                                                                                                                           + U S.v v &.N &.4.D N 4 g 5 &.m 5 5 &.%.m P ;                         O                               +                                                                                 2 o X   X X X 7 D n 6 7 z J y.P M 3 # 5 g F i.t.L h U N D g X X                         X                                                                                                                                                                                                                                                               ",
"                                                                                                                                                                                                                                                                                                                                                                                              X X + X   (.4.F p.N %.~.%.D N - : n &.g 5 n &.m D U 5                                             X                               O                                                             # - o X     X - v N D 6 v M 3.P z v 6 5 h 5 U e.1.4.&.D j %.h                                                                                                                                                                                                                                                                                           ",
"                                                                                                                                                                                                                        +                                                                                                                                                 O                           4.t.N w.e.g %.e.%.h j 4 g %.C 5 : g C n n F : X                                                                                                                                         # ; X   X   X 2 n Z D 2 6 6 M K H P v 4 v g g v U e.U h g D I 2                                                                                                                                                                                                                                                                                         ",
"                                                                                    +                                                                                                                                                                                 O                           +                                                                         O         X             K '.v v N v 5 D D D D 5 g h %.&.n 5 n g D =.F Z X                                       @                       O                                                                           X X       X 2 %.K U 5 c v 7 J :.5.F 5 5 5 4 v 7 N &.I Z F I D n 2                                                                                                                                                                                                                                                                                     ",
"                                                                                                                                                                                                                                                                                                                                                                                                    U.P - 5 g 1 7 %.N F K 2 2 g %.&.u t m j m =.&.I o .                     +   +             @                                                                                                           X 1 3.P K n K c c n J w.3.N z , , 2 5 h K &.P j n 3 C F N 7                                         X                                                                                                                                                                                                                                       ",
"                                                                                                                                                                                                                                                                                                                                                                                                X 2.p.4 7 K 4 6 5.P c N n 4 : 4 m C h 5 j u %.*.G [ h                 O                                                                                                                             X       6 J K 4 c K c 1 l 6 P w.H z 6 2 7 7 2 4 g g D j N G u m D 2     O                     X                                                                                                                                                                                                                                                   ",
"                                                        O                                                                                                                                                                                                                                                                                                                                 O   X 6 <XP h M n X 7 t.P J P g 2 g 4 L %.C h g j &.u.&.&.n                                                                                                                                                       1 N c 7 c J l > 6 l N w.3.U b 2 3 6 2 - - # g D U e.K D 2 o                                                                                                                                                                                                                                                                               ",
"                                                                                                                                                                                                                        O                                                                                                                                                                       4.t.M N Z 7 g w.P N J P g g 4 h %.&.j h j j &.=.*.&.F @                                                                                                                                                     O n 1 g 1 7 v 7 2 7 M N 3.u.K N 3 2 ; - - ; g %.F U K N m h U v                                                                                                                                                                                                                                                                           ",
"                                                                                                                                                                                                                                                                                                                                                                                              , ~.M b L 0.5 m 5.F F F n 2 : g N G G h h F j [ *.4.F h o                                                                                                                                                     O n c 7 2 1 l 6 > > g 7 K 2.&.&.F g # @ ; ; 4 N I | 1.&.U D U i.g X                                                                                                                                                                                               O                                                                       ",
"                                                                                                                                                                                                                                                                                                                                                                                              P 5.n v  .m g &.F h h U g X 5 5 %.&.I m h C j G G | h m ; +                                           +                                                             +                                       X O 7 4 4 1 1 6 7 2 # h 7 7 &.F I 5.j o @ ; @ # ; n e.Z I 5.&.h F N     X X                                                                                                                                                                                                                                                                 ",
"                                                                                                                                                                                                                                                                                                                                                                                    O       + w.7 t K t.h Z y.F v D %.g - - 5 %.I Z F m j j N *.C 3 h -                                                                                                                                               X       > 1 7 1 7 5 5 @ 2 ; 7 7 L F h [ I n ; ; 2 @ ; 7 1.I K P n %.N n @ X O X                                                                                                                                                                                                                                                                 ",
"                                                                                                                                                                                                                    O                                                                                                                                                                       v | 2 3 P H h e.%.N P N F - - & h L n G h j L h h C h 4 7 +                                             O                                                                                                         O 4 l 2 7 # 2 ; 2 6 v 5 5 F Z N N e.7 # ; + 2 2 v K 1.&.h K P 5.D                                                                                                                                                                                                                                                                       ",
"                                                                                                                                                                                                                                                                                                                                                                                    X       H 6 * 2 5 # ; U F n K n g o - - D &.I  .b h C 3 * 5 4 g 7 X                                                                                                                                                       X # 6 7 7 ; o & ; K v # 2 7 u 4 ; P 4.4 # # 7 4 v 2 D U m 4 g %.P #   O                                                                                                                                                                                                                                                                 ",
"                                                                                                                                                                                                                                                                                                                                                                                X       6 n 6 > + N 3   # h 3 N h 2 g   ; 5 &.U I 2.C C F 5 * : - h h X                                                                                                                                                         X O 2 4 # @ # D 3.K 6 2 2 Z 7 - g &.m X , 4 v v ; 2 %.U 4 : g D v                                                                                                                                                                                                                                                                     ",
"                                                                                                                                                                                                                                                                                                                                                                              X     2 1 3.v 2 + 6 M O   ; n m P j g 7   o n e.I F I m j F j * * 5 g -                                                                                                                                                         X   X # 1 + # # N P M ; * 2 N b 4 3 D 4.4 # * 7 7 - 2 D 1.4 o # : M #   O                                                                                                                                                                                                                                                               ",
"                                                                                                                                                                                                                                                                                                                                                                          X   X X # J N U 2 2 6 :.N + * I P h N N I ;     g 4.F j j t C | C # # ; h X   X                                                                                                                                                             O #   4 l 6 6 4 7 2 ; N h 2 M i.D # + - # + # 5 N h - o @ v 6                                                                                                                                                                                                                                                                   ",
"                                                                                                                                                                                                                                                                                                                                                                                  M M U l 6 > 6 4.7 # 3 4.N 7 6 v m - O + v 3.H v F t b K L * # @ 2 # X                                                                                                     .                                               O     X   X   X # 2 2 2 5 7 5 4 v h ; 7 &.1.; X # +   # O 2 m -     # +                                                                                                                                                                                                                                                                   ",
"                                                                                                                                                                                                                                                                                                                                                                            X     7 P P.M M > <.J * 2 u.| Z Z N 2 h 2 + 4 F N b [ m t t Z G *   # 6 #                                                                                                                                                                       X O # 4 + ; 5 2 @ h 5 4 K P.5 X X # O +     5 2   X   X                                                                                                                                                                                                                                                                   ",
"                                                                                                                                                                                                                                                                                                                                                                              O   7 S.p.z z t.J.H 6 N e.K Z 2.v N 7 @   - N v u Z Z t i P Z +   O 6                                                                                                                                                       O                     X X - # - # # 2 + 2 v t.g     X X + + X ; #   O                                                                                                                                                                                                                                                                       ",
"                                                                                                                                                                                                                                                                                                                                                                          X X > # N t.1.:.P Y.t.M v e.N 5 b N K v ; 2 ; F K u z b B 3 b } K . .   O X                                                                                                                                                                 X                     X - 4 - # D v     X X                                                                                                                                                                                                                                                                                     ",
"                                                                                                                                                                                                                                                                                                                                                                        + + + # v 5.t.Y.:.P U J > M 1.h N m F h @ o N h U I Z 3.Z C t j [ m @           X                                                                                                                                                                 X         X     X   O # @ O 1 n X             X                                                                                                                                                                                                                                                                             ",
"                                                                                                                                                                                                                                                                                                                                                                            X 2 5.i.P P M M v N K t.I &.C 3 n ; ; P 4.4.G H H :.F t C F F C                                                                                                                                                             O             X                     O   X X X # 7 X       X                                                                                                                                                                                                                                                                                   ",
"                                                                                                                                                                                                                                                                                                                                                                          O J 5.3.H z 6 z M 3.J.5.K P K * # # 2 v Y.5.N t.L B P G 5 [ Z L h                                                                                                                         X                                                                         O         O                                                                                                                                                                                                                                                                                             ",
"                                                                                                                                                                                                                                                                                                                                                                          4 3.H M N v 3.J P i.:.M 6 H m 7 4 + 5 &.I I 4.t.2.m ' I k C h I 2       X                                                                                                                                                   O                                                                                                                                                                                                                                                                                                                                               ",
"                                                                                                                                                                                                                                                                                                                                                                      X > J N 7 U :.2.5.:.P J l 6 u N Z N 2 - D K 7 m 3.M.P Z Z [ C C h u #                                                                                                                                                             X                 O                                                                                                                                                                                                                                                                                                                           ",
"                                                                                                                                                                                                                                                                                                                                                                      + J P 6 K M v :.v M <.z z J K 4 Z 4 * 1 w.&.3 u t 4. .m 2.F [ C ; 2 X                                                                                                                                         O                                                           O           X                                                                                                                                                                                                                                                                                         ",
"                                                                                                                                                                                                                                                                                                                                                                      1 U M H 3.z M [ M 5.H u z 4.b b M 2 * 7 t.K 3 u 7 3.2.} 0.G I t ; +               X                                                                                                         X                                                                                                     O                                                                                                                                                                                                                                                                             ",
"                                                                                                                                                                                                                                                                                                                                                                      2 J l l M z 7 M 5.' 6 u u Z H M 3 # ; &.2.v &.Z 2 m y.3.8.L C j ;   X                                                                                                                                                                                                   .                       O                                                                                                                                                                                                                                                                               ",
"                                                                                                                                                                                                                                                                                                                                                                    X N J 7 J M > > 3.M.I 3 y t P I 7 * # * 5.5.[ e.n * t  .I G j F b                                                                                                                                                                                                                                                                                                                                                                                                                                                                                                                 ",
"                                                                                                                                                                                                                                                                                                                                                              X     1 D @ 1 P l O 7 5.4.K # 5 Z Z m 4 + O M t.0.:.2.t < K I m L C h :                                                                                                                                                                                                                                                                                                                                                                                                                                                                                                                 ",
"                                                                                                                                                                                                                                                                                                                                                                X   6 7   1 c @ # 6 U M ; ; 6 u z z # #   :.t.K J L 2 3 :.L u b 5 & .                                                                                                                                                                                                                                                                                                                                                                                                                                                                                                                 ",
"                                                                                                                                                                              O                                                                                                                                                                                     1     g 4 X O # K 4 + # * 2 M , O O   K P M | 7 3 K N v 3 v ; .         X                                                                                                                                                           O                                                                                                                                                                                                                                                                                                                                             ",
"                                                                                                                                                                                                                                                                                                                                                                      O X @ # X   l M >     # # # O   +   v v 7 z , 4 v v 3 7 = @                                                                                                                                                                                                                                                                                                             O                                                                                                                                                                                                       ",
"                                                                                                                                                                                                                                                                                                                                                                          O X +   , #   + O X             4 3 v 2 # # + 7 6 7 .   .                                                                                                                                                                                                                                                                                                                       +                                                                                                                                                                                           ",
"                                                                                                                                                                                                                                                                                                                            X                           X                                   X             6 6 6 , +   O O O O                                                                                                             +                                                                                                                                                                                                                                                                                                                                                                                                           ",
"                                                                                                                                                                                                                                                                                                                                                                                    X                     , 6 #   +                                                                                                                                                                                                                                                                                                                                                                                                                                                                                                                                   ",
"                                                                                                                                                                                                                                                                                                                                                                                                      O   O O X           O O                                                                                                                                                                                                                                                                                                                                                                                                                                                                                                                         ",
"                                                                                                                                                                                                                                                                                                                                                                      O                                                                                                                                                                                                                                                                                                                                                                                                                                                                                                                                                                               ",
"                                                                                                                                                                                                                                                                                                                        +                                                                                                 O                                                                                                                             +                                                                                                                                                                                                             O                                                                                                                                                                               ",
"                                                                                                                                                                                                                                                                                                                                                                                  O           .                                                                                                                                                                                                                                                                                                                                                                                                                                                                                                                                                       ",
"                                                                                                                                                                                                                                                                                                                              O                                                                                     O                                                                                                                                       O                           O                                                       X                                                                           O                                                                                                                                                                                                                         ",
"                                                                                                                                                                                                                                                                                                                                                                                                                                  X X                                                                                                                                         +                                                                                                                               +                         +                                                                                                                                                                                                             ",
"                                                                                                                                                                                                                                                                                                                    +                                                                         .                                                                                                                                                                                                                                                                                                                                                                                                                                                                                                                                                       ",
"                                                                                                                                                                                                                                                                                                                                                                          O                                               O                                                                                                                                                                                                                       +                                                                                                                                                                                                                                                                                                   "
};
