/* XPM */
static char *result[] = {
/* columns rows colors chars-per-pixel */
"459 384 245 2 ",
"   c #010101",
".  c #0A0504",
"X  c #060805",
"o  c #0A0906",
"O  c #060609",
"+  c #0A0708",
"@  c #070908",
"#  c #0C0C0A",
"$  c #120605",
"%  c #170707",
"&  c #110906",
"*  c #120D0B",
"=  c #1A0D0C",
"-  c #0F100C",
";  c #13110E",
":  c #19110E",
">  c #0F0E11",
",  c #110F10",
"<  c #190F10",
"1  c #0F1110",
"2  c #141412",
"3  c #1B1513",
"4  c #171814",
"5  c #1B1916",
"6  c #181718",
"7  c #1C1C1A",
"8  c #230D0C",
"9  c #280B0A",
"0  c #300D0C",
"q  c #27120E",
"w  c #270E10",
"e  c #231514",
"r  c #2B1514",
"t  c #221A16",
"y  c #281817",
"u  c #231D1A",
"i  c #2A1D1C",
"p  c #331414",
"a  c #381617",
"s  c #331C1C",
"d  c #3B1C1C",
"f  c #1F201C",
"g  c #24211E",
"h  c #2A211E",
"j  c #28281E",
"k  c #33221E",
"l  c #3C211E",
"z  c #1E1E21",
"x  c #231E20",
"c  c #2A1F21",
"v  c #391E21",
"b  c #1F2120",
"n  c #242422",
"m  c #272725",
"M  c #2B2522",
"N  c #2C2925",
"B  c #2B2628",
"V  c #2D2C2A",
"C  c #322524",
"Z  c #3B2424",
"A  c #322A26",
"S  c #3B2B26",
"D  c #352628",
"F  c #332C2A",
"G  c #3A2D2C",
"H  c #2F302C",
"J  c #3A3027",
"K  c #34312D",
"L  c #3B322E",
"P  c #362F31",
"I  c #2F3031",
"U  c #343432",
"Y  c #3C3432",
"T  c #373836",
"R  c #3C3935",
"E  c #3C3B3A",
"W  c #431D1C",
"Q  c #491C1D",
"!  c #43211E",
"~  c #451E21",
"^  c #432424",
"/  c #4A2424",
"(  c #432A26",
")  c #472728",
"_  c #432C2B",
"`  c #4C2B2B",
"'  c #562A2A",
"]  c #532C2C",
"[  c #43322E",
"{  c #4B322E",
"}  c #54312F",
"|  c #472E31",
" . c #552E31",
".. c #423534",
"X. c #4C3533",
"o. c #433A36",
"O. c #4B3A35",
"+. c #473639",
"@. c #443C3A",
"#. c #4A3D3B",
"$. c #533333",
"%. c #5B3434",
"&. c #563837",
"*. c #543C3A",
"=. c #5C3C3B",
"-. c #643838",
";. c #633C3C",
":. c #3F403B",
">. c #494037",
",. c #44413D",
"<. c #4B423E",
"1. c #52423D",
"2. c #5A423E",
"3. c #66413F",
"4. c #3E3E41",
"5. c #453E41",
"6. c #593E41",
"7. c #653E41",
"8. c #3F4140",
"9. c #444443",
"0. c #4C4442",
"q. c #4C4945",
"w. c #484748",
"e. c #4C4B4B",
"r. c #524543",
"t. c #5B4543",
"y. c #534946",
"u. c #5B4A45",
"i. c #574648",
"p. c #544C4A",
"a. c #5A4D4B",
"s. c #5A5047",
"d. c #54514E",
"f. c #5B514D",
"g. c #4E4F50",
"h. c #534E52",
"j. c #545353",
"k. c #5C5452",
"l. c #5C5955",
"z. c #585658",
"x. c #5C5C5B",
"c. c #634443",
"v. c #6A4443",
"b. c #634A46",
"n. c #6C4748",
"m. c #634D4B",
"M. c #6C4C4B",
"N. c #724B4A",
"B. c #63524D",
"V. c #6B514D",
"C. c #6E504F",
"Z. c #625553",
"A. c #6B5452",
"S. c #635956",
"D. c #6A5B55",
"F. c #615758",
"G. c #645C5A",
"H. c #6A5D5B",
"J. c #735452",
"K. c #775855",
"L. c #745C5B",
"P. c #7B5C5B",
"I. c #6A6057",
"U. c #64625E",
"Y. c #6B615E",
"T. c #73625D",
"R. c #7B625D",
"E. c #5E5F60",
"W. c #6E5F60",
"Q. c #646363",
"!. c #6C6462",
"~. c #6B6966",
"^. c #676769",
"/. c #6C6B6B",
"(. c #736564",
"). c #7C6463",
"_. c #736965",
"`. c #7B6B65",
"'. c #766768",
"]. c #746C6A",
"[. c #7A6D6B",
"{. c #73716E",
"}. c #7B716E",
"|. c #716E71",
" X c #747372",
".X c #7D7473",
"XX c #7A7877",
"oX c #7C7B7B",
"OX c #835C5D",
"+X c #836A64",
"@X c #886867",
"#X c #836C6B",
"$X c #8E6B69",
"%X c #877267",
"&X c #84726D",
"*X c #8B746D",
"=X c #90746E",
"-X c #837573",
";X c #877775",
":X c #8C7A74",
">X c #837C7B",
",X c #8B7D7B",
"<X c #927C75",
"1X c #967978",
"2X c #88827E",
"3X c #96837B",
"4X c #9B847D",
"5X c #A2877E",
"6X c #7E7F81",
"7X c #897E81",
"8X c #848383",
"9X c #8B8383",
"0X c #8A8887",
"qX c #8B8B8B",
"wX c #988986",
"eX c #98918D",
"rX c #918F91",
"tX c #989594",
"yX c #9B9B9B",
"uX c #A58A86",
"iX c #A7948B",
"pX c #AF948E",
"aX c #A59895",
"sX c #AD9B93",
"dX c #B49B96",
"fX c #ABA29B",
"gX c #B6A49A",
"hX c #BCAA9C",
"jX c #A09DA0",
"kX c #A9A8A8",
"lX c #B6A9A4",
"zX c #BDACA2",
"xX c #B9B2AB",
"cX c #B8B7B8",
"vX c #C1A99D",
"bX c #C2ADA3",
"nX c #C4B2A5",
"mX c #C8B7AC",
"MX c #CBBBB3",
"NX c #D3BAB3",
"BX c #BEC0BD",
"VX c #CCC0B7",
"CX c #D3C2B8",
"ZX c #C8C8C7",
"AX c #D6D1CD",
/* pixels */
"                                                                                                                                                                                                                  X       X             X   O     X           X                   X                                                                                                                   O         X       X   X                 X         .             O                   X                                                                                                                 X                             O       X                                                   X         X                                                                                                             O                           O     X                                                                                     ",
"                                                                                                                                                                                                                                                                            X                                                                                                                               X   X     X     X         X       . O                                                                                                                                                               O       O           X                         X                       X                                                                                                                                         O               X                       O             X       X                                                       ",
"                                                                                                                                                                                                                                                                                                                                                                                                        X                               O                             X         X                                                                                                             X                               X                                                                                                                                                                                                                                                                                                                       ",
"                                                                                                                                                                                                        X                                                                                                                                                                                                                                             O                                                                                                                                                 X                                   X             O                                                                                                                                                                                 O                   O                                                                                     ",
"                                                                                                                                                                                                                                                                                                                                                                                                                          X         O               O                                                                                                                                                                                           O                                                                                                                                                                                         X                                                                                                           ",
"                                                                                                                                                                                                                                                                                                                                                                                              X         X                               O                                                               X                                                                                                                                                                                                                                                                                                                                                                                                                                             ",
"                                                                                                                                                                                                                                                                                                                                                                                                                    X                                                                                 O   O                     X                                   X                                                           O       O                             X                                                                                                                                                                                       O                                                                                       ",
"                                                                                                                                                                                                                      O           X               O                                                                                                                                                       O                                                                                                   X                                                                                               X                                             X                                                                                                                                                                       X                               X                                                                                 ",
"                                                                                                                                                                                                                                                                                                                                                                                                                                                    O                                                             X                                                                                           O O                             O           X                                                                                                                                                   O                                             X                       X     X                                                           ",
"                                                                                                                                                                                                                              X                                                                                                                                                                                             X             X                 X                                                                                                                           O           X     X                   O         X                                                                                                                                                                                                 X                                                                                                           ",
"                                                                                                                                                                        X             X                 X                                                                                                                                                                                               O                                                           X                                                                                 X O                                                           X                             X                                                                                                                                                                         X                                                                                                                         ",
"                                                                                                                                                                                                                                                                                                                                                                                                            O       O                                   X                                                                                                                                                 O               X                               X                                     X                                                                                                                 X                                                                                                                                   ",
"                                                                                                                                                                                                                                                                                                                                                                                                                                                                                                                                                          X                                                                                                                                                                                                                                                                                                                                                                                           ",
"                                                                                            X                                                                                                                                 O                                                                                                                                                                                                                   X         X                                                                                                                           X     X               O                                             O                                                                                           X                                                                                                                                                                                             ",
"                                                                                                                                                          X                                                       X O                         X                                                                                                                               X     X         X                                                       O                                         X         . .   X             O                   O                                                             O   X                     O     X         X                                                                                                                               X                 X           O                                                                                                                             ",
"                                                                                                                                                                                              O                                                                                                                                                                                                     X   X           X     X       X         O               X               X     O   X X @ X X                   X X X   O                                         X                               X             .           O   O     O             O                                                                                                                                             X                                                                                         X           O   X                                       ",
"                                                                                                              O                                                                                   X                                                                                                                                                                                                                                             O                             X   X X X         * n R o.q.,.N 4 X X X X   X X   X     X                                                                                                     X                                                                                                                                                                             X                                                                               X X O                                       ",
"                                                                                                                            O                                                   X                                                                                                                                                                                                                                                 X                                   O X       X       - U  XtXyXaXkXaXfXfXfXfXeX}.q.4 . .   X                                         O                                                                                                                                                                                                                                                                                                                         X       @       . X                                 ",
"                                                                                                          O   O O O                                                                                                                                                                                                                                                                                                           X                                             O   X X f ~.kXcXkXaXwX9XwXwXwXwXeXiXfXgXkXfX}.K .   . X                                                                                                                                                                                                                   X                                                                                                                               O             # > I j.h.w.n X                                   ",
"                                                                                                            O b b # O                                                                                                                                                                                                                           X                                                                                                                       X X   O # ~.ZXZXxXaXwXwXeXwXiXeXiXiXfXfXgXgXsXfXlXxX2XA       X                             X                                                                                                                                                                                                                                                                                                                           O O U oXcXXX4.Q.9.                                    ",
"                                                                                                            6 g.I V T 7 X X       X                                                                                                                                                                                                                                                                                                                   X               X O   X 8.xXAXcXxXaXeXwXwXwXiXsXgXgXgXhXhXhXgXgXfXgXfXfXfXY.-                                     X                   X       O                                                                                                                     X         X                                                               X                                                                                           m |.cX|.4.> + > #                                     ",
"                                                                                                            @ -   # 5.@.,.u .                                                                                                                                                                                                                                                           X                                                                       X         O ^.AXZXkXkXfXeXwXeXeXeXaXsXsXgXhXvXnXnXnXnXnXnXgXfXfXxX2X; X                                         X                                                                                                                                                                                                                                                                                 O                           z.BXoXh.2 O O > O   X                                   ",
"                                                                                                        X X X   O # R 9.p.q.A # .                                                                     X                                                                                                                                                         X                                 X                                                                 X   @ 6XAXcXkXaXtX2X2X2XwX3XiXsXfXgXgXhXhXvXnXnXnXnXhXnXnXgXgXfX2X:   X X                             O                                                                                                                                                                                                                                                                                                                 w.kX|.z + O + O O     O                                   ",
"                                                                                                                O > # M @.R p.<.o .                                                                                                                                                                                                                                                                                                         O                   O     # qXAXcXfXrXtXwX2X2X3X3X3XwXiXiXgXfXgXgXhXhXvXvXnXVXnXzXnXnXfXhXaXt                                                                                                                                                                                                                                                                                                                                                 9.jX4.z O O > 2 O                                           ",
"                                                                                                      X           X # . A ,.F p.o.*                                                                                                                                                                                                                                                                                                                           X X     XXAXcXrX0XoX.X-X}.2X3X3X3X3XfXhX5X5XhXhXnXnXhXhXvXnXnXnXhXvXnXhXnX3X- X               X     X                                                                                                                                                                                                                                                                                                                 O O V qXw.X   X   > @ X                                           ",
"                                                                                                                      . & y G o.w.@.#                                                                                                                                                                                                                                                                                                                               w.AXcXyX0X6XI.~.`.2X2X%X3X3X3X5X5XfXhXhXhXvXhXnXnXvXhXhXhXvXvXnXnXnXnXXXX X                       O                                                                                                                                                                                                                                                                                                             z |.^.I ,     . > #       X   O                   O               ",
"                                                                                                  X       X       O   . & = u G D @.+.* .                                                                                                                                                                                                                                                                                                                       O m BXcXtXXX XE.I.I.I.3X%X2X3X2X3X3X5XhXgXhXhXnXnXmXnXvXhXhXhXnXnXnXnXnXxXxX:.X X                                                                                                                                                                                                                                                                                                                               O z qXQ.m > X @   @ + O                     X     O                   ",
"                                                                                    O O   X                           @ * . $ u D +.k.y..                                                                                                                                                                                                                                                                                                                       X 8XAXjX7X.X_.h.1.I.I.`.%X%X%X%X3X3X5XgX5XhXnXnXnXmXCXVXCXhXhXhXvXmXmXmXnXxXfX4       X   X                                                                                                                                                                                                                                                                                                                       /. X# O 1 2 O O @   X                           @ @ 1   X O   X     ",
"                                                                                  O                                   X # o $ % y G +.H.>.. X     O                                                                                                                                                                                                                                                                                                             b ZXcXyXXXE.H.h.s.I.I.T.T.2XR.T.2X3X5X5X5XnXnXmXhXnXCXCXCXCXnXhXhXnXnXCXVXmXxXf.. . X                                                                                                                                                                                                                                                                                                                           2 XXm O X # . O @ .       O             O 2 2 6 6 m 4.w./.4.  # X     ",
"                                                                                                                O         # < * y ..L a.!....                                                                                                                                                                                                                                                                                                                 O XXcXyXrX/.H.!.a.2.s.I.R.T.I.R.3X2X3X5X5X5XhXhXhXsXhXCXCXnXnXmXhXsXgXmXmXVXVXxXfX*     X O                                                                                                                                                                                                                                                                                                                     X >X X6 # # O X O                     * w.^./.e.T 9.V V z e.x.j.@       ",
"                                                                              X O E E.T 7 6 @                       O     . * = t c D [ r.k.: . .                                                                                                                                                                                                                                                                                                         X @ f cXkXtXqX!.].G.i.2.s.V.I.2XV.T.3X2X3X3X5XsXhXhXsXsXnXAXCXVXnXVXhXsXhXCXCXVXmXzXxX@.. X                                                                                                                                                                                                                                                                                                                 O O   X 9.tXE 2 2 O # # @ O                 B oX^.Q.,.n 7 m 6 2 1 # 2 e.6       ",
"                                                                                4.xX Xe.z.9.q.w.q.U 4                         * i t i X...H.i..                                                                                                                                                                       X                                                                                                                                       8.ZXkXjX X!.].S.y.s.s.s.V.I.I.I.I.%X3X3X5X5XsXsX3XiXzXCXCXCXVXVXhXnXhXVXCXnXVXzXxX,X                                                                                                                                                                                                                                                                                                                          7 kXh.6 7 2 2 , @ X               > w.XX^.T V ; 7 # > > > > # O > O   X   ",
"                                                                              O g.w.> 7 U R R P p.h.p.F *                   . o t g q S ..H.#XC X X                                       O                                                                                                                                                                                                                                     O                         O O XXZXjX0XE.l.z.k.r.2.B.B.B.B.V.I.R.R.%X3X3X5XgX5X3XaXmXMXCXMXmXlXsXnXnXhXnXhXnXhXhXeX4 - -     O                                                                                       X                                                                                                                                                                                     .     O       X               @ O  X Xx 5 , , 7 2 #             , R j.XX7Xj.6     . @ 1 6 1   O             ",
"                                                                        X       # # O O 6 7 B B F Y E E e.F #             X . . & e J C G 1.(.].3 .               .     O                                                                                                                                                                                                                                                                                 O O yXBXyX|.g.l.0.p.B.2.>.1.B.B.2.I.`.I.%X2X3X3XsX5X5XhXzXzXVXMXzXiXuXnXhXhXhXhXnXhXhXfXj X X                                                                                                       X                                                                                                                                                                                                       O   j.tXV 7 3 3 x 7 7 .         * Y h.w.i 7 V <   # O X 2 2 # O                 ",
"                                                                            X       O X X   = : n @.5...y.0.G 7 .   . X . X . . o 3 S L ..S i.,Xy.. . X                                                                                                                                                                                                                                                                                           O       O z kXkXrXE.j.U.<.#.B.>.( { 2.1.1.1.T.I.R.+X%X3X3X,XiXxXgXzXCXCXgXeXpXhXhX5XhXhXhXiX5XfXs.X X         O                                                                                                                                                                                                                                                     O                             O               O   V rX0.M u F n B n = O     + F /./.P < . X X   X X   O X @                     ",
"                                                                                  X   X X # 6 * 2 M D Y Y A U G R 3 . X X X X . . o 3 j ..G #.G.,X#..                                                                                                                                                                                                                                                                                                     O I ZXjXjX|.w.S.q.u.T.2.{ >.B.2.2.1.3.%XT.3XR.&X%X`.iXhXVXmXCXmXaXuXgXhXhX5XhX5X5X5X5XfXU.X X   X                                                                                                                                                                                                                                                                                                     X O   U kXh.Y B F o.F B 3       . w.7XP c e > # . X # O X O O                         ",
"                                                                        O                 X @ 2 * * < x Y G C C ..Y N # . o . o o o : : u M D ..Y.wXA *   X                     O                                                                                                                                                                                                                                                                       O O 4.cXtXkX/.y.0.@.1.D.I.1.>.B.I.2.2.B.T.%X%X`.T.`.:XiXdXMXmXvXiX*XwXgXpXnXhXiX5X5X3X3XsX.X: o X                                                                                                                                                                                                                                                     X                                                 O O z aX].P x c M P Y C 3 . . & p.'.Y < $ , + +   @ @           X                     ",
"                                                                                                  . 3 3 y y G Y F i K R t X o o o * & & < A ..D r..X.XF .                                                                                                                                                                                                                                                                                     X O   O       w.kXqXjXQ.f.>.#.<.1.2.3.V.3.2.&.{ 3.B.V.%X3XI.3X<X,XsXlXgXsX4X<X4XuXvXnXpX5X3X5X5X3XfX3X3 - X                                                                                                                                                                                                                                                         O b T T w.5.>                       X           > tX/.Y P | c v P M < * $ $ F.7X#.G y < , > + O X                                   ",
"                                                                                O                 X * < < = M G L C t M <.K : # X o o * * t Y G +.1.Z..XC X                                         n j.T >                                                                                                                                                                                                                   .                 O       O O g.kX0X6XQ.XX0.<.D.1.1.b.R.P.3.V.M.b.I.3.R.3.D.T.%X`.<XuXuXpX5X=X%XuXvXvX5X%X3X5X3X3XeX2X4 o . X                                                                                                                                                                                                                                                 O   @ x.BXkX5.B 0.O                                 #  X7XP v 5...c c i t % $ = r.'.#.G y e e 6 > O       O                               ",
"                                                                                                  X   + # 3 e t h L L ,.o.Y 9.j X * . o & = 3 i [ [ 1.T.;X<..                       O             R E 4.j.j.2                                                                                                                                                                                                                                           O O ^.cX6Xw.q.}.q.[ s.1.O.O.K.P.V.R.<XOXK.+XI.2.V.4XsX3X[.*X%XpXpX5XpXvXhXhXhX%XR.3X3X3XiX3X>.>.3 .   X                                                                                                                                                                                                                                                 7 BXyXm 6 m P u               O               n qX|.P P Y P P | G y e = C W.m.G Z y c c e < +           O   X                         ",
"                                                                                                      X X % 3 3 e h C 0.G.y.Y w.F   + $ . 3 % 3 c S #.r.!.wXr.*   .                             O E +   6 n E O                                                                                                                                                                                                                               O     X   @ # g.kX XI w./.<.J A ( X.&.b.K.+X+X$X@X3.K.V.2.L.lXNXdX*X#X5XdXpXpXvXNXNXvXdX=X$X=X3X%X4X=XeXmX&X. . .                                                                                                               X                                                                                                                               X V yXe.X 6 h 6 e .                   .       B 8X.XE D P P +.+.| | y y v t.Z.G Z C C M i * .       X                       O X         ",
"                                                                                                X   X     . # = 3 : * i O.-X-X0.p.#.M * . . $ : = S i.#.r.(.!.].F                   .         O x.m + 2 2 # q.u                                                                                                                                                                                                                                     O     @ T yX XI d.2Xy.o.#.S k S ( 2.+XuXpXuX%XT.A.A.1XlXmXdX+XM.=XpX5X=X5XvXmXvX5X5X3X%X3X3X<XwXdXhXiXt..                                                                                                                                                                                                                                                   # U 7 ; 3   i k.#.$   . . . . . . + 3 n U z.}.0.D M C < C 5.G D P _ ..| G | G c G C e = X   X         O   O                           ",
"                                                                                                      O X .   # o = * = y 6.W.7XF.5.0.A B 3 = * 3 C #.G G +.i.-X.Xo.& .   . .                 4.0XB + < # * V 6                                                                                                                                                                                                                                       - ^.7Xg.rXE.m j.~.,.1.S.X.l J { ( K.uXdXgXiXT.c.L.uXlXzXmXwXb.b.+X<X5X5XdXhXvXgX3X%XOX3X+X=X4XdX%X&X[.$ .   O                                                                                                                                                                                                                                         O X   # @ @ * : C (.,XF.y.5...+.i.G.k.k.W.(.i.L F M 3 y 3 < y v v y G ..| v c ( D G L C : .       X X         O                           ",
"                                                                                                  O O O   X X @ # * = : 3 c D a.r.F y c A t 2 & = i Z C C +.+.Z.(.!.G.f.L U M 6 2 2 < 7 V 5. XrXT 6 > O = 7 N X                                                                                                                           X                                                                                           X               n oXq.Q.tXU.U 8Xy.C o.t.>.O.( ( 1.b.+X5XdX4XV.$.A.L.uXpXMXgXP.t.2.K.OX+XOXK.%X4X3X%XOXK.+X*X+X1X*XR.B.$ .   .                                                                                                                                                                                                                                               , 7 < * t M 5.H.H.'.7X9XW.G.f.5.A D B u : e : 5 u e < < < 6 v _ D ..D r t 8 c M 3 . . X X X X X             O                       ",
"                                                                                                    X   X       . X o = < * e D 6.F y 3 3 * $ + % u C i C _ G G ..#.-X}.G.G._..XG.p.S.~.~.h.p.T 2 @ # . @ 6 ;                                                                                                                                                                                                               .             X           H R 4 R 0Xz.T  X,.h h S o.o.k k ( b.3.K.4X5XM.` _ &.P.+XuXpX+X&.&.2.2.B.2.( 1.3X3X%X+XR.=X4X=XOXR.b.C $     X                                               X                                               X                                                                                                                                               > 7 * , u e e D 6.Z.L.i...C D i e e e : * : : * $ * = = 3 e c v D 5.X.y u t < =   . . @ X . .   ; n V B 7 # . X X   X               ",
"                                                            X                             X   X X X X         O   .   o < < < c D ..#.M = % . = * = y i c i D Z i F F.i.i.c U #.U u u n h * : 6 , @ 2 O * 2 .                                                                         X                                                                                                                                                     X X       N R g R oXd.q.x.: e : e S L k h k { >.b.#XK.X.) &.&.b.b.P.+XV.>.[ k = = y q r 3.3X%XR.<X*X5X=XK.OXm.= . .                                                                                                                                                                                                                                                     # # + * e < < 8 | A.t.( _ i y C i : : 5 : & < & & : e = * 3 D B ..| y e i * $ . . . X : u B U e.G.p.G.e.o.w.k.9.@.V 5 #           ",
"                                                                                      .   # . X X o o X   .   . X       + = 3 % < G #.M = * = & & = * i C e M w 8 y r.W.G...#.F B 2 3 2 2 2 # X * # * X # #                                                                                                                                                                                                               O                           2 K g K x.l. Xd.4 ; g e j L J j k J G O.b.u.$.` t.2.) =.R.D.a.D.o.t $ $ & t l I.iX4X3XiX3X5X<XR.R.( $ . .                                                                                                                                                                                                                                                     > , < * < 3 y e i C *.+._ e i i j : : : : : = o o * 3 * # < D B D C i 3 = +   : $ u B K @.,.U o.@.n u u B 9.k.e.0.j.0.R * X       ",
"                                                  X                               X 6 x @.R B i A Y ,.Y B n #     X .     + + , % e y C C u e * . $ * e t 8 e = 3 y ..5.5.i.5.C i e 3 * < # # X * 2 * ; 6 .                                                                                                                                                                                                                           O             X X N : u x.^.rX:.4 ; : # * : : * t C y s S $.=.=X#XV.l ( X.b.O.J k 3 * ; q t k D.sXsXwXuXuX5XuX*X`.= .                                                                                                                               X                                                                                                                           6 # < 2 y c i s v c i v i t 8 8 & o . o : ; ; * * ; = * = x v i G G t e e A B G G G N C M y h n u u 3 3 n N N h V M ,.9.;       ",
"                                                                                  w.0XG.].G.H.S._.f.[._.Y.!.q.B 5 .       .   . . $ $ y D v Y u + + $ $ * $ = < < M ..s G F M e 5 y x 2 . . . * # * # : 5                                                                                                                                                                                                                                 X       X   X M x u z.Q.oXV 4 4 4 X .   . . + < e e v G c.1XuX7X%.v s v = * 3 * * : 5 e q >.3XgXiXuX:X+X<X*Xr..                                                   X                                                                                                                                                                                                         2 ; * 6 3 h i C G Z e e y k 3 = * - & o * - : : ; & o & & = : 3 C C t t S ..C C A A n y 5 5 3 3 ; 3 4 ; : 7 5 G g n u R n       ",
"                                                                          O   X Q.tXw.5.h.+.k.i.f.S.Z.k.a.H.k.y.l.k.o.3 . .   . & & . = y u D c e + . $ % . & < c i C c e e 3 = = e 6 < < + * * * o * 7 6 X                                                                               X                                                                                                                                                 X           3 n U h./.Q.u 4 * * X .   . . . + < < w *.i.P.pX7X7.a s r < % < : & * 3 u : { *XiXiXuX#XR.:XR.y $ .                                                   O                                 O       O                     X       .                                                                                                                               X # # 3 3 : e t C G G y = t = * * ; & o & - ; ; & - & - : % = 3 e k C v i C i h 3 3 h h : * X # : - ; ; 1 # M h g u 2 h ,.;     ",
"                                                                        O O O I ZXz.u G r.#.#...+.a.Z.#...p.i.i.p.G.G.i.0.L = 3 = $ $ $ 6 y u P c $ . * % . $ < i i y e = 3 3 = = 3 < % < < + < 3 . 2 7 #                                             O                                                                                                                                                                             X   X         X     > n 5.E.7X|.g 6 o   X   . X O O > < < c | t.L.dX7XC.7.7._ i P i t : : h y L t.<X3X4XsXuX).3XZ.$ .                             O   > O               O                                                                                                                                                                                                           m 2 * 3 e g u q i L L e * * * ; & # o # # : 3 ; : # & * ; t = e ..O.k C G M y 5 3 h t # o X X X o   O # # 2 2 X # # 3 T g     ",
"                                                                              9.yXR B n e P 6.5.Z D c G ..L Y p.@.@.5.5.i.0.+.L P 3 & . $ y c P M < < + * * $ < = 3 e < < = = = < * < 3 c 3 u u 3 e n n                                                                     X                                                                                                                                     O                         X             6 h.z.jX|.M g o X O . # # + O % x B w G A.;XdXdX@X7.1X(.6.#.F : : y : i t.`.wXwXfXmXdX).`.L.& *                         X #   O > > # > O > > @ @                                                         .                           X                                                                                                   O   O         O     T u * 2 3 3 e t e i h C : & * * - - & # - : ; 3 4 & - : 3 : e C S X.[ Z C i t t 2 * @ . .   X       O     X   X X X   4 2     ",
"                                                  X                   O   O   m e.1 2 # = 7 M C 3 3 * y t 3 3 i M x Y F C U L C F F e $ $ * x y e y c < * & $ * * * % * * & & * = * * e y t n y = = n 3 . X O                                                                                                                                                                                                 O                 X                 X       7 w.E.yXoXP x 3 + . O X # @ # < z y c 5.u.6.;XaXuX7X$XL.M.L.F.<.A C _ | Z.#XuXlXbXNXmX<X:X`.t . X               O O X # @ 2 6 n 6 2 1 > O O # 1 1 1 X O O                                                         O     X                 X                                                                                                                   V 7 . * : : * 3 : : : k g & o & o # o - - & ; ; : * : : : t i Z S [ G q : e 3 * o .                 X   O             X       ",
"                                                                              > 4 # @   . . . + . . . < * * . . % i ..D i o.D e u B i = $ = + e e 3 x u < * * < < & * < = o . # # & 3 < = < = 3 3 h F *                                                                                                                                                                                                           O O X X           X                 O O @ 4.^.cX7XP x 5 + * < * @ < 7 B B c P i.v c v F.dX7X7X'.7X;XW.A.&X(.m.B.(.-XlXNXbXbXNXwXpX&Xy $   X X   X   @ # O @ 2 @ @ 7 z 7 1 O 6 1 > 2 # 4 O @ # X                                                                                                                                                       O                             X       X       V ^.T * * : * * : e : : : 5 & & o o o o # - ; # & * & : : t 3 = i h k y : $ &   . X           X             O         O   O     ",
"                                                                          X   X           X X     .         . . . * t t 3 3 i t y c e e < = $ 3 t B C 3 < 5 6 * * # + , * @ # . # , t < < = < x e u G 5 . X     O                                                                                                                                                                                     O       O       # - @ X X 1 X               X   O O 2 U ^.cXXXB c u , 2 , . 2 * x 4.D B D D e % = v 7X7XOX7.;X#Xm.6.'.'.m.6.W.$XlXNXnXdXdX<X<XI.% & : # ;   X X ; # 2 u m 7 B 9.n 7 # 2 2 2 @ 2 7 - @ @ 2 - X X   X                                                                                                                                                                                 X         E 6Xg.N ; * ; * $ ; : : ; * * - o o o o - * - & - * * o ; 3 e = e e y y : % .                                                     ",
"                                                                                  X               O   O   X       X . . . < u t 3 y e c C < = = < y c e 3 i t < $ $ # + # @ * # O > < < = 3 c y u G 0.p.3         O O                 .               O                                                                                                                                       @ X   O   O       @ X   X - ; ; o 1 2 X     X   O X X O     m 9.qXjXz.B c D C x u u y x B D D 5.5.D > % + < 6.7XOXC.J.'.J.i.Z.m.m.n.L.#XuXdXlXiX<XV.V.L.h $ 5 4 o # # 2 7 7 2 m V V E T n 6 x 2 2 2 1 @ ; 1 - @ 2 2 2 # O           O         O     O                                                                                                                                                             f XXqXg.7 g 7 # . * : * = ; * * & # o o o o * ; ; o & * * * * : e e t e = e C t y 3 : 3 = X           O   O       X                   ",
"                                                                                        O             O   O             . . & * . 3 e h h i t w = = e 3 3 e t 3 > + $ # O @ X @ # ; 3 * < 5 c y u ..0.k.w.3 X                                                           X                                                                                                                             @ - X o o -   X X X 1 - @ - f 1 X         @ O @ O + 6 w.yXrXi.P P P F P Y P c c D Y 4.7.z.x = > = % 6.7X7X7.5.7.7X7X6.C.'.1X#XP.#X1XiXdX1X2.m.*XO.S U K g 5 ; ; 6 5 g 7 5 B T M 2 , x < x ; h 7 M F N 7 6 2 2 X o X   X                 X         O                                   X                                                                         O                                 O   1 g.qXjX^.n # 2 - o # * o ; * . . * & X X o & # * # ; * & : 4 & ; u u e < y e i ..G F h M C Y F n m m *                                   ",
"                                                                              X X           X                             . . . * * $ y i s s e y i i 3 : = * < < % . + . . O # o * o $ * t 5 y G @.G 0.Y.h.* X     .   O     O                                 X                                                           X                                                                   O X X # X f 4 4 4 4 - - 4 @ 2 4 - 4 # X @   O - 2 2 6 V m z 9.xXoXP D o...D D P B t < c P P 5.5.c % $ 3 = | @X@X#XOX7X'.OX .P 7.=X#X@X$X=XuX1Xn.` 2.).a.r.0.@.p.d.,.K 2 6 5 4 n u R B B V T x.h.G.z.f.k.~.{.S.U.!.e.n # * @ @ X # X @ X   X X             X   X X                                                                                                                                         b 8XkX0Xz.n @ 1 m - o # 2 * * * * o * o X X X # # * * : : - : - ; ; u 3 t i M i G G C i t t 3 i 3 < u 9.T V N 2 X             X     X       ",
"                                                                                                    O                     + * & & % = : i 8 i e i c s 8 = $ = 3 x < + + # o . @ o o o o & 3 t y ..+.S 6.f.Z.S.5 O X X   .                                                                                                                                                         X       X     X # - @ X X o - ; j f f N f 1 - 1 4 4 @ > # # 6 f 6 6 V n # E 7X6.c B o.+.D P D B < < u c 6 c 5.5.3 $ % % v  .-X7X7XdX'.5.a v v t.A.).=X@X@Xn.a d { O.*.#.G 5.d.U.~.l.o.A g 2 A N N T G..XoXqX}._.d.0.0.p.0.,.0.l.G.k.f.Y 4 ; 2 7 7 7 2 4 7 @                                 X       X                                                                                     O                         ; j.0XtXqX9.m > X 2 2 X X X ; : & . . X X o o . . o 3 : : : : & - - : : 3 6 i F i u C D u t h B t u 2 2 2 u u g 9.x.E 7     O                   ",
"                                                                                                  X       @ x I E Y w.0.o.z.0.D * % & = = y y e y r e t u = 8 < e < = + . # o o o # # * < < < y C Z D ..r.k.H.G.5.#   X X   X                                                                                                                                               X @       X     @ @ O # - 1 f T :.:.,.,.:.:.:.:.H N f - 1 4 @ @ # 6 1 2 6 6 7 m M 0.P c c D C B c 6 3 < 6 3 D c c 5.i.D < $ w 5.W.@X7.7.@XJ.7.D 5.| s Z { K.OXP.=.s ! &._ t.S.u.#.0.q.S.f.x.l.R M n B y.z..XoXW.'.k.@.<.a.0.y.p.G.e.d.@.,.j.U.f.V 7 g 7 4 ; 7 6 O   X                   O                                                                                                                             X R oXyXoX|.:.7 f # 7 7 @ . X . X X . * o X X o o . * : : 3 % ; : : & * * * : 2 t M h e t 3 3 5 3 i 3 ; 6 i 5 x 6 u h <.o.E A X X                   ",
"                                                                                    O                 4 z.9X.X7XU.E F o.G U Y M $ * = e t s D i C i i t t = = = < i e = * . X X . o & $ * = 3 C ..C C Z #.Z.r.H._.d.M + . .         X                             X                                                                                                         o 5 2 X X O X - 6 - 1 U x.~. XoX{.{.,.:.K K K :.:.:.H m m m b b b b 1 b g. Xd.m 6 n B y i s F c t < 3 3 3 P c 3 e x P D ..D y Z.A.L.M.c.b.#X7X6.c P 8 e k ( $.$.^ a p ( t.D.Z.Z.[.(.S.Y.].!.].Y.d.@.o.9.0.a.S.p.#.#.R 0.i.f.].].-X>X{.S.S.f.y.p.l.d.R N m 7 6 2 > # @ O               X               O                                 X                                             X                   O     O 2 R XXtX2XoXq.m f 2   2 g # X @ # X . . . . X X . X o o ; : 3 : : = t t * * * * 3 3 6 t 5 3 3 < * 3 : 6 3 ; 3 6 6 m 4 : M F h N w.H #   O               ",
"                                                                                                  - x.XX/.l.F o.P D o.G i i h e t % 3 h G i G G s D S D i i s e t y u 3 = . & . o # ; * 3 e y C _ C C +.A *.u.a.k.S.G.y.3   .               X                 O                                                                         X                                 X o 4 4 f 7 4 # # b E.8X X Xd.,.:.:.,.:.j H :.:.K K T I m I H I T I I g.XXqX X9.m R C C i G c y < * & * y c B B Y B y c G i.D v +.6.;XuX7XuX).'.7.y v e % 8 r p } c.` X.L.7X;X;X1X;X[.H.!.}.!.Y.Y.S.k.l.q.K 0.0.0.h.y.0.i.k.[.].~.]..X}._.~.G.p.y.d.d.s.o.K V n 7 6 2 2                     O                                         X                                                 X X X X o @ X # @ X X - V Q.qX0XoXU.T g N K ;   2 7 @ X   X X o X * o X # * @ X * * : * % : * 3 5 3 3 2 # # : 6 2 ; ; 6 # # 2 # 2 ; # : 6 3 ; # 2 2 B R F F ,.:.4                   ",
"                                                                                            O 2 ,.x..Xq.E Y ....C #.G...h @.C 3 e * = i D M i i i C G D y k G s i e e e i : : ; : : 6 * % i C ..| C D _ X.S t.b.T.f.D.!.H.R 3 .   X   X             X                 X O                                                                                             X # # 6 5 - 7 m m m x.6X6Xw.V H K K K K >.:.j H L R :.T K m :.:.:.m I I ^.yXg.w.8.m n F B Y ..Z i i = < = 3 e x < x P c y i D r...D 6.6.#X7XuX7XL.6.6.| E h e = r ( A.@XP.K.=X1X1XwXaXaXaXeX,X2X&XY.D.f.k.!.p.Y o.@.p.F.r.#.0.G.'..X,X.X'.S.Y.!.G.f.U.Y.f.G.l.d.K m n n # # O           O               X                                             X                             X O > 2 2 2 - - - - # - f g e.oXoXXX,XU.K j : g >.3 . 2 u 2 # X o o ; 4 3 6 4 3 3 * * = # ; : * , , = 2 3 6 . # # X 2 2 2 * 2 * # O X X X X X X O @ X X 2 2 2 M 9.V V R 4                   ",
"            X                                                                               6 tX8XU ,.<.l.o.r.U c F Y ..A B t 3 3 e i n i i F C e y e i h y i i e i k i C h i t M y e t i M t D Y +.#.D S S S >.a.H.Z.G.Y.S.k.@.5 X     . o O X                                                                                                                       X 7 # ; 5 @ # 2 e.qXj.8.U V b N H :.K :.H :.K L A H H U H I b I I I 8.|.^.g.I I :.T E G G 0.B...C B 3 = 5 < < < = c c e c D e D | a 5.6.Z.n.#X).(.#.A.H.5.3 e 8 r ` P.P.@X#X1XwX1X1X7X7XeXiX,X}.,X2X}.!.!..X].a.0.o.#.#.0.0.k.Z.f.W.'.!.U.{.Y.S.f.k.S.U.I.l.U.d.d.,.n n 2 2 O             O                         O                                                         X @ 7 z x n m f - 1 # 4 f :.z.z. XXX6XQ.^.j.M 6 f j V : ; 5 3 2 X X ; ; - o ; # X 2 # : 2 # # : & & = + # 2 # # * ; # * * 2 * # @ O O                         O # X - U M E 9.f                   ",
"                                                                                    X       e.ZX9.V B y.G.5.F t h 5 t h 5 * . . o 3 3 t 3 e y t * = 3 3 C C Z i e c C C C i i C G h M L C h e = i #.a.X.D s [ 1.1.O.#.a.G.p.a.Y.l.,.V 2 # # # O X                                         O                                                   O                   X X @ 1 4 4 6 f b ^.|.z.I 4.4.I m V V U L H K :.>.K Y H L U U R H T U 9.Q.6Xz.4.U T w.E T K F #.f.i.Y i $ 3 t u A y B c t 6 ..| D +.G y v | 6.L.7X7XA.6...h.L $ $ 8 l b.R.1X@XJ.5XdXsXiX;X-X-XwXwX#X,XeX].].[.}.[.}.f.<.L J Y +.k.S.G.S.G.S.H._.G.!.>XH.a.y.0.<.0.q.l.d.,.V H 7 X X                                 O                                                             X f n 7 z x f m g K K g.k.U.d.e.Q.Q.W.~.z.R B u < x 6 2 u 3 * o X ; 7 - X o o o o # * 6 7 : o : ; : - # X X > > @ # , 2 6 2 O       X     O         X       O     X X # : E q.7 O                 ",
"                                                                                            E kX9.R R G o.B t . o X . . . X . . . * . * $ o * # : % * i u e M i e e t Z Z C C k C F A G ..L C < = i ..#...Z Z O.p...G A @.i.p.p.k.d.l.h.9.n 5 # # X   # # X X   X                                                                             O                 O @ @ @ @ f 1 b E.j.e.w.8.U I b V T E I V K A H K H :.J K K H H U H U w.E.w.w.E I 8.:.4.K H K F M r.i.M u < * < n R 3 M C < = D +.D P +.v Z Z.+.J.#XW.v e * G | & $ e O.3.P.1X$X;.OX$XpXiXwXwXaXaXsXkXaXwXwXwX9X,X_.}.p.1.L [ L <.r.i.S.]._.].7X,X-XW.!.S.0.0.y.p.e.@.q.f.q.:.E U 7 # X   O                 O                                         X               O     X # X 2 2 4 4 m V V U ,.x.x.~.e.,.0.,.0.x.d.U E M u x 7 M n 3 u 5 * o # ; 2 -   X o o o # # o 2 6 3 - # : 2 ; o # # 1 # O # # , @         X                           O   X X @ 7 T n X                   ",
"                                                                                            6  X@.M n F 3 . .       X                   O O @ 2 # . * t u 3 e = % = e i i C C i i h e t C +...e & = t O.r.| G s c r.#.....Y R i.S.f.d.y.k.k.d.o.N 5 : : # o   ; 2 @ X O O                                                                 O     X                 @ b 6 7 m H E.6X:.I I T w.U b m V V H N N K K K T J H A H K N N m H w.j.8.8.w.w.:.T b h m N 7 h M G y 6 & + & 5 F Y 5 x $ * 6 c e y < e i +.G c G v < * * B #.= $ r *.u.J.*X$X7.t.L.1X4XuXwXeXeXfXfXaX3X9XeX9X-X].H.i.p.o.L r.f.a.S.S.!.H.!.-X9X,X9X-XF.F.l.p.r.@.U R q.,.q.R R V V ; #                             O                           X       X   X   O       @ 1 1 X f f N T 9.x.z.l.l.U.l.q.R E U @.R F M c c u x D F m 2 2 2 * o o 4 5 - o X   X # # o # X # # - # ; X # # X X X 2 1 # O         O                   X                 .   2 9.V X                     ",
"                                                          X                                   7 w.V * @         X                         X   # * , < * = 2 . . 6 = 3 e 3 u e e t e 3 : : u B D = * & u ..#...C s C C r.i...Y Y <.p.y.k.p.d.k.l.x.d.9.o.L g f - 4 - X @ 1 2 X                 O                                                                   X 6 6 1 :.XXE.j.w.8.b b b m b b g n n g f g H T K K :.K A H A g N n V H I :.w.U H m b g n m n 7 6 M Y e < < * @ 7 V u t + $ e x < 3 < c e i e < e c 6 u o i C * & y { c.J.=XuXJ.=.c.C.).<X*X*X-X,XwX7X}.(.[.,X,X'.'.Z.H.f.r.p.<.i.a.S.a.<.i.i.k.]._.!.(.p.Z.G.k.<.0.j.d.U.U.d.e.U R V 6 O                   O                                   X       X X X       O @ - @ 1 m :.:.d.z.g.z.x.j.e.,.@.R R T h j M M u i B F F M x 7 < = = * * : 4 - o @ o # o # o # o # # X # - X @ * # ; 2 * # X                                     O                 ; 7 X                       ",
"                                                                                              X V I 2                                 X           X @ # 2 @ 2 # 2 : * h e : t h t * * * o * t N : o $ $ 3 c ..D M e e C ..k.i.<.#.Y +.r.k.q.0.k.~.G.f.p.k.f.p.@.:.N f 4 # - # X   X                                                       X   O X   X           X 6 7 u 8.Q./.8.m H I 6 2 6 f 6 7 7 7 f m g g j N K U R Y K V j f f f 7 n m m V b f f f 5 f g 7 6 6 P F.x = > + + . # 7 B & + 6 < 3 i : 7 2 6 < * U u h A o F N * : Z { J.OX1XuX+XX.} 2.V.).&X&X'.[.,X}.}.[._.;X[.D.H._.H.H.Z.r.#.L ..o.O.r.5...Y o...+.i.5.#.p.a.y.y.k.0.G.].G.Q.0.U F U 6 # O     O   X X         O           O           X       X O   X       X O @   f :.g.j.e.j.,.9.R 5.j.g.E q.@.F V 7 u i M M A G V K y 5 : : ; * * : 2 * # o X # # # X o o # # # @ @ O       X   X O                   O               X                                                     ",
"            X                                                                                   O # @ X .                     O           X               O O 4 2 4 t 5 5 : 3 t : o * X . * * : 2 . o & $ $ 3 F S i u i C #.#.i.S.i.0.5.@.0.<.0.i.r.k.G.S.k.x.p.q.g.q.U g 2 @ X                                                       O X   X   O   X X   X X     # U XX|.8.:.m 1 b b 6 6 6 6 b f n n f f f 7 f f N K K K K N g g 5 f 7 7 n m m f f f 7 f f 7 7 6 6 6..XP e e * # X   ; x 5 5 x + 6 u O * 7 P < y F X 7 7 : N M e h ..X.OX$X=XuX@X] $.&.=.2.2.D.D.B.B.T.'.I.D.D.H.(.3X-XZ.B.r.Y F C h C G [ ....L i.F.Z.F.k.y.0.h.a.@.0.p.w.l.G.k.e.5.E 9.w.U n m 7 #   X X     O                                                   O 1 T z.E.l.:.H :.e.@.U R P K R @.B M i h u N G P Y A t 3 : 3 : 3 ; 2 2 2 # o o o - - o # 1 ; - # # O                               O X                                                 X                         ",
"                                                                                                                          O                       O     X     X   X o X o . . o # * ; @ X o o ; : 2 # O & . $ y Y @.G i C D G C G a.a.k.a.@.Y L #.r.<.H.].U.j.k.l.d.j.q.9.,.B V 6 X   X                                             O O X O @ @ @ O X @ @ - - X n j.^.oXj.T 8.I 6 b b 6 2 2 1 7 7 f b 7 5 4 4 f f m H R K H N N u 5 4 6 7 m m 7 7 4 4 f n f 7 2 , + p./.U C P , #     @ # * V V 6 x z , + 6 U 3 h m * 2 2 = t A S Z O.2.OX%X@X@XK.&.&.2.X.&.1.B.A.V.s.T.B.y.1.a.B.;XeX;XB.B.<.L [ S M Y L S C G | W.'..XF.p.0.0.5.L Y G @.k.y.T w.y.w.o.o.9.w.9.x.j.j.w.:.m 4 o   X       X                             X       O O 1 j.qX^.9.@.U N Y ,.Y Y U D B P i 7 5 n M P Y R F x 6 * : * ; 4 4 ; 3 3 2 # o * # - X - * 2 - o                                                                                                                   ",
"                                                                                                          O                               O           O                   X       X X 2 ; ; o X # ; 2 = * + . . < C Y ...._ +.G i C C r.f.F.a.+.o.i.i.#.f.Z.S.!._.U.U.~.l.y.9.o.E U .                                                 O @ O O @ @ @ 1 4 2 4 m Q.tXXXl.E b b b 6 6 1 @ 4 6 2 - 1 4 4 6 4 4 5 7 4 f j j H K F j V n 4 7 6 b n f 6 6 4 f f g 7 7 2 * * o.k.G n P 6 7 @ . # O   < 6 * 7 2     < 7 # ; 7 2 X *   3 r.y.[ =.OX+XR.P.OXM.( ^ { } X.{ &.b.A.A.A.D.u.t.B.D.%X:XT.D.y.O.#.p.+._ G L G G 1.i.i.Z.[.[.'.XXW.0.o.Y L D F Y P R F.F.h.j.9.9.w.w.d.x.E.Q.l.q.j.,.H -         X                 X     O     O O   b XXXXQ.w.U R K j 5 g c B M x u 5 t 3 i F P Y F i 3 3 6 = 2 = : ; - ; - * * # X ; ; # o - # @             O                                       O                                                   X             ",
"                                                                                                                            O                 X               X         O     O       O # 2 > # O @ 1 6 2 # . . $ & : G r.+.Y ..C C y i G u.H.W.r.| o.r.i.k.S.!._.~.G.'.Q.e.,.E R 0.K # .                                             X O @ @ @ X - f T j.8X6XqXoXz.I I b 1 6 1 > 1 > # > - - 2 6 2 7 2 4 7 7 6 - f f g g m H N g 4 4 4 f f 7 4 4 5 4 f 7 7 7 # < + P z.P c x < x * # , @   # @ X 6 , O X * 7   # n i . # * c Z.b.i.m.$X1XOXOX@X3.! q l ( 2.2.>.u.b.u.b.V.R.B.2.I.%X2XI.D.#.O.O.i.i.H.}.i.Y +.i.S...+.i.F.H.(.!.a.0.i...P h i i B o.p.F.l.@.5.l.~.U.h.p.x.x.q.d.x.{.z.N o o X X X       O   O           X O @ @ V oX0Xx.4.n B n 6 6 3 6 5 : 6 3 6 y 7 M F K P u 3 : : 3 3 3 3 2 : ; ; ; ; # - # - - - ; , @ O                 X                                                                                                       ",
"                                                                                                                        O       O                                                         X O 2 - O @ # - 2 2 # * . . . i U #.i.r.P o.G h C G i.H.H.+.L +.h.Z.i.k.Z.k.F.a.S.!.S.p.r.i.E :                                         X X   X @ 6 T ,.E.6X/.oXXXQ.g.9.T m T b 6 6 6 6 2 > 2 2 # # - 2 6 2 2 1 1 2 4 4 4 f f g g f j f f f f 4 : 6 7 5 5 7 5 2 7 7 2 # < u 0.P e x x c 6 . O * . 2 O   6 ,   # O ,   X 5 5 . . = i.D.A.=X$X7X$XJ.K.OX3.! p p l ! ` >.[ O.[ { >.3.2.B.3X2X%XV.a.1.i.<.D.;X;X'.(...G ..Z.H.'.-XF.5.6.F.k.#.o.0.Y i c C D Y F j..X!.z.z.Q.G.G.Q./.>X{.l.0.d.d.d.d.V #   X O O       X O X           6 ^.rXx.e.E V I V 6 2 1 6 3 : 5 5 3 < 6 y A B N t e : 3 h u g u 3 * o o ; o o - : # o ; 2 - @ X                                                                                                                           ",
"                                                                                                                                                                                        O     O - - X X # 1 2 2 ; X X . o = N r.a.i...Y G C C k L Z.k.+.*.r.h.p.f.G.H.k.h.W.].S.0.@.0.0.p.7                             X X   X   X @ # # T 6X0XrXyX Xg.T E.E.8.g.8.T b z 6 1 z 6 2 2 z f 2 1 4 2 1 # # # # @ 1 2 4 4 f f f 5 f f f 7 6 5 4 7 1 7 f 7 6 6 5 2 ; # & # x P x c B D 6 & 6 2 O > + , x # + # # #   @ x 3   & 8 A.A.P.=X1X=XOX$.;.;.>.0 0 q q q p l S ( ( [ >.>.>.2.`.R.I.>.1.#.r.#.f.'.wXwX[.'.A.t.i.r.'.wX.Xa.5.G.W.W.p.p.y.L A n y B D ..F.G.0.0.o.0.0.y.y.p.y.0.0.@.w.0.l.s.:.T n # X X X             X # F oXtX^.:.E F B n M 6 * < * * o : : 3 3 B C t t : = 3 h C h u h : ; & * ; ; * - ; 2 * ; 2 4 X                                                                                                                               ",
"                                                                                                                O                                                         X           X           @ @ - @ O X # 6 ; : & * ; % 3 G 5.5.6.r.i.+.G c D +.Z.5.G ..#.R 0.0.0.5.r.a.5.@.S.S.h.x.d.M X   O                               @ 4 g. XE.e.e.^.x.E T E./.T m E I b m b b V b m n z z 6 2 - 4 1 @ @ # - # - - 1 7 f 7 4 ; # 4 5 g h 2 4 2 - 2 2 4 6 2 4 2 * O #   . + c D B x B y < 6 < > < , 2 M ,   # # ,   * 7 , $ 3 i.m.6.OXuX1XN.-.%.' ;.3.Q 0 p q q q q q r k k J ( ! >.B.I.B.>.#.G +...#.6.Z.'.L.'.(.Z.Z.6.5.H.'..X'.S.f.h.p.0.@.R @...D F 5.p.k.k.p.0.Y @.#.0.@.9.i.<.p.k.p.h.d.d.g.d.!.j.R u 3 o X   X ; 2 H /./.Q.j.:.K V 2 3 6 , 2 ; , * * : ; : 5 c C i t : = 3 M C y g y ; * o ; * * * ; ; - # 2 7 # O     X                       X                                                                                                   ",
"                                                                                                                                                                                    X         O   X @ 1 2 # @ @ - 2 2 : * * . $ = x G y.a.r.f.#.D i C 0.Z...F C M C B G D P Y o.<.a.S.y.k.0.,.,.n X X                         O > I ^.XXx.8.Q.Q.~.w.U x.E.e.U m b 6 b b b b b V z b 6 > # # # # > # # - 1 @ # 2 4 f n f 4 - # - 6 n u 6 2 * > 6 1 2 1 6 2 2 # # O   . . < C P D M e < < < > x z * t * . # * < # * 6 M e D [.t.c.1XdX1X-.' ' ' 3.3.3.! ! p q q q r ( k r r k J [ b.B.B.r.o.G C _ 5.+.u.6.+.#...+.G D C C @.<.#.p.y.G A A B n G G A G 0.0.f.i.y.W.Z.h.G.h.h.F.W.U.G.a.G.'.}.S.l.k.G.z.x.l.S.q.E 9.E ,.e.,.R M g n 2 2 2 ; * ; ; # * X o o . * 3 P K h 3 = : h N A J j i * * : * * * * - # # - 7 n 2 O O       O                                                                                                                         ",
"                                                                                                                            X                                   O                                     X @ 1 # @ @ # ; ; 3 5 : * = 3 e Y i.5.O.r.0.| C i ..S.#.C M i n A D A c ..L ..0.y.o.<.0.d.d.F X                 X @ 7 9.^. X^.E.E.Q./.j.V m w.Q.8.b m b H b b b b b b 1 z 2 2 6 > - - 1 # 1 O # @ # # 1 6 6 7 5 7 f - ; ; 2 z 7 7 , O # # # - 1 6 2 @   O . . + # * 6 c c D z x c < x 5.D c F y < & # < u e P C D ..M.6.J.1XpX$X' 2./ -.3.N.3.{ ! l l k ! O.l l h k ( >.2.B.1.1.o...A Y Z _ L G ..#.F C Z D s M C G C n A F C c i F M F A P k.y.!.XX7X|.W.(.(./.7XwXeX7X7X].>X7X/./.!./.!.U.!.G.d.k.k.y.d.q.R 9.R u X ; X o X @ ; * X X # X ; # & < u D M t : = 3 h N h B j : ; * # ; 3 * * ; : # ; j 7 2 X                 .           X                                                                                                 X     ",
"                                                                                                                                                X                                                 X     O # # - # # # ; - 5 u 3 : * % : C +.i.r.#.+.@.c M o.h.+...c c i i h c i C ..h.r.@.0.p.@.,.q.E g #     # X 4 U E. XqXrX0X X^./.9.P m z z m H I I b I I b f 6 6 b b b b 6 6 6 > 1 - # X 2 1 6 2 1 # # 2 4 7 7 7 5 4 - # ; 2 7 t 6 * @ * # X X # # # X       @ . * + + < c D c x 6 < x 6.P C i.B M u y 0.D D #.i S | A.n.K.uX5X3.' ' ' -.N.3.3.} ' ! ! ' >.1.} >.l k s J 2.b.>.O.G Z Y S M i i y D C D C | ..C u c c F C i M t F P D n u B F @.p.G.].7X.XU.H.0.p.].XXwXqX X X9X9XXX7X>X].S.S.!.Y.S.S.z.l.p.d.d.U.j.q.K : X o X   # # # X . . o X ; B o.t 3 * 3 2 n F j N 5 : - o & - 4 ; * - - & 4 f 7 # X X                                                                                                                                     ",
"                                                                                                                                                                      O   X                             O O X 2 4 # # @ # ; 3 5 i 5 : = e i C r.m.#.#.| i y ..k.i.r.R i t e e B i G @...P 0.<...A R R q.j.9.e.S.E./.8X^.Q.Q.z.T I U V n 2 6 m 6 4 b b 6 7 b b b 4 4 6 2 1 z 6 1 # > 1 2 2 - # 1 2 1 2 1 - 2 2 6 4 f f 4 5 4 4 ; , 2 2 6 2 # # O   X @ @ .       X   X   + $ . 3 P D D c < e E c e U i i D y o.B c y 3 | D.c.n.uX5X+X-.} %.! -.3.OX3.OXK.3.{ } { &.>.&.S p i { 2.1.>.[ S M M M C c D L | | ..r.#.#.o.....G i u u B A c F F A o.<.Y Y #.h.r.F.W.].].~.W.W.H.].~.!.W.Q.}..X>X.X X!.U.k.S.l.f.q.<.@.,.d.s.d.x.q.H 4 ; X . X # # # @ X * 6 u V h 3 , < 5 h h M j 5 : ; - & ; ; - ; ; * # ; f 4 X X X     O                                                                                                                                 ",
"                                                                                                                                                                                                    X     X   @ 1 6 2 1 # # * 6 n h 3 % % u s ..Z.z.6.G e e i #.r.#.0...G u t e u i h t n C A h j L d.Y./.x.Q.g.,.:.E V f n f f b V I V K T N V V H m f f 1 4 f m m n 6 6 6 # # # > # 2 2 1 > > # @ # @ # 2 2 2 2 7 2 2 2 7 6 ; ; # 1 6 6 2 # O   . X X . O   + O O O + * . + $ e D P B y i C x M #.n = c y Y r.i.D C _ u.b.J.uX3X3.-.' N.-./ -.K.N.OX%X3.3.3.2.{ l k s k [ t.B.t.[ h e : : e u i G _ ..D D G ..F Y G Y G C G B t 5 3 : 2 N ,.0.R ,.@.<.f.H.Z.r.y.H.!..X.X>X9X2X X{.{.]._.~.~.].].].!.].].k.h.0.Y #.R A R R h N h 4 2 ; # 2 @ # o 5 h 5 5 3 5 3 4 h n y 7 2 3 * # X ; 3 - ; 4 - - 6 6 * # # O                               X                                                                                                         ",
"                                                                                                                                                                                                      O       X   # 2 2 > # , = : h h e = = t D 5.6.i.a.+.t y C @.Y L #.5.L i u t y u i e M 3 t N U.{.q.R N m n f g V m m m V H E :.U :.:.:.:.U T :.T m f 4 2 @ 1 7 6 6 # # 1 , > > > O # > > 2 1 2 2 ; 2 2 2 2 - 2 2 2 7 2 4 ; # # O 2 6 6 2 O # o X X X O O # + + # # * + + $ + x c P D < x < u Y y * 3 < D z.m.P Z | ) J.=X1XN.3.N.-.N.3.' -.N.3.3.$XOX2.2.} l r q h k *.r.B.r.k : = : : : 3 u y c C M i c i C M C c t i n t t 3 t 5 5 h N q.s.g.U.y.o.@.Y G F R @.S._./.XXeXeX9XqXeXtX2X8XeXwX>X,X.X.X].!.y.0.@.Y Y U F t 5 V M g 2 # 1 6 6 3 t 3 ; : t h 3 y 5 u 7 3 3 3 o # ; : # : 2 o ; 2 6 # X 4 -             X                                                                                                                             ",
"                                                                                                                                                      X                                                         O O O 6 2 # @ * ; 3 5 t 3 * % 3 v C ..i.F.+.i e P r.#.+.#.#.F C n t 3 7 u 3 h @.l.k.@.j f m N m m T T T ,.:.,.E :.:.I U T ,.E U H K K H H f f 1 - # 2 # # X # # > 2 2 > > > > 2 2 2 7 2 6 2 2 > - ; ; 6 7 7 : ; ; # # 2 z 2 > O O O .         .   # * $ . . . & $ < < c B 5 5 < < 5 < * < . e G L S v X.3.@X1XOX3.3.K.3.3.3.-.3.K.3.-.-.} ( p p k p e p k #.#.1.F : * * ; : : t i h n F G C G G N F A u u 3 % * # h u 2 : # 4 f 5 N n n t i n h M C P U ..G F o.,.0.<.d.k.k.G.{.>X.X-X[.H.!.G.f.#.L F 0.k.,.K Y j 5 * o # i F n : * t 5 5 u ; : 3 h h 5 t 6 * * ; ; ; 4 : X X 2 7 # X X # O                                                                                                                                           ",
"                                                                                                                                                                                                                  O O > 2 * 2 O X * * 5 u e 3 % e D C ..r.i.5.i C #.6.G P G G ....N t t h F k.~.k.N 7 : 4 j N m K R E T R :.R R U V K H N N H K T U H m m H m f f 7 n 4 1 # > @ O 1 2 1 # # > 2 2 2 2 7 7 z 6 2 2 : 4 6 6 2 6 ; - @ # 2 , 6 2 , + +             . + + + $ . . $ = , % y P D y < e < $ * 3 . = i i r *.P.1XpXK.Q 3.%.3.-.-.' ' 3.-.' Q ' } ! ( d k 8 q r +.m.1...e * * o . * * ; 2 u i e i B u A M M t : 3 2 u u n B n 2 - 4 3 * ; ; y i t A ..@.o.#.i.r.h.y.p.y.f.<.y.d.S.l.f.i.G.H.G.!._.Y.k.f.p.o.Y 5.y.f.d.y.Y 5 & g F M 5 * 3 5 u 2 ; * o - 5 5 3 t 3 3 = # X - ; - o o # 2 : X X                                                                                                                                                 ",
"                                                                                                                                                                                                                  @ #   O 1 2 , # # : # 3 t t = = e t i G ..i.t._ Y #.#.#.G D G @...G ..y.#.r.,.K g 5 - o 4 4 g N m V K K K N K U K V K K N N N H N N j f f f f 2 - 2 ; 2 6 2 # O > > O > # , 2 # > > 2 7 6 7 6 # 4 7 7 5 6 4 * # @ @ # # 6 6 6 , # O X .       + . + < < + % $ + + < % c Y v < e & $ 8 t < = Z r ` N.1XdX1X~ p / 2.%.3.3.' W / Q Q Q ' 3.3.V.{ ! s s Z m.B.#.y $   . .   X . . + < 5 3 = 3 5 3 : 4 : g i n N n u 7 > O o o - X * 7 B T @.p.a.#.....o.r.p.k.f.S.!.}.!.G.]..X[.>X].!.W.k.a.p.<.o.@.G C y M K K A u 5 n N u 2 * 5 i N 7 = . . * : t 5 3 5 5 * * * ; 2 ; X # 4 4 2 #                                                                                                                                                     ",
"                                                                                                                                                      X                                                             > #   @ @ 1 2 O # # # 3 3 3 = * = c S C | ..( c c ..+.#.#.G G L L Y R n M B K g 4 o * ; 3 j H H Y R Y F K R :.,.R ,.R U Y U H g f g f f 4 4 ; # X     @ O O @ @ > > > # @ # 2 > 2 6 2 2 , 2 4 7 6 6 7 2 * # # # X O # , 3 5 < +   . O #     . . + & $ . + . + % 6 % < c Y P y < < < w < c Z &.6.N.7XuX .9 9 ` M.} 3.3./ W %.-./ 3.%X3XK.V.K.( l ( u.b.a...= & o * : 4 : o . . + . . X # * 3 4 g M 7 7 7 # 2 # # # # o X ; 6 6 V E A B F K @.R G Y G Y i.r.@.<.p.0.0.y.r.a.G.S.y.r.a.p.r.0.r.@.F M t 5 5 4 : 5 M h . o # 7 3 7 3 2 # ; * 3 h 5 4 : 3 * * * 2 ; ; * ; ; 5 *     O                                                                                                                                               X   ",
"                                                                                                                                                                                                                O       O O   # , > # # # * * * : % = t c C D S C c v c C ..#.G ..r.o.i i n L n g 4 # # ; 4 f j N j j N j h h N j A N N j N j M g 3 : ; ; # - @ 2 2 2 @ X X .   @ @ # # 1 1 # - 2 2 # 2 2 2 2 2 2 2 4 6 ; # @ # X X O > , > < 6 3 # + + O + . * . * < + * . . + + e < % $ e #.r.C 8 e % = 8 s ) K.C.1XuXJ.9 9 9 ! 3.] ! 3.( W ] -.N.3.3X5XOX3.} p r X.V.t.*.A i i t h B K K A M t * # * * * * 7 N H n 2 - # # # @ 1 2 X @ # 2 2 2 6 7 u 3 5 t N C R G G Y #.r.#.Y Y o.q.t.5.#.@.o.<.r.p.i.0.<.o.G i t t ; ; ; 2 5 3 2 # * 7 5 : * * 3 7 h 5 4 5 5 : : * ; * # 2 ; @ # # o X .                                                                   X                                                                                     ",
"                                                                                                                                                                                                          O               O   O # , 6 # # o o o ; * & * 3 s i D ..G D i C i ..G C +.@.C C A L t ; o # - o 4 ; 4 3 4 t 5 g h u u u e 5 : 4 t t u 5 5 5 3 4 # X - # * 2 * #   X # @ @ O # @ # # - 2 2 2 7 2 # 2 2 - ; ; ; ; # @ @ # . + + > > + < 6 2 ,   .   . . . + + +   + . + = < < + $ < L #.P e e < 8 y $.M.$X7XuX1Xv 9 q r k ` ! 0 } K.W W ! 3.N.N.K.OX3.>.d Z V.L.L.S t 8 * : . ; ; # : t 3 # # : 2 6 4 4 4 g 2 ; 2 2 2 # # # @ > # # , # # # 2 6 7 i h g g M C M M h B C A M A Y ..Y Y ..F M C A C B h h h M i 6 : : : o * # . . o 3 3 * 2 7 m y 4 : ; ; ; : ; * * * = 2 # - 2 @         X                                                                                                                                                     ",
"                                                                                                                                                                                                                            O O   > 2 > @ # # @ @ * * $ = 3 y C _ ..+...C G G Y u i D G G h i 3 & o o X o : ; 4 4 f u h N M B A A V n h h N N M j h j h g 4 4 4 2 : * 6 2 X @   @ @ # # # # > , # 2 2 2 2 2 2 6 ; ; ; # # # * # @ @ @ # # @ # * 2 6 2 @ X . X X . O . . X o . * 3 : : & $ : t #...Z v i y ^ K.m.OX1X=Xc.% % 9 9 k ^ d q ! R.N.a d ~  .~ ~ 6. .v d b.P.#X6.y = = * < 6 u % . . . * . X * ; 1 # - ; 4 : 4 6 @ * # - - # # # # # # # ; , 2 2 3 7 6 7 u M M t e 3 t t 5 5 3 t e e i u : : e e 5 : e e u e * & : 3 o # . o ; ; * X : 3 i g 2 * # * * * ; * # o * 2 # * # @                                                                                                                                                                 ",
"                                                                                                      X                                                                                                                             @ # 2 # . @ * O X & * : 3 u h A ....G <.i.#.<.e = M F B h o o * o # o o # # : : 4 6 y u t h j h h j M h h h u g g g 5 4 4 4 6 # @ # # X   X O # @ O O O O # # # > # # - 2 ; ; X # # # * 2 > # 2 2 > * # O O + 2 2 , X . X . .   X . X . & 3 : 3 t = $ : 8 k _ D D y s v 6.=.;.N.3.^ 9 9 9 % _ l 9 0 q } R.a p / 7.) ~ ) v ` 6.M.C.L.| D G _ | p.Z.5.0.0...B M M 5 : ; - 6 6 f - - - # # # # @ @ @ @ @ . X . @ # # # X # # = : : : # 2 3 3 3 3 * * 3 3 3 5 3 3 : 5 : : t t 3 e : 3 5 4 4 : & * ; : # . * # 5 6 2 * * * * * o X * * * ; # X # > X                                                                                                                                                                   ",
"                                                            X                                                                                                                                                                     O   O 2 # # # > # X # * & 3 t u C G M C R f.<.#...3 3 h K A 6 # * ; * X o X - - - ; ; 2 3 4 5 5 5 t g 7 5 5 3 3 4 5 4 : 2 4 ; , 2 2 * #   X   @ @ # O @ @ # @ # # # # * ; 2 ; # X # ; ; @ X # > 2 2 @ O   X . X # < 2 # @ . . . X . X   X * 3 : : 3 = * & e A c r y v c s ^ ^ / d $.d 8 8 8 p *.Z y 9 9 9 J.K.W ' 7.N. .~ v | m.Z.M.+.s X.r.+.a.H.H.H.].G.5.F N C t : : m U H 7 2 7 2 2 # > > @ O @ # O @ O .   # O # # @ @ * - - = * * = 2 * o . . * * < = # . o * * * ; : : : 3 4 N N g 5 ; # : ; o X ; ; : ; ; ; ; * # o * o o # * # # @ 2 2 @                                                                                                                                                                   ",
"                                                                                                                                                                                                                                      X   > # > # @ > @ @ ; * t e 3 i M M i F @.C R C D 3 y M u 3 # @ # o o o # # # # - ; : : 3 3 3 5 5 t 4 6 2 : 3 5 : - ; : X @ O @ X X X X X X X @ O @ # @ # O # # O . # # # ; ; # # # # # # @ # # # #   X # o # # 2 2 = + + . X o # o # 2 * . : : $ $ e = y C e w c r r 9 % 9 p *.r % r e k $.( i q q 9 } 5XN.` %.n.%. .&.P.#X$X*.^ X.k Z H.W.a.a.z.h...C Y L h K 9.E K V n 2 7 7 2 # O O > - # @ @ O O . . . . O # @ . . # X X X X X @ . * = # * @ . # o # ; o * ; : * * t j K R s.>.g : ; 6 6 ; o o ; # ; o o # o # * * . o # # X * # @ @ #   X                                                                                                                                                                 ",
"                                                                                                                                                                                                                                      O O   > > 2 @ @ # # @ # * * * 3 i A N S U B i e F c * 2 i M 2 @ @ # . @ # @ @ # . # - o : : : 2 ; 2 # ; ; ; 2 ; ; - - @ X O X     X     X   O O O @ O O O X @ # # O @ o . X o o o X X . O X @ O   . @   @ . X o : 5 6 =   . o * . * 5 3 # . : ; & & 3 = = y = % < % % % $ $ 8 _ r $ 9 q Z Z Z 8 9 y 9 a P.1X7.Q  .' ' N.).7XJ.| ^ _ *.r.*.+._ +.m.Z.#.0.r...<.d.k.H f f 5 7 7 6 . X     O O @ @ , # .   O . X X   O # O @ X   X X X @ + O . @   X . X X # # @ @ # * ; ; 5 H N A K j - # ; 5 4 ; o @ - - * ; ; # # # * # o X o # ; 2 6 #                                                                                                                                                                         ",
"                                                                                                                                                                                                                                          O   # # 1 > @ # X X # ; # * 3 h h j g M 5 * : B i < 6 B 7 2 - @ X # X @ X X . X - * o X ; - # # # ; # - # # @ - X @ o @ @ # . X X @ X # @ O   X O . @ # @ . O @ . X X . o o X X X # @ . X X X X X X X o # o * 3 3 5 * & & + O = 6 = . * * 3 o o * % & 6 < $ 8 % $ $ . . i ..% % % y Z r | y % e q p ^ OXOX7.7.J.OXOX@X$XL.7.Z.L.B.m.Z.Z.(.;XF.G A ..@.f.Y.0.G 5 g g g 7 #                   X @ # @ @ O X X . . @ @   X . # # @   # O # O # O . * * o # * * * ; 2 : 4 ; ; ; 4 ; - ; : 4 ; & # # - o ; * # ; # # @ o # # # 2 4 6 > X                                                                                                                                                                         ",
"                                                                                                                                                                                                              X         O                 O O O # 2 2 O . X @ @ # ; # ; ; ; * ; 7 3 ; * 3 R g : 4 7 6 * * @ X . O . X X o @ o o o o X # X * o o @ . . . X X X X @ # > # O # # # # O @ # # O O @ # # + + . . . X o o o o X @ # @ @ @ @ @ # X X # # X . X * : 7 6 < % * * : = # . o * t & $ * = * 3 t = * $ . . . . e ..= $ e Z | p X.( r l 8 9 d %.OX$XOXP.$X=XJ.N.J.).P.#X;X&XW.L.;XT.i.<.u.p.i.0...C n N V u f #             .   O       . @ # # @ X @     O X X @ # # # @ # * @ . X # # 6 2 : 2 @ # # 2 # o # 4 o - o - # - ; 4 # - - # - ; # # - # # * o # ; X ; 6 1 >                                                                                                                                                 O                           ",
"                                                                                                                                                                                                                                                  > 2 2 2 X @ # X o # # - ; ; : 5 4 6 o o 7 N 2 3 ; # # # # # # # # # @ # # o o @ o o - # o o o X @ X X .   X X   X X X X . O X . # # O O X   X   X O O @ X X . o o # o * 2 2 2 2 1 2 > 2 * # # * # * # # = 3 h 5 3 * : 3 o o . X * 5 $ X X 3 # * t y 8 . . .   . 3 i $ $ i 6.X.w | 2.s Z d a ^ W N.1XOXN.P.J.6. .v.C.7.m.L.A.u.t.a.r.p.Z.p.0...B F G A j j 7 o       X     O                 X O @ O @ O . O @ X O X . # X # @ # # 1 - 1 # @ - 1 # > 2 # # # # - ; # # - - - - - # - o # - 2 ; @ # # # # # # @ @ # # 6 >   X                                                                       X                                                                                                 ",
"                                                                                                                                                                                                                                                X X # 2 1 1 # O X o # @ o # # ; - ; 4 ; - 4 4 4 - - # X @ @ # # > # # 1 1 - # - # 2 6 ; 2 2 # # o # o o X X . X X X       X # X @ @ X                 X # @ @ # # - # @ - ; - ; 2 ; ; 4 4 4 ; : 4 - - : ; # ; e i 7 5 t < + * . . # 3 o . = u . . e y h . . .   . & = . % D 6._ 9 v P.5.a ) ~ 6. .-.J.OXOXC.3.$.=.R.J.M.B.D.t.m.B.u.t.1.#...h F F @.@.N n n ;                                           @   X # # # # # # > @ # # # # # # # # @ # # 2 - - - - ; # X # * # @ # o - # - @ - - # # 2 1 1 1 - @ O     - 2 2 @ O             X                                                                                                                             X       X                       ",
"                                                                                                                                                                                                                                                  # > O # 2 > # # - # @ o o o - - - - - 4 4 - - - o o o # O > # # > # > # - # @ # # * ; # ; ; X X # o X X X     X X # # - # @ X                         X . # . # * # 2 - - - - 4 4 5 ; 4 4 4 4 4 7 7 6 4 : : : 3 3 t t 6 * < * * . 3 . . : h & . $ % h % . .     . . . % ) 6.$.9 v C. . .7.7.7.%.%.n.J.n.) ^ X.*.n.b.c.b.2.m.r.o.<.o.....L o.<.y.,.K N g - X                                                         X O     X O   O   O   O @   X X @ @ X X @ @ @ # @ # # X - - o # - @ - - > 1 1 > > @         O                                                                                                                                                                                   ",
"                                                                                                                                                                                                                                                  1 1 X @   X # - - 1 X X - o - - # @ @ - - o o - o X - # # > # @ @ # > > 2 1 # # X @ X X ; # # o @ X o # # @ # ; - X X @                                 . > @ @ @ X 2 2 2 - 4 2 2 4 4 : 4 : 4 6 f j t g 5 : : 7 5 5 5 5 6 < < + < y < . : L $ $ % = A c = & . . . . . 8 G ) | a a OX7. .7.OXN.%.J.;.) ^ d ^ v Z Z ` A.T.B.t.+.[ >.s.s.<.f.f.f.i.E K M ; X                                                               O       O               X     X O     X # @ # 1 - # 1 - @ o # - 1 4 2 1 # # O                                                                                                                                                                                               ",
"                                                                                                                                                                                                                                                    O   O     X X - - 1 - o o o - @ - X o o - o @ X # @ # 1 # 2 * 1 # # O # O # @ X # X @ # X # @ # o - @ @ .                                                 # # . X @ # 2 4 f 5 5 4 4 4 4 f 4 4 4 4 4 5 : ; ; : 3 * t u u u 6 x t x t & : S = % t e s +.i . $   . . $ w  .) %.~ v 7.OX6.6.7.7.7.&.^ p ^ d { &.` l l O.2.X.....[ s.s.1.f.D.k.f.,.R G ; X X   O   O                                                                                                 O X @ @ @ @ @ # - @ # 1 > - @ @ X                                                                                                                                     X                                                           ",
"                                                                                                                                                                                                                                                                  X @ - 4 - - @ # - X X X @ 2 , # # > @ @ # - # @ O O           O                                     O                                         # # X 2 # @ ; : f f 4 f f 4 4 4 4 4 f 5 4 : * ; : * 2 = 3 t 5 u A M G C 8 e G r 8 y = w i.+.8 . . $ $ % r =. .n.7.a ' 7. .v.7.` a v p r d ^ ^ _ X.( ( O.O.O.1.a.I.S.I.I.I.s.<.>.1.R 7 X   X   O O                                           O             O           X                     X                       X O X O       O                                                                                                                                                         X                                         ",
"                                                                                                                                                                                                                                                                      X X - - @ - @ @ @ # > # 2 # - # @   X                         O   O O                                                                       X @ X # * # - o - 4 4 4 f f 4 5 4 5 4 4 : 5 : 3 * = = * < 3 t i D c _ C D X.D ( ` v r | X.i . $ . $ % $.M. .7.7.a Q 7.7.$.| a w d ^ ^ X.=.*.6.L.L.m.t.a.T.[.T.I.`._.I.f.>.>.<.R j 3 o O   X                                                                                 X                           O                             O                                                                                                                                                                                             ",
"                                                                                                                                                                                                                                  X           X                               @ X O O X O @ O   O X                                               O                                                               2 2 2 # 2 # : - o # ; 4 4 g 5 f f g 5 f 4 5 3 = : * = < = * = e y Z .._ _ _ v X.D.&.Z _ C G e = $ % w $.7. .%.%.~ ~ 7.$.v p a d 6.7. .$.` X.C.+X#X).T.R.T.I.Z._._.l.1.>.>.>.J N g - X X X O                       X                                                                                                                                         O                                                                                                                                                                       ",
"                                                                                                                                                                                                                                                                    O X                                       X   O         O                     X                                                                 P B # # # 2 - ; # ; ; - * 4 4 g 5 5 f h 5 j 5 : 3 3 t 3 3 3 e y y Z k | 6.) { n.c.7.J.) _ Z s = < v ) ] ~ / ' ~ a W v a d )  .c.6.=.$.` | t.A.A.b.Z.T.a.B.D.I.2.>.1.>.L J g j f o   X                                                             X                                 O                                                                                                                                                                                                                                             ",
"                                                                                                                                                                                                                                                                                                                                                                                                                    V 9.7 > @ @ o 2 ; : - ; 4 ; 4 4 4 : 4 5 5 t u t 5 t 3 e e e r y e 8 w D &.6.7.$.)  .N.6.) ) Z = % w a W %.] Q / a a a %. .|  .&.*.n.J.=.b.2.m.X.t.T.T.B.B.I.s.s.f.1.J A J g f 3 X                                                           O     X                   X                   O                                                                                                                                                                                                                                       ",
"                                                                                                                                                                                                                                                        X                       X                     X                                                                                       X                     6 4.n # # X o # - 4 4 4 4 4 4 4 t 3 : f 3 3 : t e u i u i i k e u p w v v ~ $.%. . .7.6. .~ v r w v ) 0 a a Q 0 W  ./  .) ~ ) ` %.$.;.&.&.{ 6.A.A.A.u.>.1.1.1.s.o.Y J k j j j 4 X     X                                                   O                                                             X                                                                                                                                 O                         X                                   X                         ",
"                                                                                                                                                                                                                                                                                                                                                            X                                                       - U n 1 > * # o - 4 f 5 4 4 3 g j 5 t 5 t 5 e e u c t i y i i r = e w w w 0 a s ~  .7.' a a w v v ) / a 0 a Q 0 0 Q %.;.%.7.P.N.A.&.$.l >.2.u.D.A.B.u.y.u.o.J S j [ >.j t t N ;                                           O                         X   .                         X                                 .                                                                                                                                                               X                                             ",
"                                                                                                                                                                                                                                                                  X       O                                                                                                                                           m U 6 O @ ; ; - - ; 4 4 g f 5 5 j g j j t 3 u t i y 3 e e y t y w w r 0 w a ~ ~ %.7.7.%./ v a p ~ ] ~ Q ' ' Q 0 Q $.J.-.n.OXK.n.&.=.c.D.2.1.t.t.O.O.y.o.C j j o.>.J t 5 g g o                                                 X             O                 O                               X                                                                                                           .         O                                                                                                           ",
"                                                                                                                                                                                            X                                                                                                         .                                                                                                         O     4 I b ; - 4 - - 4 - - ; g j f g 5 u j h h t i c i C i y c c i e w w r a w a ` ~ Q -.7.7.OXv a p v  .%.7. .v.OXQ Q W / ;.3.7.%.~ $.3.V.3.3.b.2.2.2.Y J j C A <.>.>.U g g g g                                                                                         O                   X                                                                                                                                                                                                                                       ",
"                                                                      X                                                                                                                                                                               X O       O                                                                                                                                                     @ m 7 4 - f 4 # - ; - - ; 5 f 5 g 5 g y i i u i c C y v c v i i i G Z ^ ) / ` ' %.OXOX7.OX) 0 a p v  .-.' ' -.-.Q 0 0 ! n.7.7.A.7.2.1.>.2.1.1.s.( j A S o.y.>.A o.j g g V 4                                                       X                                         O                     O                                                                                                                                                                                                                             ",
"                                                                                                                                                                                                                      X       X                         O                                     .                   X                                                                                                     n m f - f 4 4 - - 4 ; - ; - f g N u j j e 3 3 F Y S D c D y y v ) ^ v ~ W ~ ~ %.OXOXP.n.) ~ ) a Q 7.7.7.-.-.-.OX3.Q ` v.C.M.M.b.2.2.2.>.>.>.l j h L [ s.f.o.,.V g 5 5 g X                             X   O                   X                             X                                 O                                                                                                   X                               O         O                 X                         X                                     ",
"                                                                                      X                                                                                                       X                                     O               O                               O                                                                                                                   O           X   1 U j 4 ; j f ; ; - 4 4 4 - - 3 4 5 : t u t u i G Y | F Z _ D s Z ^ v ) / %.7.' 7.7.7.7.&.~ ~ W W Q ' -.' N.' 3.v.-.} ! &.3.} &.>.2.>.k k J j j k o.>.<.,.>.K h 5 4 j 5     O                     X             X                           X           O         O       X                                                                                                                                     O             X       X             X             X                                                           ",
"                                                                                                                                                                                                                  X                                                                                                                                                                                                     @ H n 4 1 f f 4 4 2 - 4 - - # # - 4 5 5 5 2 2 e i M i D | 5.D v | v )  .%. .%.-.7.-./  .` a r a p l W Q Q W W Q / ' 3.&.2.3.{ ( ( [ J J J J j K q.1.o.q.o.j h 5 5 5 N :                                             O         O   O                                                                                                                                                                                                                                                                                           ",
"                                                                                                                                                                                                                                                                                                                                                                                                            X       O     f H 4 2 f n f 4 4 - 2 ; # - - - - & g g g y t t e 8 = w v v a a p a /  . .' /  .-.;.=._ s q s ( ( } 3./ W W W / / 2.} ! ( l O.2.[ { [ S S [ s.<.L o.>.C 4 g 3 * 6 g             X                                                                 X                                                                                                                                           X                                                                                                                             ",
"                                                                                                                                                                                                                                                            X                                                                                                                                     .                 X     - H 4 4 H I 4 @ 4 2 2 4 - # - & - # - : g u C G F A P D v v a p w 0 v ~ 7.7.7.7.7.7.| s q q y k l ! } ] ]  ./ ` &.( l p k ( B.s.[ J L >.y.1.1.>.y.<.A h h j : 3 h 7                     O                           X                                           X                                                                                                                                                     O                                                                                                     ",
"                                                                                                                                                                                                                                                                                                                                                                                          O                 O         O   X b n f H T f - 2 4 # - ; - 4 4 - 4 ; : : 3 u M M A +.5.6.5.P | ~ ~ ) Q ) 7.7.7.7.6. .d s p y p r 9 p d ` ` d a ! W p l ( >.2.1.&.>.1.y.p.Y Y L Y A A A g t 5 6 g X     X                             O                                                                                                                                                                                                                                           O                                                                         ",
"                                                                                                                                                                                                                  O                     X                                                                                                                                                                       X           - H f H e.H 4 4 4 - - - 4 4 4 4 ; 4 2 ; : ; 3 3 3 e c c w w r v ~ ` ~ d ~ ~ ) ' v 6.s y r = 8 q q q a s a w r r ^ *.>.{ 2.B.s.B.B.>.>.[ o.Y L j h h N g : 4 7 6                                         O                 X                 X                                                                                                                         X             X                           X                                                                                                         ",
"                                                                                                                                                                                                              X                                                                                                                                                                     X                   .     O         X     f m U 9.:.4 - f 5 4 - - 4 ; 4 4 4 5 4 3 4 3 6 = = < w < % = w w a ~ 6. .6.7.6.6.~ s w y w r k s q 9 p a v d ^ &.2.{ >.2.1.s.D.u.[ [ p.y.Y L h h j t 5 5 g j *                           X                                 O                                                                                                                                                                       O                 O     X                                                                                             ",
"                                                                                                                                                                                                      X                       O         X                                                                                                                                                                             X       - H I T m - @ f f 4 4 4 ; ; 4 4 f 5 4 ; : 2 3 < < < e % = = 9 w w w ) ` 6.7.7.7.) Z r 8 e s Z p r w s | ^ ^ X.&.*.2.I.I.b.1.>.J J o.1.>.L J j j g g 5 5 h n               X                   O         X       X                                                                                                                                                                                         O                                 X                                                                           ",
"                                                                                                                                                                                                                                                                                                                                                                                                          X                     f U R f 4 # o 4 ; ; 4 - ; ; ; 4 5 7 g 5 i 6 y y e < c w w r r w w ^ 6.a 6.6.6.5.X.D s i c D Z d v ~ | S ) ( ( _ O.3.D.O.J k O.o.>.o.L J o.N h h h u u j 3   .     O                       X                       X                                         X     X                                                                                                                                                                                                                                                   ",
"                                                                                                                                                                                                                  X                                                                                                                                                                                                             1 I V f f 1 ; f f ; ; 4 ; 4 4 4 5 f 5 j j h h 5 6 3 t i 8 8 = 8 % w | *.| ) *.v D s c y 8 i Z Z c v v Z | *.X._ ( [ S k k >.1.o.>.J J [ J j N N A N j N X                                                                                                                                                                                                                                                                                                                                                             ",
"                                                                                                                                                                                                                                                                                                                                                                                                                              X   4 T n m 4 o 4 f ; - - - 4 5 4 : 4 4 g u h A N D G D i i % 8 % % % % v +.v v D v e 8 < y i s s v v G v Z _ Z s y y k J [ >.[ o.J J >.k N J >.J N h N 5 X     X                                                                                                                                                                                                                                                                 X                                                                                     ",
"                                                                                                                                                                                                                                                                                                                                                                        X                                                         - :.E N - o # 5 6 4 : 5 4 4 6 f 4 g 4 4 g j h M G o.#...i y e = 8 $ 8 6.6.) | D 8 < = y i c r i v y w e y y c h l o.L o.L [ J L >.J j j >.1.>.J j H :   X                                                             O       O                                 O     X                                                   X                                                                                                                                                                                         ",
"                                                                                                                                                                                                                                                                                                                                                                                  .                         O                     X T :.T 4 - 4 2 f f 4 4 4 4 2 4 5 4 g g 7 u 3 3 u h F L S G +.D r e e Z 6.+.G D e * & $ = = t % = 8 e y v G D j R L S S K J j R >.j k J >.>.Y Y J N .         X       O                                               X                                                                                                                                                                                                                                                                                             ",
"                                                                                                                                                                                                  X                               O                                                                                                                                               O             X                 O         X   O   4 R H m 7 n 2 7 V 7 2 4 4 2 4 4 4 f f g g 5 : ; ; = : = t G ..D s e r Z ..Z y = : . . & $ $ $ e y i k S k k l k J L [ j k J >.J j j 1.1.>.1.[ K g X   O                   O O   X       X       X                 X       X               X                         O                                                         O               X     O                 X             X                               X                                                                                             ",
"                                                                                                                                                                                                                                                                                                                                                                                        X                 O   X O                 X   V T 9.7 N 4 # 7 f 5 : 4 2 # * - - ; 4 4 g g 5 t : 3 : % : t y i < % = _ G y = : * * * . 3 e i c y i h g h j j A S j j j J j t y J 1.1.<.<.Y o.4 X                       X                                                                               X                                                                         X                                                     O     X                                                                                                                 ",
"                                                                                                                                                                                                                          O                                                                                                                                                                                                           f K T g 6 7 - 7 V n 6 4 4 ; # # 4 3 ; 3 f g g t 5 : = * $ * e C c y = G r.h e : $ . o & = t u e e t y M y j N N t t : q j q t t >.1.>.<.>.o.R *                   O   O                                                                                     X                                                                                                                                                                                                                                                   ",
"                                                                                                                                                                                          X                                                                                                                                                                   X                                                               O X X   @ :.U 7 2 H 6 - f n 5 4 - - # # * - - # - : 4 3 5 7 2 e : : % e i i t i ..S : : & : : * # * : 3 3 5 u : e t u t : 4 t t : t t :.1.1.:.<.<.o.A X         O                                                                                                                                                                                               X                                                                                                                                                       ",
"                                                                                                                                                                                                                                                                                                                                                                  X                                                               X X X I 8.7 - m H 4 4 4 f g ; # # # o o o # # & - - ; 3 t : t t 5 : q i F C L G u * & i 3 & & < t t 2 * % * * * ; : = ; e : h h L 1.>.#.o.f.r.>.4                                                                                                                                                                                                                                                                                                                                                                   ",
"                                                                                                                                                                                                                                                                                                                                                                                                                                    O O 2 8.V ; - R g 4 4 # f ; 4 - - - * o # - ; - ; : ; : : 3 : : : - = B C C C u & 3 F i * 3 t t 3 = & * * * $ & * : e 5 G o.@.y.y.o.>.k.f.o.o.o X X                                                                                                                                                                                               X                                                                                                                                                               ",
"                                                                                                                                                                                                                                                                                                                                                                                                                                        O 8.I 4 4 N N 4 5 4 4 f : ; - - - # o # & # - : 3 ; : 3 : = * * * 3 e i u * 3 M A = % u A A y : 3 o * o o : j y h L ,.>.L <.o.Y <.T.y.1.C X   X                                                                                                                                                                                                                                                                                                                                                               ",
"                                                                                                                                                                                                                                                                                                                                                                                                            X                     O     O V 9.f 4 - j - ; g : ; 5 4 4 - - - - & # - * ; : ; & 5 g t : : = t = e = & : C A 3 e C A M A t y : : ; e j h C S Y o.L <.<.[ 1.T.d.>.<.5 . .   X               X         X                                                                                                                                                                                                                                                                                                                                   ",
"                                                                                                                                                                                                                                                                                                                                                                                                                                X     O X 2 T m g # g H 2 7 u ; ; 4 4 5 4 - ; & o - & & * ; : : t q : t = = = 3 5 ; t K i 3 h A L L o.G g g 3 M h h Y 0.#...h M Y A >.Y.f.>.<.:.*                   X                                                                         X                                                                                                                                                                                                                                                                       ",
"                                                                                                                                                                                                                                                                                                                                                                                                                                          X 7 U H f : j 7 - : 6 ; - ; 4 f 5 5 4 ; : 4 * ; ; : e 5 j N h M i u 3 : ; u h 6 h ..A S Y >.Y j S Y Y F @...o.C h h Y A <.f.y.R <.<.A X   .                                                                                                                                                                                                                                                                                                                                                                 ",
"                                                                                                                                                                                                                                                                                                                                                                          X                                                                 2 U H g ; 4 f 2 # 4 5 4 - - 4 5 5 g g 5 t : * : ; : : k Y S y F i 3 & o 5 ; : h G N N S o.J k [ >.o.Y L M h h J y.>.y.Y.>.J J q.>.4   . .                                           X                                                                                                                                                                                                                                                                                                                     ",
"                                                                                                                                                                                                                                                                                                                                                                                                  X                                     O O   V N j H 4 4 2 ; # 5 5 f 5 4 ; ; 5 f h h h h : 3 : e u C G U F C t ; * 3 ; o : 3 3 y j k j L A L Y J h h F ,.y.1.Y.(.>.C C ,.>.N ;                                                                                                                                                                                                                                                                                                                                                                       ",
"                                                                                                                                                                                                                                                                                                                                                                                                                                        X X O 2 V 7 :.m ; 4 f : ; 4 t 5 g : : - : t t j M h u g t t y u h J j : & * o # # - : ; & & : 3 j h S j K Y Y y.S.>.d.s.L F N J #.N N .                                                                                                                                                                                                                                                                                                                                                                       ",
"                                                                                                                                                                                                                                                                                                                                                                                            O                                                   7 f m N j # 4 4 4 4 ; 4 5 4 4 : ; ; : : 5 t t 3 4 : t 3 5 5 q ; - o o - - & & o o o X * = : * 5 j K J Y R o.L C A J Y <.K R 5                                                                                                                                                                                                                                                                                                                                                                         ",
"                                                                                                                                                                                                                                                                                                                                                                                    X     O                                                     1 U n n m 4 - ; ; t t ; 3 f g f : 5 : 5 5 * : * o * * : * * ; & - # # - # # & - . o # & * . o & : 3 : N <.,.J K Y 1.o.H N V X                                                                                                                                                                                                                                                                                                                                                                         ",
"                                                                                                                                                                                                                                                                                                                                                                                                                                                X I R 5 5 4 ; * - : 4 4 ; ; : : 5 5 3 * ; & # * o * * * * ; ; & # - # & - o - : - # - # X X X X # * o 3 j j j A K K t g V 2                                                                                                                                                           X                                                                                                                                                                                                               ",
"                                                                                                                                                                                                                                                                                                                                                                                                                                                  2 V 7 2 @ ; 6 ; 4 ; 5 3 5 5 2 : - * X o * * # * - * * & ; ; # # - # # - - - & - : ; ; - o X o o o X X - 4 g g 4 4 5 j 4                                                                                                                                                                                                                                                                                                                                                                             ",
"                                                                                                                                                                                                                                                                                                                                                                                                                                              O   X B B n 1 # 2 4 4 5 ; ; ; : * X o # o o ; * : ; ; : ; : 4 4 ; # # - 4 4 4 4 ; 4 5 5 ; : # # # # o o o o o X o - ; : ;                                                                                                                                                                                                                                                                                                                                                                               ",
"                                                                                                                                                                                                                                                                                                                                                                                                                                                  > U m 7 2 # X - - ; - X X X   X X . * ; o * ; : 3 3 4 4 5 5 - # o # ; 4 ; 4 t t t 5 3 ; - o ; ; X X X X X   # & 4 4 X                                                                                                                                                                                                                                                                                                                                                                               ",
"                                                                                                                                                                                                                                                                                                                                                                                                                                          O       z oX5.b # o   X           X X X X o ; ; ; ; : 3 5 5 5 t 5 : ; - # ; ; 4 4 4 5 t t t 5 3 4 4 4 4 ; o X     # o 4 H m                                                                                                                                                                                                                                                                                                                                                                                 ",
"                                                                                                                                                                                                                                                                                                                                                                                                                                          X     O g.tXE.E 6 #             O O O   X o # 4 ; : : 3 : g 5 g 3 4 : - - - ; 4 4 5 t t j j k j 5 5 4 ; ; - o   X X X f R H                                                                                                                                     X                                           X                                                                                                                                                                                               ",
"                                                                                                                                                                                                                                                                                                                                                                                                                                                O jX^.j.g.z # # X X   X O       @ X o X o # 4 5 4 4 ; t g : 4 ; # - - ; - - & g j k h k h t 4 - ; 4 4 - o X ; f H V U X                                                                                                                                                                                                                                                                                                                                                                               ",
"                                                                                                                                                                                                                                                                                                                                                                                                                                            X O e.kXj.g.z.7 O 1 2 X X     . O X @ * o X o o - : : : 3 t g 4 4 - # # ; ; - : ; 3 5 g t 5 4 : - 4 4 f 4 - o - - N >.:.g.;                                                                                                                                                                                                                                                                                                                                                                               ",
"                                                                                                                                                                                                                                                                                                                                                                                                                                              2 kXyXU E x.V - # 2 # ; # .     X # 2 ; : o o o # - - ; 4 4 4 & # o o o ; - - 4 ; ; : : 4 : 5 5 : 5 f - o o - ; R e.d.z.b                                                                                                                                                                                                                                                                                                                                                                               ",
"                                                                                                                                                                                                                                                                                                                                                                                                                                O     X X   X T BXoX:.:.Q.8.7 2 # # 2 2 X X   X @ @ ; * ; o o o # o & - ; & ; - o - # - & - & - 4 : 5 q g t t g J j 4 ; - 4 N T q.d.g.;                                                                                                                                                                                                                                                                                                                                                                               ",
"                                                                                                                                                                                                                                                                                                                                                                                                        O           O                   X     8XZXU.:.V 8.:.7 2 2 # # 1 X     X   # # # o # # o # - - 4 3 4 ; ; o # o - - 4 3 4 t g h t t y j h N j g ; 4 K K R R o.d.f   X                                                                                                                                                                                                                                                                                                                                                                           ",
"                                                                                                                                                                                                                                                                                                                                                                                                                                          X 7 cXcXd.T f n n 6 # 4 2 1 @ # X X . . @ # # # ; * - - ; ; 5 t 4 # ; - X o - ; 4 4 4 5 g k j j k j j j g g 5 j R R K o.q.~.q.  .                                                                                   O                                                                                                                                                                                                                                                                                       ",
"                                                                                                                                                                                                                                                                                                                                                                                                                                            U cXZX^.V N ; 6 2 4 2 2 2 # . X X   X X O # - # ; 4 ; 4 t t f f 5 ; - o - - 4 f t j N S j j j k S j j j R j j H j K d.q.U.~.n X                                                                                                                                   X                                                                                                                                                                                                                                       ",
"                                                                                                                                                                                                                                                                                                                                                                                                                                        X   V jXkX XK 7 ; - - 2 2 > # # @ X # @ X o o o # - - - - 4 g g g 5 4 4 - X o - - t j j j J S j j J j y h @.>.K K n M L I.,.,.l.Q.:                                                                                                                                                                                                                                                                                                                                                                           ",
"                                                                                                                                                                                                                                                                                                                                                                                                                                          O z Q.rXkX9.7 2 ; # # > 2 2 # # X O # o # - # o - o o - 4 : 4 4 5 g - - o o ; 4 - : g j j j C C h h u J <.L M M h j N q.q.L d.{.K                                                               X                                                               X                                                                                                                                                                                                                                           ",
"                                                                                                                                                                                                                                                                                                                                                                                                                                    X O   X 2 8.~.tXd.7 ; 4 2 # # 2 2 1 # X . X o ; ; - o o ; - - ; 5 : 4 - ; - o X X # o # # 4 t t A L j t t L q.Y V t K F h F q.R A q.G.0.o X                                                                                                                                                                                                                                                                                                                                                                       ",
"X                                                                                                                                                                                                                                                                                                                                                                                                                                       O O b j.q.g.w.m 4 4 2 - @ - - 2 2 # # # - - - - - o - # - ; - - & - - o o o X   o X o : 5 j j N j u t >.>.N u h Y K F >.<.,.>.,.d.d.;                                                                           X                         O                                     X                                                                                                                                                                             X                                               ",
"                                                                                                                                                                                                                                                                                                                                                                                                                                          . 6 j.E K 9.m f 2 1 2 - - - # # ; X o - 4 - ; 4 ; ; - # ; - # # # : 3 - 4 2 7 f ; ; : : K >.>.J H >.q.,.N N J V L o.o.s.s.>.<.d.s.4                                                                                                   O                                                                                                                                                                                                                                                                     ",
"                                                                                                                                                                                                                                                                                                                                                                                                                                        X O V x.e.H U m 7 - - 4 4 6 4 - o ; ; 2 4 4 4 - 4 4 : ; ; : 4 ; : g j j j # ; j K K g g N >.I.,.J ,.<.<.N A R U o.k.<.<.Y.f.>.l.q.S.5   X                                                   X                               X                                                                                                                                                                                                                                                                                 ",
"                                                                                                                                                                                                                                                                                                                                                                                                                      X                     E ^.q.g f 5 f 4 1 4 4 f f 4 - - ; ; 4 4 5 5 4 ; : 4 ; t 3 3 t N g 4 4 X   # f f 4 j >.l.,.>.N >.>.A j Y s.R <.y.o.<.I.s.>.<.,.s.5   X                                                                         X                                                                                                                                                                                                                         X                                                                 ",
"                                                                                                                                                                                                                                                                                                                                                                                                                                  O       O E Q.T H j f f 4 4 4 1 7 f n f 4 ; - - 4 5 5 f f 5 g j j j j C j C g 3 o o X : & & g Y 1.q.,.1.1.>.J A R ,.K A J ,.x.I.s.1.>.d.,.; X                                                         X                                             X   X   X                                                                                                                                                                                                                                                       ",
"                                                                                                                                                                                                                                                                                                                                                                                                                                        X @ H e.V T f n f 2 2 7 7 f 7 b I 7 4 1 - ; 4 4 5 f f V K R o.,.y.p.k.p.q.A 5 h j g M Y o.S.[.T.k.1.>.j j J N 5 t j a.[.T.S.1.<.q.K o o X                                               X             X                               X           X                     X                                                                                                                                             X                       X                                                               ",
"                                                                                                                                                                                                                                            X         X       X                                                                                                                                                         X     X X       @ 4 ^.^.T m V f 5 2 # 6 7 7 6 z m m 4 1 ; # - ; - 7 7 N K K @.y.p.f.S.{.{.~.Y h V o.<.,._.>X}.}.s.s.o.j J h 5 t t h <._.k.s.U.s.s.K o X                                                                 X                                                                                                                                                                                                                                                                                                     ",
"                                                                                                                                                                                                                      X                                                                                                                                                                                               O       X       O X I rX^.T U V n 4 - * 1 6 7 7 7 m n 4 - 6 2 1 1 - 2 7 m K Y o.5.y.0.y.Y._.~.,.V F 0.>.S.`.}.>XI.<.s.:.K N 5 3 j g e >.k.S.s.l.>.,.H o X                                 X         .                             X     O                     O                                                                                                                                                                                                                                                                 ",
"                                                                                                                                                                                                                                                                                                                                                                                                                                  X   O 2 Q./.:.m m V n - @ @ O O 2 6 m f V m # 2 7 # # - 1 2 f M R R #.p.a.r.p.f.~.l.R K 0.p.Y.~.~.D.s.s.1.K j A M t h j K R Y J >.K :.:.,.g   X                                                       O                                     X                                                                                                                                                                                                                                                                       ",
"                                                                                                                                                                                                                                                                                X                                                                                                                         O               X   X   X X @ V qX^.H n f m f 1 1 # X . O + 2 m E 4.m 5 N j - # 4 2 u g N K Y 0.f.k.S.j.k.y.L M R p.Y..X(.S.I.s.o.C h N A 4 j K h >.N j j g A j s.:.    X                         O                         O                                         O         O                                                                                                                                                                                                                                                           ",
"                                                                                                                                                                                                                      X                                                                                                                                                                                           X O     X     X   @ @ T  Xw.b V j 7 @ 2 # O O   X O # 2 U E w.g f b 4 ; 4 5 5 f 7 M N L p.p.G.G.d.,.N N J @.G.]._.k.S.>.L Y J ,.o.>.s.K Y o.j t j :.H H ,.:.-                                   O           O                   O                                                                                                                                                                                                                                                                                                   ",
"                                                                                                                                                                                                                                                                                                                                                                                                  X                                 X O H j.:.V m f - 1 # X   X X @ X X O 2 m E m 1 m n ; - 2 4 5 g g A L o.<.i.f.y.Y A F Y ,.a.D.p.<.y.>.R R d.R o.I.q.Y o.j g A >.<.:.q.q.,.-                                     X       O                 X                                     X                                                                                                                                                             X                                                                                                   ",
"                                                                                                                                                                                                                                                                                                                                                                                                          X     X             X X   O # I E 9.U U m V 2 #   . @ @ O * # @ # 2 n V m j ,.g o # 2 - g j n F K K @.@.@.,.K F o.5.y.p.>.y.>.o.>.I.f.>.f.I.,.L j : 4 :.,.N ,.:.:.q.j                                                                                                                           X                                                                   X                                   O                         X                                                                                                         ",
"                                                                                                                                                                                                                                                                                                                                                                                                                X         X       X X 4 U w.w.V n H T 7 @   X @ @ > ; 2 f 4 - o 4 H g T 9.2 # ; 4 : j M j J K R o.L L H j Y >.f.f.1.o.>.#.S.I.o.>.f.1.o.>.g = g s.~.:.N m V q.T                                         O               X           X O     O             O                                                                                                                                                                                                                                                                           ",
"                                                                                                                                                                                                O                                                                                                                                                                                                                                 X - 7 H 8.T m m 9.8.m 2 @ X - 2 2 # ; g N 4   X 6 V 2 U U 2 # - 6 5 j j A J J L J J A k H o.p.p.<.1.p.1.f.>.>.1.>.R y.A : : g 1.U.,.J T n R T o                             X             X               X                                                                                                                                                                                                                                                                                                         ",
"                                                                                                                                                                                                                                                                                                                                                                                                                X                 X 2 2 m E U T q.w.V 4 2 o   - 2 ; : # 4 K N # . X 7 E 7 U 9.- - : h j j H [ >.R L j j N K o.q.p.y.S.f.>.J O.[.s.>.>.Y 5 : t N <.k.1.R >.j N K o X                             O                                                                                                                                                                                                                                                                                                                                     ",
"                                                                                                                                                                                                                                                                                            X                                                                                               X   O             X   X   X X     X O 1 2 7 N I V w.9.f 4 4 4 2 7 4 5 4 * 5 g K A 6 # # 4 U ,.7 9.9.; ; 4 j A K K >.>.o.o.A C [ ,.<.q.<.s.>.h J >.D.1.o.o.j q g Y F >.U.{.<.R U H ,.V o #                                                                                                                                                                                                                                                                                                                                                                 ",
"  X                                                                                                                                                                                                                     X                 X                                                                                                                                                             X       X       X       X 1 4 b n I q.Q.K f 2 N R V N n N u : 2 5 K F : ; X * 6 U n 7 ,.H # 2 f N K L K >.>.[ L S L o.<.1.>.Y C A S B.I.2.1.R t : j L S f.k.!.!.Y K K ,.q.g 2 -                             X               X O           O                   X                                                                                                                   X                                         X               X             X                                                                                   ",
"                                                                                                                                                                                                    X                                                                                                                                                                           O                   .           X             X 4 6 f b V ~.{.:.N j U l.q.V M K R A y 3 3 h G A * * O . 6 R n f :.K 2 6 5 N K >.>.f.U.s.Y A Y <.K k N h S f.I.s.B.s.j : A Y C j o.Y.0.f.R Y Y R q.K 2 2 o   X                                                                                                 X                                                                                                                                         O                                                                                                             ",
"                                                                                                                                                                    X                                                                                                                                                                                                             X                                   X   X   f f 4 f m  X2Xq.m N q.Y.q.R N h K Y F M u 3 h L U 5 5 t & ; U 9.K K 9.q.5 u h J Y o.k.~.}.G.o.L F j j h h R Y.s.>.1.J t j o.R g 3 j p.f.f.y.o.,.,.,.R R j f X X                       X                                                                                                                                                                                 X                                                                                                                                               ",
"                                                                                                                                                                                                                                                              X                                                                                                         O                                             X   X 4 f f 4 f l.yXU.H n ,.2Xx.K V h B G J L Y A C C U ..i 3 B c 3 7 E k.U B q.o.5 g j H L >.f.}..Xk.R N H g t A R s.>.Y o.q k j k N g ; 5 J y.G.G.o.Y d.>.,.q.d.m f o           X                 O                   O     X                       X                                                                                                                                                 X                                                                                                                       ",
"                                                                                                                                                                                                                                                                                                                                                                                                  O                   O   X 7 7 n f :. XXXq.R F q.U.R N n L F G ..o.@.G G o.o...u e h U 5 ; h <.R 5 n 0.K h N V N K R f.f.y.V h N N A K J o.C F F h h h 3 t 7 * * h @.Z.{.d.Y 9.:.:.,.U.,.N j X X               X                                         O                                                                                                                                                                                                                                                                                           ",
"                                                                                                                                                                                                                                                                                                                                                                                                                        X 2 4 2 g U U.j.,.@.K h q.,.K A L Y G o.5...o.....<.r.#.i M ..o.L 3 3 j R M y Y Y h h N S K o.Y o.J o.g K L Y K N N Y F t h o.J A A y 6 : h ..<.Y.D.q.q.:.<.:.s.q.T N j *                     O                                       X                                                                                               X                                                                                                                                                                                       ",
"                                                                                                                                                                                              X                       X                                                                                                                                     X           X                         X         X     X O O - 2 7 7 T z./.y.Q.e.,.Y.S.R K F R Y G @.#.#.@.@...r.a.5.i C @.i.J t t 5 R K n h R N 5 u N R o.>.f.f.0.<.L K K n h F F n 5 L j.0.F o.N 3 3 u o.@.f.U.~.<.:.<.,.,.U.q.H :.Y # X                                                                                                                                                                           X             X                 X                                                                                                                                     ",
"                                                                                                                                                                                                                                                                                                                                                                                  X       O                 O   X     # 1 1 7 m 9.x.j.x.~.x.0XtXx.Y V M G Y P o.@.#...0.1.r.t.+.B G ..0.G 3 * u t M F n g h 5 3 t V F <.U.D.k.S.F h N h g g u 2 4 K <.0.f.0.0.h : 3 Y f.<.0.U.0.J :.>.q.l.{.Y.:.,.H o   X           X O           X         X                                                                                                                                                             X                                                                                                                                           ",
"  X                                                                                                                                                                                                                                                                                                                                                                                       X                           1 6 6 b b T H F e.j.tX2X{.o.H V A K o.@.+.r.+.#.i.a.t.a.#.A Y <...N 3 * : u 7 n g n j 5 h j A A K 0.a.>.o.J j K N 5 m g * ; t V o.G.f.0.J e g J f.p.0.k.p.K j T :.q.~.{.x.q.:.j X                                                                                                                                                                                                                                                                                                                                               ",
"                                                                                                                                                                                                                                                                                                                                                                                                                  O - 6 f b 7 8.g.K U :.q.{.x.E H o.@.A L o.@.#.#.#.<.r.a.i.Z.#.G #.<...Y y 3 ; ; g f - 2 N N 5 h N N A Y o.S F k j K j N j : * : 5 : h Y <.O.o.h : N y.S.r.@.i.Y J R ,.Y d.f.U.x.:.:.f #                                                                                                                                                         X                                                                                                                                                                                   ",
"                                                                                                                                                                                                                                                                                                                                                                X                                                 O 1 2 7 4 E  X9.N m U e.l.e.V A R ,.@.@.<.@.r.r.r.r.a.Z.Z.H.+.A ..+.#.J h : ; ; g m : 2 n V g g h h S o.J N J h t h j f ; * * . : : : C M F @.C 3 M r.H.!.<.q.>.A Y >.K R <.q.l.e.T N j                                                 X                                                                                                                                                                                                                                                                                           ",
"                                                                                                                                                                                                                                                                                                                                                                                                      X O       X # 4 1 7 E /.Q.E U T d.x.g.V j N R <.<.<.r.a.S.B.r.t.B.S.L.(.0.G #.Z.<.o.A M : 3 4 f 6 2 7 g g g j N S L o.L N j g g j 5 - 4 5 g 5 5 j S F Y #.Y u h #.S.[.Y.o.o.J H :.R ,.k.<.f.I.l.R H f -               O                                   X                                                                                                                                                                                                                                                                                     ",
"                                                                                                                                                                                                                                                                                                                                                                                                              # 2 1 1 2 m  X6XR U V 9.Q.x.Y j F Y R o...5.y.Z.Z.D.a.t.i.Z.'.[.i._ i.k.Z.p.L G M u ; 4 ; # # : 3 5 j A M C S A h 5 g g ; ; ; g >.A 3 : e C <.@.>...y c 0.h.].}.i.L F C K Y >.f.y.>.d.I.d.K j 7 o                                                                                                                                                                                                                                                                                                                                       ",
"                                                                                                                                                                                                                                                                                                                                                                                                            O 2 - # 7 m Q. X:.g F T w.k.e.N M K <.o.@.P #.Z.H.Z.D.Z.a.a.Y.`.'.a.r.Z.Z.a.#.G C h 5 ; # X o - o o : 5 n y j h h g h 3 * * o o g o.,.>.N u j o.<.<.5.M y Y H.G..X_.o.F G Y o.R @.y.>.:.,.l.q.f 7 6 2 X                                                                                                                                                                                                                                                                                                                                   ",
"X                                                                                                                                                                                                                                                                                                                                                                               X         X             O O 2 2 2 V n E |.x.K m R q.d.g.y.F j F o.G L ..#.F.Y.Y.H.A.a.Z.).[.'.u.i.H.a...G C M u : 2 - X X # # X : 5 j h g h N h 5 ; * # * o * 5 A q.,.j h k G <.#.F y N k.I..X,XZ.F A o.<.@.>.S.d.o.R f.U.T m f m 7 X                                                                                                                                                                                                                                                                                                                                 ",
"                                                                                                                                                                                                                                                                                                                                                                                                  X X     @ > 2 7 m m V T U T N K 0.R j.@.n M U R K L +.r.F.T.Y.D.i.r.D._.'.H.r.#.i.+.D F L F C t 4 : o X X o # # 4 7 5 u j g 5 5 ; # * 4 o - ; ; g A L J h A ..0.P e i 1.S.[.9X>X@.N U ,.o.0.k.{.S.R :.f.x.R 7 7 2 6                                                                                                                                                                       X                                                                                                                                                         ",
"                                                                                                                                                                                                                                                                                                                                                            X                                             @ @ 7 7 7 5 g K H g n R @.w.q.j h h Y i.@.@.r.i.S.H.).H.i.r.a.T.'.(.r.r.#.+.......G n e * 6 o X     X o # : 2 4 5 g t 5 ; - 4 o 4 5 : * * 4 j o.Y C K o.>.M y >.f.G.2X9X_.Y F o.F @.i._._.,.S K S.].H f 4 5 f 7 X                                                                                                 X                                       X                                                                                                                                                                                 ",
"                                                                                                                                                                                                                                                                                                                                                                                        X         O   X @ 6 b V b f N e.9.m V m V R 8.U g N K d.k.0.o.p.f.H.)._.m.*...r.Z.'.(.*.+.<.i.#.@.G D G h h h 5 .       X X X 2 3 6 5 : 4 ; 7 4 3 f g g 5 3 * * j J o.o.@.q.K 5 V f.S.].-X7X0.M F o.U ..y.'.S.Y K Y U.k.5 5 m 5 m 2                                                                                                                                                                                                                                                                                                                           ",
"                                                                                                                                                                                                                                                                                                                                                                                                  O   O - f n 4 f g w. Xg.H H n 7 m V g g h ,.l.y.o.[ p.k.]..X(.i.+...r.Z.;X(.6.r.m.a.r...G R F M 7 h 6 @       X . @ # 2 4 4 ; ; 4 ; 4 4 4 t g j j g q t e C 0.,.<.K t y <.k.Y._..Xp.C M ..@.P R H.XX<.J B <._.,.t j : 5 4 X     X                                                                                                                                                                                                                                                                                                                   ",
"                                                                                                                                                                                                                                                                                                                                                                                                      @ 4 7 2 4 m x.{.x.T V V n m V V f g K @.j.p.,.<.<.S.[._.S.a...+.6.Z.[.H.0.u.Z.a.i.i.0.o.A u : 4 ;     X     X X 2 # 2 - - : o X ; 2 M j N L J J j t y i U >.>.,.y 5 F <.T.(.].H.G h A o.G A <.S.(.r.L ,.~.(.,.h V u g 5                                                                                                                                                                                                                                                                                                                         ",
"                                                                                                                                                                                                                                                                                                                                                                                                  O   6 m 7 n n ^.yX{.E V n g m H T P 7 7 N N Y ,.<.,.f.G.[.}.B.#.o.+.m.H.'.H.+.6.6.k.[.'.r.L t 2 5 ; .           X O @ # X @ > # X X X ; u J o.>.L J Y [ j C i F #.o.h 3 i G Z.'.D.k.o.C M Y L i M C k.k...o.p.~.G.d.N M M N >                                                                                                                                                                                                                                                                                                                       ",
"                                                                                                                                                                                                                                                                                                                                                                                            X   O O 1 7 n z b 9.0XXXw.B V 7 7 g V U n 7 g n N H R <.S.Y.!.-X_.q.o.1.i.Z.D.).m.+.6.Z.W.}.H.o.h 5 5 ; # . O   O     # # @ # # # 1 X X X X . * 4 L ,.o.o.[ 0.o.L A h F o.K 3 t A #.Z.Z.5.#.F u M #.i.F F ..y.i.i.#.p.W.].9.h V n 7 O               .                                                                                                                           X                                                                                                                                                                         ",
"                                                                                                                                                                                                                                                                                                                                                                                                  - f b 6 6 z w.{.9.K T V n n n V B F K K F K R @.p.Y.Y.G._.S...#.a.i.Z.Z.A.r...b..X7X;Xu.C M y : 5 * X X X X X X X X O O # @ O X X X X X X & : j [ Y o.@.....F k i C S t : h o.h.H.r.L C e h @.!.H.p.P o.w.k.r.l.h.!.G.F n V N 2 @   O                                                                                                                                                                                                                                                                                                               ",
"                                                                                                                                                                                                                                                                                                                                                                                                  @ 6 1 6 7 g.0X2Xw.F K m n x V U N V L @.Y o.q.f.d.S.U.U.i.o.Y Y i.u.Z.f.i.G ..W.,X(.a.G G C h h 6 : X @ X X   X O   X   X   X X X o X o * # * : t g H >.Y Y <.@.A h S M : e ..r.Z.a.U A 3 y F S.(..XZ.0.R a.0.a.'.a.].x.V 7 V V #                         O                                                                                                                                                                                                                                                                                         ",
"                                                                                                                                                                                                                                                                                                                                                                                                O 1 > 2 m 4.7XrXG.R j m n 7 u m n m V j L R ,.y.k.f.S._.S.@.U ....r.i.t.m.*.Z 6.H.Z.+...J C h 5 g 4 ; - o X       X X .     . X X X X o o # o o # # : : g A S o.r.@.A h h : t h @.H.Z...F t e u @.k.[.'.W.0.r...#.k.h.G. XE n B N 7 @                                                                                                                                                                                                                                                                                                                 ",
"                                                                                                                                                                                                                                                                                                                                                                                            O   @ 2 z b V z.E.E.e.E R H B n n z g K H H K R K 9.k.y.i.k.i.Y ..#.<.r...i.a.5.P 6...r.| @.Y j t h g 3 ; & o X X X X       O O     @ X X X o o # ; ; - o # 3 j j J #.0.@.G h 5 : M F a.'.Z.G M : t P i.k.].].y.r.5.E o.0.0.x.!.T F V n 7   X   X             O                                                                                                                                                                                                                                                                                           ",
"X                                                                                                                                                                                                                                                                                                                                                                                       X X     O 6 V V I w.4.Q.~.y.<.R m g n h j K K K Y L @.q.p.a.k.i.#.o.R i.#.[ | +.5.| | +.r.m.u.0.J M y n g : 4 # o # # X .     X       # X X X X o X X # 4 ; - # - 4 5 t M R r.r.B t = h h #.Y.'.Y h t * C i.k.f.S.k.y.5.5.+.E @.5.Q.e.P U j 6 * #                                                                                                                                                                                                                                                                                                             ",
"                                                                                                                                                                                                                                                                                                                                                                                                1 f V m V z.XX^.x.@.Y V H U m 7 f N V R ,.,.<.0.y.0.<.0.y.#.a.Z.O.G | 5.+.D G Z.W.H.r.>.J A j h 3 3 4 # o # X o . X O O # X O O @ X   X o o X o o 4 4 4 : & : t u A F #.L y : 3 M F r.H.k.i 5 : 3 @.a.i.i.p.G.G.5.Y 5.j.@.E p.T N H g 5 7 #                                                                                                                                                                                                                                                                                                           ",
"                                                                                                                                                                                                                                                                                                                                                                                            O @ 7 b m U w.oXqXG.5.F V V K T m f n V K K 9.q.0.p.a.#.o.q.#.r.H.G.o.G #.<.Y i #.W.W.F.#.#.F M h t 4 : ; # @ X X - X   O X X X X # X X   X X X X X X - ; 4 4 ; ; 3 u i M F Y G 3 3 c F ..H.'.R t # : G p.y.5.5.Z./.G.P 5.'.i.Y w.p.K R m 4 2 X                                                                                                                                                                                                                                                                                                           ",
"                                                                                                                                                                                                                                                                                                                                                                                              1 7 2 7 V |.7X^.o.F U R K R N 7 7 n V n F q.0.<.y.i.>.<.#.@.r.Z.i._ +.#.r.G G a.u.i.+.#.L h h n 6 : 2 - X O               X - 2 # o   X o o X X X X o X * : : 3 4 M C h B A L u 3 i L P 0.H.W.U = * 7 @.p.i.+.r.W./.r.P h.|.5.Y w.E F K g # o                                                           X                                                                                                                                                                                                                                               ",
"                                                                                                                                                                                                                                                                                                                                                                                            @ 7 7 6 b E 7XQ.x.P F E K T T m 4 5 7 N N R y.p.s.y.q.r.i.r.<.f.H.6.G #.@.#.D D i.i.t.5.o.M g j 5 5 4 -                 X   O 2 2 2 - - X X o   X X X X X X - 2 6 h h C F M M C g : 7 G F F o.z.E 6 , * B i.0.+.5.W.[.'.w.5.].Q.o.o.Y N K V 7 7 2                                                                                                                                                                                                                                                                                                         ",
"                                                                                                                                                                                                                                                                                                                                                                                            - 7 1 f H XXoX0Xq.F V F K R V 4 6 4 N M K ,.<.<.y.s.r.<.a.a.f.(.D..._ Y #...c L #.r.+.R A h g t t 5 ;       X X     X O   O   # - o 2 2 ; X o X X X X # X X @ o * t g h F C n h j 2 3 C P G M o.#.M 3 6 3 R a.5.Y p.'.7XXX6.p.-Xl.@.e.K N N f 7 1                                                           X           X                                                                                                                                                                                                                                 ",
"                                                                                                                                                                                                                                                                                                                                                                                          O @ b m N w.6X0XU.K K N R ,.U m 7 7 n B F K <.p.r.B.f.i.y.a.i.H.[.D...G #.0.G C ....C M F y 7 2 7 5 3 X         X               X @ O 2 6 7 # @ X X # X X X   X X * 2 u N A K G M h t 3 h @...C A F F 2 3 3 5 @.w.#.Y k..X7XW.a.}.].e.q.p.U m n n *                                                                                                                                                                                                                                                                                                         ",
"                                                                                                                                                                                                                                                                                                                                                                                      O   O b b m m /.qX XT U H K R R m 7 6 f N V @.y.p.p.<.p.p.p.S.Z.k.'..Xi.F #.5.6.G h G G M C M h 5 5 g 4 X                     X   X X   @ # 2 2 2 * X X # X X   X X @ # # 2 x V M Y L F h 5 7 Y 0.<.M C A t 6 5 < i y.0.Y 5.!.]..Xp.i.2XY.@.q.w.M u 5 n X                                                                                                                                                                                                                                                                                                       ",
"                                                                                                                                                                                                                                                                                                                                                                                        X 2 m z 7 M {.oXj.H N K T T N 2 7 7 h m A q.k.p.s.y.k.r.1.Z.Z.D.&X[.0.D +.#.+.C i F L F C y 5 7 t 6 o                 O X X   X X   O   @ ; @ ; 2 # o o # . X   . X @ X o 2 y F L o.o.N 5 t S <.y.@.A M u u 6 6 3 F 0.o.#.Z.].;X].r.}.2Xl.<.e.@.V 5 6 #                                                                                                                                                                                                                                                                                                       ",
"                                                                                                                                                                                                                                                                                                                                                                                        O 6 4 4 6 e.qX/.9.H n V N V n 7 7 7 M M U y.y.f.I.S.f.r.a.B.Z.'.}.(._ S [ r.*.M G #.@.M h 5 j h 5 # X                   X                 @ ; 2 2 ; * X X . X o @ . # # o * 2 h F Y Y o.h 3 u U 0.0.U F n u D x 7 u Y r.P #.G.>X,X!.a..XG.y.,.q.0.V 7 2 X                                                                                                                                                                                                                                                                                                     ",
"                                                                                      X                                                                                                                                                                                                                                                                                                   # - 1 n ^.rXz.T M n n n n V x u 6 h V Y p.p.G.-XG.#.0.d.a.Z.&X-Xf.G D Y f.r.C >.y.[ j 5 h h n ;         O             O     O           O # 2 2 O # # O . # > # X X # - ; : ; 5 J R o.j : u A L #.o.L M h A F M M M G Y G ..H.-X].S.k.f.5.q.o.9.q.V N 7                                                   X                                                                                                                                                                                                               X                                 ",
"                                                                                                                                                                                                                                                                                                                                                                                        X @ 2 1 M  X|.j.E 7 n f V m V 7 u t h Y 0.y.Z.!.].p.+.p.H.D.T.[.'.#...C r.H.X.Y y.Y C h h j u ;                   X                           O . X # 2 # . O > # X X X o ; ; ; ; 5 j K J 3 t A L Y Y o.V j N K F V n N M F G 5.S.'.(.Z.y.i.p.,.,.q.q.N H             X                               X                                                                                                                                                                                                                                                       ",
"                                                                                                                                                                                                                                                                                                                                                                                    X   O @ 6 6 E ^.Q./.U 7 7 V V V n 7 7 7 n @.0.0.k.].G.@.#._._.!.'.T.Z.O.[ G t.k.G 0.0.A u y u u =                         X           X                 + 3 2 @ # * - # # @ @ - : 4 3 ; : 4 g 4 : g L L L R K N G K F U G F C u M ..0.a.!.Z.y.r.k.0.E :.9.H V f                                                                                                                                                                                                                                                                                                   ",
"X                                                                                                                                                                                                                                                                                                                                                                                 X       O 1 7 w.oXQ.Q.V b n N m n N u 6 u M @.q.a.H.].y.#.i._.].-X;XZ.Z.r...#.Z.#.C >.F h g j j 2                                                           + 2 # 2 . - o # o X o o ; 4 g 4 : : ; ; : j Y L Y @.M j U R G #...G M e c P ..p.h.h.@.y.p.d.R :.d.I 4                                                                                                                                                                                                                                                                                                   ",
"                                                                                                                                                                                                                  X                                                                                                                                                                     X @ 6 6 Q.0X~.g.m 7 n n B m m 7 7 j K q.e.f.Y.p.o.<.f.S.}..X'.Z.D.<.[ #.Z.L | R i t g g 4 X                     X                             O   O     . 2 2 @ # # @ @ # # o o ; f f 3 - o * * 4 N K A R F h F @.R L @.<.G y 3 i L o.p.k.0.<.q.d.@.U 9.e.f 4         X                                                                                                                                                                                                                                                                                       ",
"                                                                                                                                                                                                                                                                                                                                                                                      O O @ 6 6 Q.oXx.8.n 7 n V I x 7 6 5 N R 0.U.}.S...r.k.Z.'.[.B.B._.Y.1.o.1.1.S @.D u 4 g f #                                                             O   # - # # @ @ - o o o - # * - 4 4 ; # # ; 4 h K K V 2 j K L Y @.#.r.A 3 3 n R o.<.<.q.y.d.q.T K :.m f o                                                                                                                                                                                                                                                                                               ",
"                                                                                                                                                                                                                                                                                                                                                                                          O b V Q./.x.:.f f I U I x f 5 5 N L ,.Y.{.R o.f.H.S.Y.l.p.k.;XY.f.<.p.Y S G C h g t ;         X                                                         O X ; ; - @ - # o X # o o # ; 4 - # # - 4 4 N F h 4 : V A G @.@.5...n 3 = i V K M o.q.d.l.9.R :.K f -                 X         X   X                                       O                                                                                                                                                                                                                       ",
"                                                                                                                                                                                                                                                                                                                                                                                O     X O @ 6 w.6X|. XT n N U U m 7 n 5 g V R d.S.o.C Y D.U.Y.S.a.f.]._.I.y.y.>.J C C h t h 4 X                 X           O     X   O                               - 4 @ - o - # # # # # # - : 4 ; o - : 4 5 5 n ; - : j B Y @.y.a.,.y 3 3 t h N V A R l.,.R j.e.N ; X       X                         X               O                                                                                                                                                                                                                                           ",
"                                                                                                                                                                                                                                                                                                                                                                                  X   X X @ b g.|. X^.I j m H m H m f 4 4 N ,.l.<.F F <.S.I.f.p.y._.[._.(.p.p.#.A H h y h 4 *                                                                         O ; * ; X X # o # # - # # # - # # # 2 4 3 3 5 - X - 5 M A L y.f.S.@.n 7 2 : 5 h 7 h R K N ,.l.:.g X X   @                                                                                                                                                                                                   X                                                                                   ",
"                                                                                                                                                                                                                                                                                                                                                                                      X O @ 4 x.qX6Xw.m f H H m N n f f m ,.,.K j L >.f.S.f.k.f.Z.}.).[.S.f.<.A A S g j 4 *       O               O                           X             O     O   O X @ 2 - # X o # o ; - - * # # X X 2 f 7 : : # X X ; 5 V Y ,.q.k.k.F t 3 3 4 5 u f 5 Y K N ,.q.K j                                                                                                                                                                                                                                                                                             ",
"                                                                                                                                                                                                                                                                                                                                                                                          X 1 ^.jX X:.m j K H H V n 5 g U f.,.A j ,.<.f.f.S.-XH.S.I.Y.T.s.y.o.h j g t f :             O O                                         X     .   O     O       O # - # # X # @ # # # * @ @ @ # # 7 7 6 : X X X . * j R 0.0.G.].F.0.h g V M 5 ; t R m j T 9.H H f                                                                                                                                                                                                                                                                                           ",
"                                                                                                                                                                                                                                                                                                                                                                                      O   O f ^.oXe.m H K H j H V 7 4 4 K ,.g j F ,.q.D._.}.-XS.a.S.T.Z.y.y.J A N g 5 ; X     X                   X       X                                               X   - 2 # # . @ # @ # O # # . X @ X 7 7 5 2   X o o 5 B @.@.k.!..X].k.H N L g 4 j ,.q.j N l.<.m N 4 X         X               O                 X                                                                                                                                                                                                                                           ",
"X                                                                                                   X                                                                                                                             X                                               X                                                                                               X       - f E./.T m H H K K H g f j f :.H ; g N y.f.~.3X2X_.f.a.T.T.B.k.>.L k j 5 4 @     X   O             O     X                                                     X X @ 2 2 ; o X o # o # X o o . X # 2 g m 2 X   X X : n L R #.r.].[..Xs.Y F V N j :.l.R N :.U.:.f 4 X X                   O             X     X                                                                                                                   X     X       X                 X                                                                                         ",
"X                                                                                                                                                                                                                                                                   X                                                                                                                 O X 2 m j.:.H H N N H j H N n n f 9.{.A g A d.f.[.}.-XS.f.H.Y.B.H.s.R j j g ; X     X                                                                                 O   @ 2 ; - o X o # X . X # @ @ # 6 2 g 7 #     X * 7 Y 0.@.0.i.G.[.S.>.Y E H K 9.:.,.N H <.:.j f - X                                                                                                                                                                                                                                                                                     ",
"                                                                                                                                                                                                                              X                               X                                                                                                                         @ b T e.H H f H H j j K N j f f H 2X:.j N <.I.T.-X`.a.t.I.D.f.f.1.H g g 5 o       X             O                                     O                                   o - 2 - # X # o o . # X @ X # 4 f 7 -   o @ # : K p.q.y.y.y.h.Y.f.0.Y K V q.R e.H j :.d.:.j j X                                                                                                                                                                                       X                                                                                             ",
"                                                                                                                                                                                                                                                                                                                                                                                        1 m T E :.j m H H :.,.:.T N N j N U.,.g C o.f.2X2Xa.1.S.Z.f.s.s.,.j g : o   X                                     X     X                             O                   X X 2 2 ; # X # o X X @ . # # # 6 g 7 - # ; o : M ,.y.k.a.k.!.Y.G.f.k.K n K ,.:.:.N :.l.d.j H 6 O                           X                                                                                                                                                                                                                                                       ",
"                                                                                                                                                                                                                                                                                                                                                                        O             X X f E ^.U.T :.H T d.g.,.J K :.:.U.U.<.Y o.s.S.:XS.<.s.I.f.f.f.s.K h 3 o       X             X                                                                               o - # - - - # X O . X @ X # - 4 f f - o - ; ; g G <.a.r.u._.}.!.i.k.,.g V H N H K H ,.g.T j 6                                                                                                                                                                                                                                                                                     ",
"                                                                                                                                                                                                                      X                                                                                                                                                           X   X X m w.yX{.,.:.K <.j.1.R q.:.>.q.wXl.L >.1.}._.s.<.T.T.S.B.k.s.,.K g *           O                                                                     O                   X   @ o X # # ; # # @ # @ # - - - 2 4 - - # 4 4 g h L y.<.<.S.].}.~.<.<.K N N H f m T m 9.:.f 2                                                                                                                                                                                                                                                                                     ",
"                                                                                                                                                                                                                                                                                                                                                                  X           X       X # m Q.cXU.:.:.l.XX<.Y R e.>.T s.2Xl.u L ,.f.o.>.I.;XI.k.s.s.>.R H ;           X                                                                                                 X > 1 - ; @ X # # # @ - 1 4 4 4 4 # ; 4 g f g H p.S.1.y.a.]._.S.q.>.K V K j m R U :.R m 6 X                           X                                                                                                                                                                                                                                                       ",
"                                                                                                                                                                                                                                                                                                                                                                            X     X     # 6  XkXE.:.<.tX{.,.L o.f.q.,.}.fXT.@.A h j L S.T.I.d.1.s.<.L K g o     X                                         .                                       X                       @ @ 6 2 2 # @ - - # - 6 4 ; 4 ; - # 4 : g g j ..p.p.p.#.p.d.S.G.f.q.N K H m H U H H :.f @                                                                                                                                             X                                                                                                                                     ",
"                                                                                                                                                                                                                                                                                                                                                                                    X X > 6 rX6X9.e. XtX0.,.<.r.Y.x.q.u.>XI.d.A t J s.`.I.s.1.s.s.,.K N *         .                                                                                                         O @ - 6 4 1 - o # # 1 4 2 6 4 - - ; ; g j j h C Y f.H.@.L 0.p.G.p.Y g K H N V n H :.g X                                                                                                                                                                                                                                                                                   ",
"                                                                                                                                                                                                                      X                                                                                                                                                   O         X   O 4.cXz.9.0XcXl.,.y.p.f.S.D.o.,.L @.d.o.[ o.>.s.y.s.1.<.q.R A y X                                                                                     X                     O           O 1 4 2 - @ 2 # - 4 7 2 ; - # - - f g j N h h o.!.].k.#.#.y.p.R R R :.K H m N U N o                                                                                                                                                       X                       X                                                                                                   ",
"                                                                                                                                                                                                                                                                                                                                                                    X             X     @ oXtXw.{.VXoX:.o.y.r.f.B.1.L G G C L J L j C L >.>.[ >.L H N -                                                                                                 X         O           O   O @ 4 f - - 2 - 4 7 2 ; - # # ; 5 g j A N j g D S.[.!.Y Y ,.<.:.q.T N j H N :.U 4                                                                                                                                                                                                                                                                                   ",
"                                                                                                                                                                                                                                                                                                                                                                                      O E jXz.x.BXyXs.j F Y L k.H.'.G.A L A A o.o.J k L o.Y >.L N V 5 X O           X                                                                                                                 - 2 4 - X - 1 1 2 4 # # o ; 4 f m V A J J i F +.F.G.Y >.1.,.<.q.H j N N H 8.f X                                                                                                                                               O                                                                                                                                 ",
"                                                                                                                                                                                                                                                                                                                                                                                O   @ 4 XX/.g. XtXl.K F K A Y #.Z.[.W.0.C M j J >.>.o.o.o.o.Y A N j #                                                                                                                           O     O - 4 - # - - 2 - - # @ X - 4 4 j j J A Y o.A C C <.q.,.>.o.,.q.,.N N U H R n @                                                                                                                                                                                                                                                                                 ",
"  X                                                                                                                                                                                       X                                                                                                                                                                       X                 O U |.U E ^.l.m Y K S N F ..f.m.m.0.G t S k L J L o.[ A A A A 5 X X                                                                                                                                   # - @ - O - 1 1 @ # @ - ; 5 5 j j J Y <.f.p.L L S o.<.y.q.q.0.>.H H R ,.H - @ O                                                                                                                                                                                                                                                                             ",
"                                                                                                                                                                                                        X                                                                                                                                                                 O         @ w.w.m K 9.H n A h M U ..a.W.F.Z.r.<.S k J L S K L J g j h h #                                         .                                                                   O         X   X             X - 2 @ 1 6 * # # # - ; 5 5 j N J Y <.B.Z.a.<.K C >.I.l.y.p.d.H V V :.K # X O     O                                                                                                             X   X                                     X                                                                                                               ",
"                                                                                                                                                                                                                                                                                                                                                            O                     O @ E U H E U g n n i C #.r.m.a.m.#.1.u.o.L j k J N h 5 t h N 5 .                                                                             X                         X O                   X             - 1 1 - 4 ; # # X - ; ; j j j J J o.y.f.A.D.y.@.0.f.p.,.@.k.d.,.K q.,.2       O                                                                                                                                                                                                                                                                         ",
"                                                                                                                                                                                                                                                                                                                                                                                    # U I V R V 5 3 t i c Y #.i.#.+.G [ >.O...C j g 5 5 : g j y X                                                                                                         O                                     @ 1 2 2 2 , # @ - - ; 4 f g N K o.<.r.a.Z.f.i.y.U.a.o.R p.j.e.0.q.,.6 O     O                                                                                                                                                                                                                                                                         ",
"                                                                                                                                                                                                                                                                                                                                                                                X X m e.V m E V 3 u 3 e i i G i.a.i.#.[ [ L L A e e : : 5 j j 4 X                                                                                                                           X       X       X     @ > 2 2 2 2 ; o - - 4 f u M A G #.u.B.u.p.a.<.0.<.R R R R <.l.j.q.P O O                                                                                     X                                                                                                                                                                                       ",
"                                                                                                                                                                                                                                                                                                                                                                              X o o U e.V H R g : 3 3 3 < i D +.i.i.@.....L L j u e 4 h N V M X                                                                                               O   X         O                           X         O 1 7 7 4 2 - # # o - 5 g j M C o.1.f.a.0.0.#.Y 0.,.L L V Y j.x.d.,.#                                                                                                                                                                                                                                                                               ",
"                                                                                                                                                                                                                                                                                                                                                            X     X O     O   X X V Q.9.m V I g 5 2 3 3 e n i C D G ......G h k j t g S N N 2 X                                                                                                                                   X                 X 2 7 5 6 # : # - : 4 4 7 M F G +.#.r.*.0.@.o.o.Y L Y K o.0.y.U.q.n O                                                                                 X                                       X                                                                                                                                                   ",
"                                                                                                                                                                                                                                                                                                                                                    X               O     X @ 1 N /.oXT 7 n g 3 t : : g h N M e M h C D M M C u t y N N V g X         X                                                                                                             X         O                   X O X # 4 4 4 2 - - - ; 4 4 g N L ..<.0.r.a.<...F C M K Y R q.0.d.w.m X                                                                                                                                                                                                                                                                             ",
"                                                                                                                                                                                                                                                                                                                                                                      X   O 2 g. X8XU.H f n 7 2 u 7 M g 5 t t 3 e h A i i M M t h V N K V ;   X                                                                                       X                                           X                   O X 1 4 7 7 - - 1 ; - ; 4 h F F ..#.<.y.#.Y M h g M N Y y.<.q.f.R                                                                                                                                                                                                                                                                               ",
"                                                                                                                                                                                                                                                                                                                                                                      X X 6 :.|.|. Xq.4 n 7 6 5 6 f n g u h e * & t A h u h t i h H N F 5 .                                                                                                                             .                               O # 1 6 7 4 4 1 - - ; ; 5 N A G ......F N h i n N h M ..o.@.j.y.2                                                                                                                                                                                                                                                                             ",
"                                                                                                                                                                                                                                                                                                                                                                      O 4 I :.w.d.XXR f b 7 5 2 - ; : * : ; * * . : h h y 3 t h F F N j X                                                                                                                                                 +         O X @ O # 6 7 4 4 - ; - - : : 6 u M B F C A F h M u M 7 M Y y.5.0.l.p..                                                                                                                                                                                                                                                                           ",
"  X                                                                                                                                                                                                                                                                                                                                                             O O X 2 b H m m E.x.m b f b m 6 ; ; * *   o & . & o 5 5 7 : 3 7 V K g X                                                                                                                                           O                   O @ # 6 g.9.7 4 2 ; # o ; , 2 2 3 5 h N M F h h 7 5 y U o.@.R +.S.~.N                                                                                                 X                                                                                                                                                                         ",
"                                                                                                                                                                                                                                                                                                                                                              X   O O z b b m T j.H m U f f m 7 o * * * * = * . . $ . : 5 3 3 g u g :                                                                                                                                   O                     X   X X O   I oX|.e.m - 4 4 ; ; ; , , # 2 2 3 5 N N F N h g K Y.k.a.5.#.y.Q.k.X                                                                                                                                                                                                                                                                         ",
"                                                                                                                                                                                                                                                                                                                                                            X O O   @ b 7 I m w.:.f H m 7 f 7 ; 3 3 u 3 # * : * X . . ; 4 : : ; : 2 *                                                                                                                                                         X O O O - T |.E.9.|.g.6 4 4 2 ; - # + # < = 2 3 y h h N j 5 j S.G.i...#.o.S.x.2                                                                                                                                                                                                                                                                         ",
"                                                                                                                                                                                                                                                                                                                                                                  O 1 6 b H b :.f f :.f f g 4 2 4 5 5 3 5 3 5 3 &   X o X X & X ; n X                                                                                                     X                       O                             X O X w.qXx.x. X0Xj.7 2 2 2 # 1 , + # O * * o : 5 3 3 : : : h <.0.+.5.w.i.U.x                                                     X                                                                                                                                                                                                                   ",
"                                                                                                                                                                                                                                                                                                                                                          X     X # 6 2 7 m I b > I I 6 5 4 ; 4 2 : : * : : : : o . X       X X 7 n X                                                                                                                                                         O @ O I 6X^.w.|.XXe.T z 7 1 - ; - # # @ O . + + + 6 3 3 X X * : h <.....r.5.p.M                                                                                                                                                                                                                                                                         ",
"                                                                                                                                                                                                                                                                                                                                                                O 2 7 2 b m b 6 2 m u 2 7 2 - ; * * * * ; : 3 * * . .     X . ; j f                                                                                                                               O   O                         O b oX/.z.E.z.w.m b n b 4 o # 2 # # # # . . . . . 2 2 = * # : e F ..Y +.o.9.U                                                                           X                                                                                                                                                                                             ",
"                                                                                                                                                                                                                                                                                                                                                              X   1 2 f b 7 b 2 6 V 6 2 f - - ; 2 * : ; ; : . . . X     X * : f M ;                                                                                 X                                     X                               X   O O g.^.w.g.I 4.z 6 z 1 4 2 # ; ; ; # X # @ X X + # * 6 7 : # o ; L o.R Y F @.A                                                                                                                                                                                                                                                                         ",
"                                                                                                                                                                                                                                                                                                                                                                @ 6 b m 6 b b @ n 7 > 2 7 4 ; : = # o : * . . o o . X X X 4 4 5 n 2                                                                                                                           X                     X           I  Xg.g.I z b b z z - 4 7 2 # # 2 ; * # * @ O # @ . @ : 5 2 ; : M L Y C L F B @   X                                                                                                                                                                                                                                                                   ",
"                                                                                                                                                                                                                                                                                                                                                          O   O   6 m z 6 m 1 1 B 7 # 7 4 ; 2 # # # # ; * ; : 3 ; o   - ; 3 : 6 m X                                                                                 X                                                                           z.^.4.I z z z 7 1 2 - 2 6 ; - ; # # # # - # X # * X # o ; 2 3 u L F L F Y K V X                                                                                                                                                                                                                                                                       ",
"                                                                                                                                                                                                                                                                                                                                                                @ z n 7 7 6 # 4 m 2 2 6 : o # # # X X X : 2 2 5 - o - : : * : j M X                                                                                                                 O                                         6 E.I b b 6 b m 2 2 # # - - ; ; o X - ; # 2 2 ; # ; # # o o o * u A F L Y A Y n X                                                                                                                                                                                                                                                                       ",
"                                                                                                                                                                                                                                                                                                                                                            O @ 2 n f 1 7 4 1 7 z + 2 2 - # X ; ; o . X ; 2 ; X o o : ; : o # g u                                                                                                                         X                               O   T w.b b z 4 7 7 2 2 # * ; # . # # o : # ; # ; ; 4 # * ; # * X X * 5 N M N h g ;                                                                                                                                                                                                                                                                         ",
"                                                                                                                                                                                                                                                                                                                                                              O 7 b 7 6 b # ; b 2 # # 2 - # # ; o o X * . X . X X ; : o * * 5 M 7                                                                                                       X                                                     I T b z 1 6 6 > 2 2 # # ; o X X - - ; ; # o * o # 2 # # X o X : ; 3 t t 6 6 7 X                                                                                                                                                                                                                                                                         ",
"                                                                                                                                                                                                                                                                                                                                                            X O 1 f 2 V b 1 2 7 1 X 1 2 # # * 2 @ X X o o X . X X : ; X * : g H 6                                                                                 X                                                   O                       n m b z 2 2 2 ; - ; # X o o o X # - - ; ; # - o - 2 # X . X # # 6 3 t u 6 u 6                                                                                                                                                                                                                                                                           ",
"X                                                                                                                                                                                                                                                                                                                                                         O X   - f m m 6 6 4 6 # X # > o # > # @ . o . o X o o - ; o   X 5 t N ; X                                                                                                                                                         X m m m m 6 1 2 ; # # o o o o o o X # - o ; # o X o # # X     . o 2 ; 2 o 6 2 #                                                                                                                                                                                                                                                                           ",
"  X                                                                                                                                                                                                                                                                                                                                                         O   - b m m 6 # 6 6 @ @ # > @ O # # @ X X X o # o ; ; o X o * 4 j g 2                                                     X                                       O                                                   X         - I m 7 f 4 2 ; 4 # o o o * o o o o o - - o X X o X o # X . X . # o X X o * #         X                                                                                                                                                                                                                                       X                           ",
"                                                                                                                                                                                                                                                                                                                                                            X   @ m f m z > 6 6 @ > > # O O   @ @ . # X # o o : ; X * o * f 5 g >         X                                                                                                                           O O O                 7 I n 7 7 - ; 4 4 - ; o o o # o o o - o # o @ X X X X o #     . X o X # * # X                                                                                                                                                                                                                                                                             ",
"                                                                                                                                                                                                                                                                                                                                                            X O # 6 6 m 2 ; 6 * O * # # O # . @ o o X o o o - 4 o X . ; - ; ; 4 X                                                                                                                                     O                     m n f 7 7 2 - - # # # o X o # o X o o X o X . X   . X X   X     X X o ; 2           O                                                                                                                                                                                                                                                                     ",
"                                                                                                                                                                                                                                                                                                                                                                # 7 m 7 4 ; 6 o X # # @ O   O @ X o # o X - ; # X X o 2 4 ; 5 ;                                                                                                                                   O       O O           O T E z m 4 2 ; - # - # - o # o X X . X X X X o X .   X X   . . X X X @ ; o X       O                                                                                                                                                                                                                                                                         ",
"                                                                                                                                                                                                                                                                                                                                                              X 7 b m 6 2 7 6 o X # @ X # > O O X o - o # - ; X . # X 3 2 6 7 #                                                                   O                               X X                                           O   O X m j.V g H 5 - ; # - o # o o - # X X X X X X X . @ . .   X X X . X . O # o X               O                           X                                                                                                                                                                                                                                       ",
"                                                                                                                                                                                                                                                                                                                                                            X - > z 2 2 2 f 7 X   # # . O # O O o o & # # - o X # X # X ; 4 #                                                                             X                                                           O     O O     2 z.x.I V V N f 4 : - # - # o - o     X   X o X X X X X . . . . X X o # # @     X         X O                 X                                                                                                                                                                                                                                                   ",
"                                                                                                                                                                                                                                                                                                                                                            X @   - 2 6 # 7 2 X   + # O O   X O X # o * - ; X o X * @ 2 2 6 @                                                               X                                                                               O O 1 T |./.T x E U n 2 2 # # * * # # o X X X X X X X X X X X X o X   X o # , 2 #   X                                                                                                                                                                                                                                                                                     ",
"                                                                                                                                                                                                                                                                                                                                                                  @ # 1 6 4 # O . O # O O X X . o X o X ; ; X @ * ; 2 2 # #           O                                                                                                                                       V  X XE.T z I E 2 * 6 @ O X X @   .     X       X X X X X X X X X X o # #   X                                                                                                                                                                                                                                                                                           ",
"                                                                                                                                                                                                                                                                                                                                                              O   X O 6 7 6 1 O # o #   . .   # X X X # 2 * X X @ * 2 # X                                                                                                                                             O   O m 7XqXg.I 2 2 j.B # ; @ X       . X X X   . X X   . X . . X X X o # @ @ @                                                                                                                                                                                                                                                                                                 ",
"                                                                                                                                                                                                                                                                                                                                                                O X @ 7 6 b # O X # #   X     O X # # ; 2 o @ . X # # @         X                                                                                                                             X       O   E oX^.4.I x 6 T U 2 # # # 2 # X     X   X X X X     X   X X .   X X o X         X       O                                                                                                                                                                                                                                                                                   ",
"                                                                                                                                                                                                                                                                                                                                                                  @ @ > 7 2 # # . . @ O X X   X X # @ # * @ X O @ * #       X                                                                             X                                                           O 7 XX^.m 6 z # m E x , 2 4 f 4 -         X X X . X X       . X   . o o     X                                               X                                                                                                                                                                                             X     X                                               ",
"  X                                                                                                                                                                                                                                                                                                                                                               O @ 7 2 6 # @ X X O     X @ O X . O # # . @ , 2 # #   X                                                               O                                                                             O j.w.m 2 6 # 2 U x 6 g B j f 1       O     . X X X X X X X X X X # o o           O                             X                                                                                                                                                                                                                                                               ",
"                                                                                                                                                                                                                                                                                                                                                                    * 7 6 5 O @ . # X X X O X . . . @ 2 2 X @ ; 2 -                                 X                                 X                                                                         O   O > V 7 # 7 # 2 N V 7 f m N j - #   @     X X   X   X X X X   X X 2 : #           O                                                           X           X                                                                                                                               X                                                                                       ",
"                                                                                                                                                                                                                                                                                          X                                                                       # # 7 6 2 ,   X   O   O       X X @ 2 # @ # ; #                                                           O                                         X                                               # 7 @ 2 7 b T T 5 f N m 5 ; o X X #   X     X X .   X   X   X * ; -                                                                                                                                                                                                                                                                                                             ",
"                                                                                                                                                                                                                                                                                                                                                            X     @ # 6 7 7 2 X @ @ @ X X     . # O @ - X X # 2 X                       X                                       O                                                                                     - 2 7 b V E.z.4.U V V 7 2 - o o X   X X X   X X X X X     X - - : @                                                                                                                                                                                                                                                                                                             ",
"                                                                                                                                                                                                                                                              X                                                                                               X O X O 7 V 7 2 X @ @ @   X     X @ @ @ : X ; 6 #   O                                                                                                   X                                               X 4 2 T  X~.E 9.U x 7 * @ o o - # X X .   X   X X X X X X @ # @ O                                                                                                                                                                                                                                                                                                               ",
"                                                                                                                                                                                                            X                                                                                                                                                     X O z V 7 - X @ @ X O X O   O # . o * # 6 7 @                                   O       O             O       X                           X                                                         O 7 # w.0X~.:.U 2 1 * 1 @ o # - o X X X X   X X X X     X # @ O       X       X         O             O                                                                                                                                             X                                           X                                                                               ",
"                                                                                                                                                                                                                                                                                                                                                                  X @ 7 n 2 X O   O O O O X X X . X # # # 2 @     X       O O                                 X                           X                                                       X                     # 2 l.^.T 7 6 2 # @ X # o o X X X X   X X X   X # @ . X   O                                         O   X             X X                                                                                                                                                     X                                                                                               ",
"                                                                                                                                                                                                                                                                                                                                                                  O # 7 b 1 - @   X X X @   O X X X # 2 > 1 X   O       O                   X                                                                                                       X                 O # m ^.E 6 # > # @ @ X # X o o X X   X X X X . @ # # O                               X   O                                                                                                                                                                                                                                                                                     ",
"                                                                                                                                                                                                                                                                                                                                                                  X # m n 1 1 @ O O O X X X   X @ X # 2 # X           X                         O                                                                                                               O       X I ^.U * 2 # # @ O . X X .   X X X X . X X # O X             O                                                                                                                                                                                                                                                                                                               ",
"                                                                                                                                                                                                                                                                                                                                                          O O     X X n 7 @ # @ . X X O @ X   X . X * * X                       O                   X                                                                                                                     n 9.7 # > X # # X X # X     X X X       # # .   O     X                                                                                                                                                                                                           O                                                                                                         ",
"                                                                                                                                                                                                                                                                                                                                                            X     X f V 2 # X O O   X @ X   X o @ @ 2 2 X                           O                                                                                                                                     4 x 2 1 * # @ . @ X . X X X X   X X X X X                                                                                   X                                                                                                             X                                                                                                                                 ",
"  X                                                                                                                                                                                                                                                                                                                                                       X     X X ,.K 7 # # @ @ @ O O X   o # X X : 4 @   O                                                               X               X                                                                             2 m > @ ; # # X X X X X   X X X X X X # 4 X X X                   X                                                                                                                                                                                                                                                                                                         ",
"                                                                                                                                                                                                                                                                X                                                                                           O   X w.e.n u @ @ # @ @         @ - @ * 7 6 X       X                                   O                                   X                                                                                 O 2 O X @ . X X X   X   X X X X X X # 7 N - X                                                   X       @           X                                                                                                                           X                                   X                                                                                       ",
"                                                                                                                                                                                                                                                                                                                                                          O     6 /.V 6 6 # O # X O   X   @ @ - X ; g 6 X                   X   X                 X                                                                                                                         # # X @ X X X X X   X X .   X . X o 5 g -     X   X X   X                                                                                                                                                     X                                           X                                                                                                               ",
"X                                                                                                                                                                                                                                                                                                                                                   O   O     2 /.9.n m 2 @ @ @ X X X   X   o # X 4 4 7 X                                                                                                                                                                   X 2 @ . X X X X X . X X X X       # - 4 j #       X                                                                                                                                                                                                         X                                                                                                             ",
"                                                                                                                                                                                                                                                                                                                                                      O     # E.E.7 6 V 1 @ @ X O   O O     # 1 @ - g 7                                                 X                                                                                                               X   X ; - X   X X X   X X X . X . X # o 4 f K n     X       O   X                                           X                                                                                                                                                                                                                                                                 ",
"                                                                                                                                                                                                                                                                                                                                                          X U x.m 4 4.U 1 # O O X   X O @   - 4 X # 4 4                                 O                                                                                                                                       - # # # . X X   X X   X X o # - g f n V o                                                                                                                                     X                                                                                                                                                                                       ",
"                                                                                                                                                                                                                                                                                                                                                          # e.m 6 n x.I # @ @ @ @ X X X   X - - X # 2 2 O                                       X                                                                                                       O                       @ 4 - o o X   X o X X o X . X ; n f m K f         X X                                     X                                                                                                                                                                                                                                                                           ",
"                                                                                                                                                                                                                                                                                                                          X                               f 4.2 1 I g.b - - # # # @ @ O @   - - @ * 7 -                                                           X                                                                 X                                             - - X o o o o o X X . X X o o 4 j m 9.T -                                                                                                                                                                                                                                                                                                                           ",
"                                                                                                                                                                                                                                                                                                                                                          z T I b g.4.2 # - - o - X #   o o - : # ; u 2               O             X                 X                                                                                                                       O   + , > # o - o # o - - - - - # ; 4 7 R R 5 X X X                                                                                                                                                     X                                                                                                                                                               ",
"  X                                                                                                                                                                                   X                                   X                                                                                                                               B 4.z 4.w.m 2 1 - - - # # X X o o 4 ; # 5 5 :       X     O X       O                                                                                                                   X                       X         X 2 - o o # - ; - - - - - o o 4 6 V V m :           O                     X                                                                                           X                                   X             X                     X     X                                                                                                             ",
"                                                                                                                                                                                                                                                                                                                                      O   O               x I z 4.g.V 6 # # # X X # o o X o 5 4 * g g 4       X                                                                                                                                                                       # ; # # ; o - ; - # o # - # 4 N K g 4 : X X   X                                                                                                                                           O                                                                                                                                                                     ",
"                                                                                                                                                                                                                                                                                                                                                        X z I g.E.U U 2 2 # # o # X # X o o ; - X 3 f g X                                                                                                                                                                               - - o o - o - o o # - o # 4 5 j N g N ;                                                                                                                                                                                                                                                                                                                       ",
"                                                                                                                                                                                                                                                                                                                                                        O 6 g. Xg.z 6 > - o o - - o X - o o - - & : g 5 X                                                                                                                                                                               X 2 # o o - - X # o - # # - X g j L ,.j X X                                                                                                                                                                                                                                                                                                                   ",
"                                                                                                                                                                                                                                                                                                                                        O               O w.^.z.m z 2 6 4 : ; - - o o o - ; 4 - X - f 3 .       O                                                                                                                                 O                                       O 2 X X - o o - o # o o - 3 f 5 K K V 5 X             X                                                                                                                                                                                                                                                                                                     ",
"                                                                                                                                                                                                                                                                                                                                  O           O       X 1 ^.|.z.z 7 z 1 4 4 4 ; ; # o - - 4 j - & : j 4                                                                                                                                                                               X     # # o o - - o - o o o - f f 4 : g V f X                                                                                                                                                                                                                                                                                                                   ",
"  X                                                                                                                                                                                                                                                                                                                                                     U x.h.U 6 2 > z 4 - 4 5 4 4 4 5 5 ; 4 : : g 5 #                                                                                                                                                           X                           2 - o o - - - o - # - ; 4 4 N g L U : X                                                                                                                                                                                                                                                                                                                 ",
"                                                                                                                                                                        X                                                                                                                                                                             @ j.g.4.2 6 # 2 7 7 4 : 5 4 5 t 5 j ; t ; : g 5                                                                                                                                                                                         @ 2 > @ - # X o - - - ; o ; j j N U n : X                                                                                                                                                                                                                                                                                                               ",
"                                                                                                                                                                                                                                                                                                                                                  O   7 9.E I 4 6 1 # - 2 : ; 4 t t j q : : 4 ; 5 5 #                                                                                                                                                           X                             X 2 1 # # # o o - - o o o - 4 g N N B n @                                                                                                                                                                                                                                                                                                               ",
"                                                                                                                                                                                                                                                                                                                                            O     X @ m m b I f 7 1 - 2 4 : * t t j k t t q 4 : 5 ;                                                                                                                                                                                             # 7 1 2 ; # o o o o o 4 4 ; 4 A N 7 m 2 X                                                                                                                                                                                                                                                                                                             ",
"                                                                                                                                                                                                                                                                                                                                                    O b f w.U - 4 6 6 7 f 4 t t t t t t j j ; 4 ; X                                                                                                                                                                                               7 4 - - - o # - o o - j 3 2 5 h u 6 M 6                                                                                                                                                                                                                                                                                                             ",
"                                                                                                                                                                                                                                                                                                                              X                     1 7 V ^.m 6 7 u n 7 : : h F k : t i g g ; * X                                                                                                                                                                                                 * 6 # o ; - # - o * # 5 m o 5 h R m R V 2 X                                                                                                                                                                                                                                                                                                         ",
"                                                                                                                                                                                                                                                                                                                                                  X n f w.4.6 2 7 6 g 5 4 j y.o.g g j t t 3 ; X                                                                                                                                                                                                   O 2 2 - ; 4 - ; # # o # N E 3 g Y E n E V 2                                                                                                                                                                                                                                                                                                         ",
"                                                                                                                                                                                                                                                                                                                                                  @ 2 I x.I 2 b 7 2 2 # : 5 L M q t t g t 4 o                                                                                                                                       +                     O                                         @ 6 2 ; 2 - - # - @ - 4 R M 7 K 9.K F n u @                                                                                                                                         X                                                                                                                                                             ",
"                                                                                                                                                                                                                                                                                                                                        O       O # 6 9.e.z 6 m 7 2 7 6 2 : t e h t : t j 5 .     X                                                                                                                       X                                                                           2 6 ; # ; ; # X # o o u 9.M t h K @.h 7 x O O                                                                                                 X                                                                                                                                                                                                 ",
"                                                                                                                                                                                                                                                                                                                                          O       6 U 4.V 6 2 6 6 2 6 2 6 A j ; e t e f j 2     O                                                                                                                                                 X                                                   > 7 2 2 * 4 o o o # o - A N 4 3 N x.L j T 7 X                                                                                                                                                                                                                                                                                                   ",
"  X                                                                                                                                                                                                                                                                                                                                         O O   n V T m 6 > 6 z U P 7 R R h 3 : g g 5 5 X       O                                                                                                                                           X                                                         2 6 , @ # # X o - o # ; J j 5 5 L q.N V N X                                                                                                                                                                                                                                                                                                   ",
"                                                                                                                                                                                                                                                                                                                                                2 E V E H 1 > 2 m U x A @.B 3 6 t g t : 2                                                                                                                                                                                         X                 X   # 7 , # 4 o o o - # & - H H : 6 7 q.p.N U 5                                                                                                                                                                                                                                                                                                   ",
"                                                                                                                                                                                                                                                                                                                                O         O > 2 9.P z I b 2 2 6 7 2 2 5 u t t : : : 5 5 @                 O                                                                                                                                                                                               , , # ; - # X # # - - 4 U K 5 7 N q.R R R g X                                                                                                                                                                                                                                                                                               ",
"                                                                                                                                                                                                                                                                                                                                          > 2 U j.U 9.I 6 6 > > f 6 5 5 h 4 h 5 - : 4 ;                                                                                                                                                                                                                   * 6 # ; 2 ; - o . # # ; j T n i 7 E .X,.E R o   X                                                                                                                                                                                                                                                                                           ",
"                                                                                                                                                                                                                                                                                                                                        O   # w.T 5.w.x 6 2 6 7 M 5 6 K M : 4 : : ; 3 X                                                                                                                                                                                                                   @ 2 # - 7 2 o o # # # X 4 N n V F n j.q.M K M o                                                                                                                                                                                                                                                                                             ",
"                                                                                                                                                                                                                                                                                                                                    O @ O   z x.4.U m z 2 V B 7 5 ; 5 V 5 : : 4 4 4 :                                                                                                                                                                                                                     X ; # - 6 ; # - ; , # # ; g g F Y q.o.p.h n h 5 . X                                                                                                                                                                                                                                                                                         ",
"                                                                                                                                                                                                                                                                                                                              X       @ O m |.T n V 2 > z x M x g N o.V 2 : : 5 5 f X                                                                                                                                                                                                                       2 ; - ; - o X ; 2 # : ; n R N B T F K ,.U F K u #                                                                                                                                                                                                                                                                                         ",
"                                                                                                                                                                                                                                                                                                                                      O > 5.oXg.w.n x V m n u # 3 R 0.N : ; ; : 5 2                                                                                                                                                                                                                         2 2 2 2 2 # # * 2 - - - 4 R R 7 g n h :.d.V A V B .                                                                                                                                                                                                                                                                                       ",
"                                                                                                                                                                                                                                                                                                                                    O O w.yX|.e.:.7 V R u f 7 < n B P u * # : 4 3 @                                                                                                                                                                                                                         > 6 6 2 6 # o o ; 2 4 - - n T m V K n g Y R T A R B X                                                                                                                                                                                                                                                                                     ",
"                                                                                                                                                                                                                                                                                                                                  O X # j.>XE t 7 2 7 6 6 2 u u M P R t 3 4 : 4 6 X                 X                                                                                                                                                                                                       # 7 n 2 ; X X X ; 6 2 # - 7 ,.R B Y j u V p.k.R B P M X                                                                                                                                                                                                                                                                                   ",
"                                                                                                                                                                                                                                                                                                                                  O # # E 9.n M n N E M V 6 2 7 R y.Y 3 u : : 6 2                                                                                                                                                                                                                           O 6 2 2 2 X   X . 2 4 2 7 2 K q.E K F F V E ~.e.E 9.y.2 X                                                                                                                                                                                                                                                                                 ",
"                                                                                                                                                                                                                                                                                                                          O         X 7 5.U 0.G h ,.5.E U 7 2 * o.9.B : : 3 : 6 #                                                                                                                                         X                                                                                 O 6 6 2 * X   X . # 2 2 6 6 h q.E n M U F n ,.0.F U w.6   X                         X                                                                                                                                                                                                                                                     ",
"  X                                                                                                                                                                                                                                                                                                                               @ 2 p.S.R R n T B P U N i 2 7 j.p.h 5 4 u g u o                 X                                                                                                                                                                                                         O 6 6 # X X       @ 1 2 4 g 4 m 0.F M K B N M @.H.0.0.K o     X                                   X                                                                                                                                                                                                         X                             ",
"                                                                                                                                                                                                                                                                                                                              X O 2 e.j.@.x G 5.F :.e.V K 6 6 i q.K u 3 5 h g g .                 X                 X                                                                                                                                                                                       X > 6 > @ # .   X X 7 7 2 4 5 7 q.f.L K R h u R !.h.E M t X       O                                                                                                                                                                                                                                                                       ",
"                                                                                                                                                                                                                                                                                                        X               X X O O # e.{.U B U 7 n V e.T g n g g U @.h 3 M h M h i                                                                                                                                                                                                                               # 2 > O # X X . . 6 7 n 6 5 j K ~.q.A F F U M o.S.<.@.0.N 2 X                                                                                                                                                                                                                                                                           ",
"                                                                                                                                                                                                                                                                                                                        O   O @ B 9X7Xw.R 3 = 6 B V V f 7 7 n @.U 5 5 j h N n 4                                                                                                                                                                                                                               O 6 2 X 2 : X . X 4 f g 4 5 5 4 >.e.N i K 9.M K @.F Y e.R E m X X                                                                                                                                                                                                                                                                       ",
"                                                                                                                                                                                                                                                                                                              O     X       O # x. Xl.V g 3 u T w.U U n 2 2 V p.G 5 t y 4 M F g .                                                                                                                                                                                                                           X O 2 2 @ * 2 #   o ; n g f 4 ; 4 t ,.F h h Y Y u u K E P A F R 5.@                                                                                                                                                                                                                                                                       ",
"                                                                                                                                                                                                                                                                                                                          X @ 5.0Xl.U 5 6 u R Q.0.m H f 6 6 B w.B h u u h A B N 2                                                                         O                                                                                                                                                 X   > 2 2 # ; # X X ; n j f 5 4 t 4 @.l.N n 9.@.L B B 5.@.n M N e.T 2 X                                                                                                                                                                                                                                                                   ",
"                                                                                                                                                                                                                                                                                                                            2 6XXX#.B x u q.l.E H 7 m 7 7 6 G R u n 3 t j U F R V                                                                                                                                                                                                                                 > ; X @ - X . ; 6 4 5 j 4 4 5 h q.,.B N Y y.B 3 x V F R e.e.e.e.6       .                 O                                                                                                                                                                                                                                         ",
"                                                                                                                                                                                                                                                                                                                            9.|.w.x n 6 T x.9.T m m z < 5 x 5.Y u u 5 x h U A U U X               X                 X                                                                                                                                                                                               @ @ X 2 # X 5 5 4 f j 5 4 4 4 K ,.V M N o.@.B * 3 5 F ,.@.R ,.R m ; X X         O                                                                                                                                                                                                                                                 ",
"                                                                                                                                                                                                                                                                                                                          B XX4.F B 7 * E R n V B 7 n 6 3 5 5.V 7 u u u h A K R V                                       O                                                                                                                                                                                       O   X # # # @ # f 5 f g f 4 - 5 ; 5 g g 4 h h K l.p.n * 2 n U u N ,.q.T 9.T , O                                                                                                                                                                                                                                                       ",
"                                                                                                                                                                                                                                              X                                                             X           # Q.e.z T T 2 6 :.A B R V n m z 2 i 5.P g h M u g N o.p.n                                                 X                                                                                                                                                                                   X @ O   O 7 f m m 5 4 4 - - 4 4 # 4 j j j p.Q.x.U * ; N n m ,.q.U 9.p.E 4.7 #     O                                                                                                                             X                                                                                                               ",
"                                                                                                                                                                                                                                                                                                X                       e.^.U 6 I z < U j.U B V x n m x 7 B E P Y h N u 5 K @.q.i                                                                                                                                                                                                                                             X 4 4 4 j g 4 4 - ; - - 4 4 5 t 4 N K @.Q.p.7 ; - 4 m R K B M 2 E 9.x       X                                                                                                                                                                                                   X                                       ",
"                                                                                                                                                                                                                                                                                                                      4 ~.:.m I m m 2 I h.Y I z 6 2 6 6 7 x Y @.,.N h 5 h R e.w.3                                                                                                                                                                                                                                       O     @ 1 f 7 2 4 6 # 4 4 o - 4 - - o 4 V m n q.d.H f ; # f m ,.:.f N - g H T 6   O                                                                                                                                                                                                                                           ",
"                                                                                                                                                                                                                                                                            X                                         j.w.V U z V b 2 9.4.m m 6 7 2 6 2 P P x P @.K K g g R @.R 2 @                 X                                                                 X                                                                                                                                                   O   X b m b 4 f f 7 2 f - - 4 4 - f - g G U R L t ; K j o ; U R 4 g 5 o 2 U 5.@                                                                                                                     X                                                                                                                       ",
"                                                                                                                                                                                                                                      X                                                                 O           6 9.N e.H 2 m # 1 4.U z V z 7 2 6 6 @.n i C @.L h t 5 g h n 2                                 X                                         O                                                                                                                                                                   f m f 4 f m n 4 - # - - - ; - 4 5 5 n @.K 4 2 n d.n - g ,.T j ; - V V 8.9.@                                                                                                                             X                                                                                                             ",
"                                                                                                                                                                                                                            X                                                                                 O   1 E X x R m 7 7 @ b 4.b 6 6 n n 2 7 P w.h.o.C Y A 5 4 5 g 2 m 3             X                                                                                                                                                                                                                     .           - f f - 4 g g 6 4 - - - 4 - 5 J H g m M N K 5 2 U x.U - f T :.o   ; U 7 9.U                                                                                                                                                                                                                                           ",
"                                                                                                                                                                                                                                                                                                                  z g X g m 2 P 7 2 8.T n n 7 b 7 2 7 F 0.U...U R M u 3 o 4 5 g 2                                           X                                                     X     X                                                                                                   X                                   > 6 x 2 f g 6 - - - - - - - f 9.:.7 4 f g H 6 ; 2 q.x.U o 4 K 4 @   o 2 7 R 2                                                                                                                                                                                                                                         ",
"                                                                                                                                                                                                                                                                                                          X     1 z.6 4 E V n n 2 g e.U 7 m b 2 2 1 u w.@.y.G G A j j # # 4 4 f X X             X                                                                                                                                                                                       O         X                             O 6 6 6 4 4 2 - 4 2 4 - # 4 n w.U N T V V V V 2 # 7 R d.j   m H X     4 ; U K                                                                                                           O               X                                                                                                             ",
"                                                                                                                                                                                                                                                                                                            X   n x.# 7 j.E U 6 # 7 w.m n m 7 4 2 2 F l.@.0.A i A g 4 ; ; 4 3 5 #   X                                                                     O                                                                                                                                                         X             X # 1 # > 4 2 # 1 2 - # # 7 V n n I U n U L 6 - 7 g z.d.5 1 6 O       X 2 V O                                                                                                                                                                                                                                       ",
"                                                                                                                                                                                                                                  X                                                                             w.U.6 g w.U B 2 2 e.E m n V m 2 2 # B 9.@.E M M V j t - o 5 2 2                                                                   X                                                                                                                                                                                   O # # 2 # # - - - # - # 6 7 1 6 n N f U V # ; 4 ,.x.R # @ X X       X m 2                                                                                                                                                                               X                                                       ",
"                                                                                                                                                                                                                X         X                       X                                                         O @ j.U z F U 2 2 X 7 8.I 7 2 7 7 @ O > u F e.5.B h t j 4 o # 4 4 *                                                                                                                                                                                                                           X                             @ 2 2 1 1 > 2 # @ @ # 1 6 2 2 6 V m m 7 X X ; V K R X             X 1 1                                                                                                 X                               X               X                                                                                     ",
"                                                                                                                                                                                                                                                                                  X                       O 2 w.U 7 T E V n 2 2 T I n x 7 7 3 # > z 6 A U.E n u 6 h u . o o 2 #               O             X         X       O                       X                       X                                                                                                       X                     O         X           O       X @ # # @ @ O X   X X X @ # 2 2 4 2 1 # #   ; K H X   X           O X                                                                                                       X   O                               X                                                                                           ",
"                                                                                                                                                                                                                                                                                          O             O 7 9.4.V R T n I 2 # B I 7 7 V 7 ; ; @ # 2 6 F h.U n M 5 j N X @ . 7 *                                                                                                                                                                                                                                                                     X       X X   X # * X X   @ X   X X 5 j X                                                                                                                                                                               X                                                                         ",
"                                                                                                                                                                                                                                                                                                  O O @ 6 g.g.> 6 @.9.V 6 2 m j.T n 7 7 7 2 6 X # 7 x P 0.G t n h N M ;   2 7 O                             O                                           X                                                                                                                               O           X                                 X       O         O         X @ # * # # @ .       X n #     O                                                                                                                                                                                                                                                   ",
"                                                                                                                                                                        X                                                                                                                         X O N E.w.6 2 I z.5.2 , U E.e.m x n x m 4 # X # E Y U f.B t N N L M     * x O                                                                                                                         X                                   X                                                           X         O                           O O       O             O O @ @ .           # X   X                                                                                                                                                                                                                                                     ",
"                                                                                                                                                                                                                                                                                                  O n w.I z I 4.9.h.V 6 T z.j.w.m U B 6 n 2 2 n I Y P h.y.M h N A L N X   O <                                                                                                                                                                                                                                                             O       O                                                                                                                                                                                                                                                                                                   ",
"                                                                                                                                                                                                                                                                                            X     U z.m 6 5.|.h.4.m 6 5.^.E E m V P B n 7 @ 2 w.T t B w.0.K N N h V t       O           O                                       X                                                                                                                                                                                                                                                                   X   X                                                                                                                                 X                                                                                                           ",
"                                                                                                                                                                          X                                   X                                                                               . T e.B , B j.j.P 6 B 4.z.g.V m V n n B 6 @ O 9.Q.e.A B p.d.C F N N K n             O           O     X           X   X                                                                                                                                                                                                               O               O         X                                   X                                                                                                                                 X                                                                                                                 ",
"                                                                                                                            X                                                                                                                                                           .     6 g.B z 4.h.z.w.B B |.h.4.4.P V V M V n 2 > z h.h.4.x D w.0.M 7 h L Y g                                                                                                                                                                                                                                                                   X                         O           O           O                                                                                                                                                                                                                                                           ",
"                                                                                                                                                                              X                                                                                                         O O   B b z h.e.I B I 4.E.h.4.I z.E x m m m 2 O > e.Q.5.w.w.5.5.L t h N K V m X           X                                                                                                                                                                                   O                                                           X                                                                                                                                           X               X               X                                                               X                                                                       ",
"                                                                                                                                                            X                                                                                                                               > z 6 I E.P z I z 4.^.4.z T h.P B B n 6 1 # # V Y B Y w.@.5.R h h A R H K X                   X                                                                                                                                                                                                                                                                                                                                                                                                                                                                                                                                                           ",
"                                                                                                                                                                                                                                                                                          > T 7 6 V B z z 6 > I 4.x 6 n I E B I 2 # 2 # > 6 < x 6 n D k.<.h f V K V m                                                                                                                                                                                                             X             X                                                                                                                                                                                                                                                                                                                                                     ",
"                                                                                                                                                                                                                                                                                          E 9.x B I I V B 6 B 4.T x z n B n n x 2 2 # @ , n z B x B M q.e.N g N H A 4           X               X                                                                                                                                                                                                                                                                     O                 O                                                                                                                                                                                                                                                             ",
"                                                                                                                                                                                                                                                                                      O 6 T x 6 V 6 T b z > B 5.m 2 z T K 6 7 7 2 1 @ @ T h.G.B 7 n h Y ,.A M j U K ;                   X                                                                                                                                                                                               O                                                                                                                                                                                                                                                                                                                                                             ",
"                                                                                                                                                                                                                                    X                                                   z x 6 , n B I > > > 4.B V 2 7 R m 7 m 6 @ # , 2 z.z.x.E V M M E q.V 5 7 N f                                                                                                                                                                                                                                                                                                                     O                                                                                           X                                                                                                                                                                 ",
"                                                                                                                                                                                                                                                                                      O M O + 2 n 7 6 > > 4.5.z B 2 6 n 7 z 7 # O X > n E h.j.T Y 5 i E q.K : j N -               X                                                                                                                                                                                                                                                                                                                                                               O                                                                                                                                                                                     X             ",
"                                                                                                                                                                                                                                                                              X       X 2 O X n U 6 X   # R E T 7 4 n j 7 u n @   O 2 m B Q.^.Y K 5 5 Y R n : 2 2 X                                                                                                                                                                                                                                                                                                       X                                                                                                                                                                                                                                                                           ",
"                                                                                                                                                                                                                                                                                              2 z O X   2 K b m X ; 7 2 ; f * X X O B 6 B E.z.B M 5 V K R j X         X                                                                                                                                                                                                                                                                                                                                                                                   X                                                                                                                                                                                           ",
"                                                                                                                                                                                                                                                                                                O   X   2 7 z 2 X X @ 2 - # O     # m 6 B g.9.7 5 7 h F V ; X                                                                                                                                                                                                                                                                                                                                                                                                                                                                                                                                                                                         ",
"                                                                                                                                                                                                                                                                                                    O   X n 7 O @   # 7 ; X   X   > m 6 T 5.V 2 g * 5 V 7                                                                                                                                                                                                                                                                                                                                                                                                                                                                                                                                                                                             ",
"                                                                                                                                                                                                                                                                                                          > #   O # O @ X     O   6 z > U T B * 2 # ; 4 #     X X                                                                                                                                                                                                                                                                                                                                                                                                                                                                                                                                                                                     ",
"                                                                                                                                              X                                                                                                                                                   O         O     O O       O     > 6 2 m 2 2 X - ; 2 -       X                                                                                                                                                                                                                                                                                                                                                                                                                                                                                                                                                                                       ",
"                                                                                                                                                                                                                                                                                                                                  O > 6 6 @ X   # 2 2 X O                                                                                                                                                                                                                                                                                                                                                                                                                                                                                                                                                                                             ",
"                                                                                                                                                                                                                                                                                                                                    # 6 -   .   X X X                                                                                                                                                                                                                                             X                                                                                                                               X                                                                                                                                                                                                                   ",
"                                                                                                                                                                                                                                                                                                                                      X                           X                                                                                                                                                                                                                                                                                                                                                                                                                                                                                                                                                                                   ",
"                                                                                        X                                                                                                                                                                                                     X                                                   X       O                                                                                                                                                                                                                                                                                                                                                                                                                                                                                                                                                                                           ",
"                                                                                                                                                                                                                                                                                                                                                          O                                                                                                                                                                                                                                                                                                                                                                                                                                                                                                                                                                                           ",
"                                                                                                                                                                                                                                                                                                                                                                                                                                                                                                                                                                                                                                                                                                                                                                                                                                                                                                                                                      ",
"                                                                                                                                                                                                                                                                                                                                                                                                                                                                                                                                                                                                                                                                                                          X                                                                                                                                                                                                                                           ",
"                                                                                                                                                                                                                                                                                                                X                                       X                                                                                                                                                                                                                                                                                                                                                                                                                                                                                                                                                                                             ",
"                                                                                                                              X                                                                                                                                                                                                                                                                                                                                                                                                                       X                                                   X                                                                                                                                                                                                                                                                                                                                           ",
"                                                                                                                                                                                                                                                                                                                                                                                                                                                                                                                                                                                                                                                                                                                          O                                                                                                                                                                                                                           ",
"                                                        .                                                                                                                           O                                                                         X                                                                                                                                         O                                                                                                                 X                                                                                                                                                                                 O                                                                                                     O                                                                                                 O                                 ",
"                                                                        X                                                                                                                                                                   X                               X                                           O         O                                                                                                                               X                                       O                                                             X                                                               O                                                                                                       X                                 X                                           X                           X                                             O                                   X         ",
"                                            X                                                             X                                                                                                                                                                                   O                                 O                                                                                                                                                       X                                                                                         X                                                                                                                           X                                                                                                                                                                 X                                                       O             ",
"                                                                                                                                        O                                                                                                                                                                         X                                                                                                                     X                                                                                                 X X                                                   X         X                                                             X       X                       X                               X   O                                                                                           X                                                                                                         O   ",
"                                                                                                    X                                     X                                                             X                   O       O                                   X                                                                                                                                 X                                                                                           X                           X     X                                     X   X                                                         X                                                             X                                                                                             O                                 X         X                                                                                                 ",
"                                                                                                        X   X       X                                                                                                                         X       O                                                                                     O                                                     X   X                                                                           O                           X   X             X                                                                         X                   X X               X                         X           X             X                           X                                         X                                                                                                                               X       X                     X             ",
"                                                                            O                   X                                                                 O       X                                                                                           X                                                                                                 X                                                                                                 O                                                             X                                                                 X X   X                     X     X                   X           X X                                                                                                                                                   X                                         O   O       X                                                             ",
"                                                                                                                                                                                                      X X                                                                   X                       X       O                                                                 X X       O                   X     X                                                                                                   O                                                       O                                                 X                                                                     O               X                                                                                                                                                                                                                               ",
"                        O                                                                   X                                                                             X                         X                                                           O               X       X   X             X             X                                                             O       X X     X   X                 X             X             X O       X                             X   O                               X                   X                                                 X             O                                                                                     X             O                                                                       X                                               O         X     X                                               X                                 ",
"                            X                                                         X               O               O     O   O                                                                                                                   X                                           X   X                             X                               X       O                                                           X                                       X                                                                               O                             O         X         X                   X                             X                     O           O             X               X                                             X                                         O                                                             O                                                 O           ",
"                                                        X                                                                                                                                                                       .         X             X                                   X                       X         O                             X                                     X       X               X     X                                       X       X   O       O                               O   X               X               X                                                                                                                                                                 O             O                                             X                                               .                 O                                       O                       X                     ",
"                      X                     X                                                                                                             O                         X                               X   O                                               X                                                           X                                                                                                                                                   X                         X                                                 X           X                                             X X                   O     X   O       X           X     X           X                                                   X                                                           X                                                                                                         O                       ",
"                            X         O                     O               X                                                                                                               O               X                             O           X                                         X           X                     O           X                                                                     O                                             O                                             X                           X                         O                         O         O           O         X         X         X         X               X                                                         X                                                                         X                                 O                                                 X       O                                       ",
"                                                X                                                     O     X     X                             X                           O         O                                   X                                                 O     O         X                             X                                                 X           X                               X             O           X         O             X                                   X                             O             X                         X                                     X   X                                                   X                               O                         X                     X             O                                                   X                         X                       O         X                         O                           ",
"                                                                                X                                                                                                                 O   X                   O                 O             X O                                 X                                                   O                                   X                                         X                                                   O             O                                                                               X         O                                                 X       O                           X       O                               X                                           O                   O X                       X     O                                                                 X       X                                                 ",
"                        O         X             O X     X         X       X           @   O   X                       O   X     O X     O X       X   X       X   O     X         X             O                 O       O       X               X X             O       X       X     X         X           O   X       X       X                     O O   .   O       X       X         X         O   X   X   X     X                   O     X     X       X         O       X       X     O         X           O   X   O   X       X       X X     X       O     O         O   X   X       X     X   X     X         X     O       O               X       O   X   O       O           O   X     O X O     X           O X X           O O X       X     O O       X       X       O       O       X X     X       X   O           O       X     X X       X       O X     X   X   X                     O X       X       X       X           "
};
