/* XPM */
static char *_76586b3634c4090d9bc23606cb51cb5Cv26HI6vpYVp1Zsc[] = {
/* columns rows colors chars-per-pixel */
"216 233 80 1 ",
"  c white",
". c #FD364D",
"X c black",
"o c #CD2139",
"O c #DADADA",
"+ c #FFAEC1",
"@ c #CA2038",
"# c #FF3850",
"$ c #FF364D",
"% c #959595",
"& c #FFB1C4",
"* c gray94",
"= c #989898",
"- c #FF3851",
"; c #A9A9A9",
": c #FD2E46",
"> c #C3C3C3",
", c gray62",
"< c gray34",
"1 c gainsboro",
"2 c gray55",
"3 c #CBCBCB",
"4 c gray74",
"5 c #1B1B1B",
"6 c gray51",
"7 c #FD2D45",
"8 c #E6E6E6",
"9 c #F7334A",
"0 c LightGray",
"q c #505050",
"w c #808080",
"e c #777777",
"r c gray70",
"t c DimGray",
"y c #DF2941",
"u c #373737",
"i c #EA2E45",
"p c #6C6C6C",
"a c #555555",
"s c #F6F6F6",
"d c #101010",
"f c #5F5F5F",
"g c #494949",
"h c gray15",
"j c #313131",
"k c #A22231",
"l c gray25",
"z c gray47",
"x c #FE778B",
"c c #161616",
"v c #BE2939",
"b c #951F2E",
"n c #4A1017",
"m c #DA2F43",
"M c #881D2A",
"N c #59121B",
"B c #65151E",
"V c #FE8598",
"C c #FD96AA",
"Z c #FD5A6E",
"A c #FE677C",
"S c #360B10",
"D c #FD8EA1",
"F c #FD4257",
"G c #28090D",
"H c #791926",
"J c #AF2635",
"K c #1E0609",
"L c #FE4E65",
"P c #FE9DB1",
"I c #FE7388",
"U c #FD4960",
"Y c #711821",
"T c #4E111A",
"R c #390C12",
"E c #2A090D",
"W c #000200",
"Q c #14040A",
"! c #21050B",
"~ c #FE889B",
/* pixels */
"                                                                                                                                                                                                                        ",
"                                                                                                                                                                                                                        ",
"                                                                                                                                                                                                                        ",
"                                                                                                                                                                                                                        ",
"                                                                                                                                                                                                                        ",
"                                                                                                                                                                                                                        ",
"                                                                                                                                                                                                                        ",
"                                                                                                                                                                                                                        ",
"                                                                                                                                                                                                                        ",
"                                                                                                                                                                                                                        ",
"                                                                                                                                                                                                                        ",
"                                                                                                                                                                                                                        ",
"                                                                                                                                                                                                                        ",
"                                                                                                                                                                                                                        ",
"                                                                                                                                                                                                                        ",
"                                                                                                                                                                                                                        ",
"                                                                                                                                                                                                                        ",
"                                                                                                                                                                                                                        ",
"                                                                                                                                                                                                                        ",
"                                                                                                                                                                                                                        ",
"                                                                                                                                                                                                                        ",
"                                                                                                                                                                                                                        ",
"                                                                                                                                                                                                                        ",
"                                                                                                                                                                                                                        ",
"                                                                                                                                                                                                                        ",
"                                                                                                                                                                                                                        ",
"                                                                                                                                                                                                                        ",
"                                                                                                                                                                                                                        ",
"                                                                                                                                                                                                                        ",
"                                                                                                                                                                                                                        ",
"                                                                                                                                                                                                                        ",
"                                                                                                                                                                                                                        ",
"                                                                                                                                                                                                                        ",
"                                                                                                                                                                                                                        ",
"                                                                                                                                                                                                                        ",
"                                                                                                                                                                                                                        ",
"                                                                                                                                                                                                                        ",
"                                                                                                                                                                                                                        ",
"                                                                                                                                                                                                                        ",
"                                                                                                                                                                                                                        ",
"                                                                                                                                                                                                                        ",
"                                                                     *834>0*s                                                             s*8O08*s                                                                      ",
"                                                                 *4euXXXXXXXXq60                                                      *>w<5XXXXXXdf=1                                                                   ",
"                                                               8edXXXXXXXXXXXXXXh2s                                                 3fXXXXXXXXXXXXXXXq3                                                                 ",
"                                                             *pXXXXXXXXXXXXXXXXXXXX6*                                             0uXXXXXXXXXXXXXXXXXXXq8                                                               ",
"                                                            ;XXXXXXXXXXXXXXXXXXXXXXXX;                                           6XXXXXXXXXXXXXXXXXXXXXXX4                                                              ",
"                                                           tXXXXXXXXXXXQSEXXXXXXXXXXXX<*                                       sgXXXXXXXXXXXXXXXXXXXXXXXXX=                                                             ",
"                                                         *jXXXXXXXXNJy-#$$##@bSXXXXXXXXX3                                     s5XXXXXXXXnkvi#$-#ivBXXXXXXXX2                                                            ",
"                                                        8dXXXXXXXMy##$$...$$$##@BXXXXXXXXr                                    gXXXXXXXby#$::::::$$#iMXXXXXXX;                                                           ",
"                                                       *hXXXXXXNy#$..::7777:$..$#mnXXXXXXX,                                  2XXXXXXBi$:7FAxVVxAF7:$#m!XXXXXX3                                                          ",
"                                                      suXXXXXXk#$.$:FAVDCCDxZ#7$.$#kXXXXXXX=                                0XXXXXXk#$:AP&&&&&&&&PA$:#9nXXXXXX*                                                         ",
"                                                      fXXXXXXv#..7LD&&&&&&&&&+DL:$$-m!XXXXXXr                               gXXXXXk-:LP&&++++++++&&PZ7$.nXXXXX<                                                         ",
"                                                     ;XXXXXX@#..:V&&++++++++++&&DF:.#9SXXXXXX3                             0XXXXXB-7A+&++++&&&&++++&&x7#9!XXXXX4                                                        ",
"                                                    8XXXXXXv#$.$C&++++&&&&&&++++&+A7.$9nXXXXXX8                            tXXXXXi:I&++++&+DVVC+&++++&x:$mXXXXXhs                                                       ",
"                                                    <XXXXXb#$.7~&+++&+DIAIxC+&++++&x:.$.nXXXXXj                           *XXXXXk$Z&+++&PA:7777:AP&+++&Z$#kXXXXX,                                                       ",
"                                                   >XXXXXN#$..7+++&&x-7::::7Fx+&+++&V7.$9QXXXXXp                          >XXXXXi$++++&V::......::x&++&A:$$SXXXXds                                                      ",
"                                                   5XXXXXi$...:D&&&Z7$......$:#D&+++&x7.#mXXXXXX;                         zXXXXN:V&++&V7$........$7I&&+F$.#@XXXXX,                                                      ",
"                                                  rXXXXXk#.....$IVL:...........7I&+++&A7.#vXXXXXX0                        gXXXXJF+++&C7............:ZIF$...#NXXXXX                                                      ",
"                                                  uXXXXE.$....$.::$.............7I&++++U$.#MXXXXXhs                      *XXXXXyA&++&U$.............$:$....$@XXXXX4                                                     ",
"                                                 3XXXXXJ$........................7x&++&P:.$#nXXXXXt                      8XXXXX$D&+&C7......................$nXXXXq                                                     ",
"                                                 tXXXXG.$.........................7D&++&I:.$iQXXXXX;                     >XXXXG$P&+&I:......................#JXXXXX8                                                    ",
"                                                *XXXXXk#..........................$-P+++&-..#@XXXXXX1                    ;XXXXN$D&&&L$......................$9QXXXX,                                                    ",
"                                                ;XXXXX9$...........................:Z&++&V:..#MXXXXXu                    ,XXXXY-FDPA:........................#HXXXXg                                                    ",
"                                                gXXXXN#.............................7D&+&P7..$-nXXXXXz                   %XXXXM#$:7:.........................$@XXXXX8                                                   ",
"                                               *XXXXXv$.............................$F+&&I:...$iXXXXXX>                  %XXXXM-..............................#XXXXX;                                                   ",
"                                               rXXXXX9$..............................$FxA:.....#vXXXXXc*                 %XXXXM-..............................#HXXXXf                                                   ",
"                                               fXXXXB#................................$::.......#HXXXXX<                 %XXXXY-..............................$vXXXXX                                                   ",
"                                               dXXXXJ#.$$.......................................$.EXXXXX;                ,XXXXB#..............................$iXXXXX0                                                  ",
"                                              0XXXXXy$.$$$.......................................#mXXXXXX8               ;XXXXn#..............................$$TXXXX,                                                  ",
"                                              ,XXXXR$.io@i#.......................................#kXXXXXu               4XXXXQ#...............................#MXXXXq                                                  ",
"                                              tXXXXH#$ooo@9.......................................$#NXXXXX2              0XXXXX-...............................$vXXXX5                                                  ",
"                                             suXXXXJ#.@oo@9$.......................................$iXXXXXX0             8XXXXX-$..............................$yXXXXX1                                                 ",
"                                             8XXXXXm$i@ooo..........................................#vXXXXXX             *XXXXXm$..............................$$EXXXX>                                                 ",
"                                             3XXXXX-$ioooo#......................................::$.#YXXXXXp            suXXXXv$...............................#NXXXX2                                                 ",
"                                             ,XXXXR#$yoooy$....................................$#xxF$$9!XXXXX4            fXXXXJ#...........................$$$.#bXXXXt                                                 ",
"                                             wXXXXM-.ooo@i$....................................:~&&+F$$@XXXXXX*           eXXXXM#..........................$iy9$#vXXXXl                                                 ",
"                                             gXXXXk#9ooo@9.....................................:C&+&C7.#MXXXXXg           =XXXXN#.........................$y@@@.#mXXXXX*                                                ",
"                                             XXXXXv#9@oo@$.....................................:A&++&x7.#SXXXXX,          4XXXXS#.........................$ooo@i$.XXXXX8                                                ",
"                                            sXXXXXi$i@ooo$......................................:D&++&L:$mXXXXXX1         0XXXXK9$........................$yoo@i$-XXXXX>                                                ",
"                                            OXXXXX9$y@ooy$......................................$.P&+++F$#kXXXXXu         8XXXXXy$........................$yoo@y$.nXXXX,                                                ",
"                                            4XXXXS.$moo@i$.......................................:L&++&D:$$NXXXXX2        s5XXXXm#........................$i@ooy$#HXXXX2                                                ",
"                                            ;XXXXN$.ooo@9$........................................:I&++&I7$iXXXXXX0        jXXXXv#.........................i@ooo$#bXXXXe                                                ",
"                                            =XXXXH#9@ooo..........................................$7D&++&L:.vXXXXXds       aXXXXk#.........................9@ooo.#kXXXXg                                                ",
"                                            eXXXXM#i@ooo...........................................$-++++P-$#HXXXXXe       zXXXXM#........................$9@ooo9#vXXXX5                                                ",
"                                            <XXXXb#9@o@y#...........................................:L&++&D:$9KXXXXX4      ;XXXXY#.........................9@ooo9$mXXXXX                                                ",
"                                            uXXXXJ$$ioy9$............................................7I&++&I7#oXXXXXX*     4XXXXN#..........................@oo@9$iXXXXX                                                ",
"                                            5XXXX@$.$$$$..............................................:D&++&L:#MXXXXXq     3XXXXS9$.........................ooo@9$9XXXXX*                                               ",
"                                            XXXXXm$...................................................$-+++&P.$.RXXXXX,    8XXXXXi$........................$ooo@i$9XXXXX1                                               ",
"                                            XXXXXm$....................................................:L&++&D:$yXXXXXXO    XXXXXi$........................$moo@i$9KXXXX0                                               ",
"                                           *XXXXXy$.....................................................7x&++&I7#kXXXXXj    XXXXXy$........................$yoo@i$9SXXXX>                                               ",
"                                           8XXXXXy$......................................................:C&++&U:#NXXXXXw   jXXXX@$........................$yoo@y$$nXXXX4                                               ",
"                                           1XXXXQi$......................................................$-+++&P.$9XXXXXX>  fXXXXJ#........................$y@o@y$$NXXXXr                                               ",
"                                           OXXXXQi$.......................................................:Z&++&D:$vXXXXXd* 2XXXXk#........................$y@o@y$#BXXXX;                                               ",
"                                           0XXXX!9$........................................................7x&&+&A:$MXXXXX< =XXXXb#........................$i@ooy$#YXXXX;                                               ",
"                                           0XXXXE9$.........................................................:C&++&U$$RXXXXX,rXXXXM#........................$i@ooy$#YXXXX,                                               ",
"                                           3XXXXS-$.........................................................$F+&+&P.$iXXXXXXwXXXXH#........................$i@oom$#HXXXX%                                               ",
"                                           3XXXXR#...........................................................:Z&++&~7#JXXXXXXXXXXB#.........................i@ooo$#HXXXX6                                               ",
"                                           3XXXXR$............................................................7x&++&A7#HXXXXXXXXXN$........................$i@ooo.$MXXXXw                                               ",
"                                           >XXXXn#.............................................................:C&++&U:.nXXXXXXXXT$........................$9@ooo.$MXXXXe                                               ",
"                                           >XXXXn#..............................................................F+++&P$$iXXXXXXXXN$........................$9@ooo.$bXXXXp                                               ",
"                                           >XXXXn#..............................................................:Z&++&V:#@XXXXXXXB$.........................9@ooo##bXXXXt                                               ",
"                                           >XXXXn#..$$..........................$$#$.....9.$....................#7x&+++..#JXXXXXXM#$.......................$9@ooo.#bXXXXf                                               ",
"                                           >XXXXn-.:LL7........................$vnM.$...y@o9$.....................:C&&P:..#bXXXXXk#.........................9@ooo##kXXXXf                                               ",
"                                           >XXXXn#7V&&V:......................$.WXXn9.$i@o@o#.....................$-xVF$..$#bXXXQ9$.........................9@ooo.#kXXXX<                                               ",
"                                           >XXXXn#.&+&+F$.....................$@XXXXn$$i@oo@i$......................::$.....#mbbi$..........................9@ooo.$kXXXX<                                               ",
"                                           >XXXXn#-&+++F$.....................$kXXXXXM-.o@ooo9$..............................$##$...........................9@ooo.$kXXXX<                                               ",
"                                           >XXXXn#-&+++F$....................$#YXXXXXXv#9@oo@m$.............................................................9@ooo.$kXXXX<                                               ",
"                                           >XXXXn#-&+++F$.....................#nXXXXXXQ9#y@oo@i$............................................................9@ooo.#kXXXX<                                               ",
"                                           >XXXXn#F&+++F$.....................#GXXXXXXXH#.ooooo9$...........................................................9@ooo.#kXXXX<                                               ",
"                                           >XXXXn-.&&&+$......................-QXXXXXXXX@#i@oooo$..........................................................$9@ooo.#kXXXXf                                               ",
"                                           >XXXXn#:ZPPL$......................-XXXXXXXXXX$$y@oo@y$.........................................................$9@ooo.#kXXXXf                                               ",
"                                           3XXXXR$$$77$.......................#XXXXXXXXXXH#$oooo@9$........................................................$9@ooo..bXXXXt                                               ",
"                                           3XXXXS.$...........................#XXXXXXXXXXXv#9@oooo..........................................................9@ooo..bXXXXp                                               ",
"                                           3XXXXE9$...........................#XXXXXXXXXXX!9#i@oo@y$.......................................................$9@ooo..bXXXXe                                               ",
"                                           0XXXXG9............................-QXXXXwwXXXXXB#$mooo@i$.......................................................i@ooo$#MXXXXz                                               ",
"                                           OXXXXKi$...........................-!XXXXr 5XXXXXv##ooooo9.......................................................i@ooo$#MXXXX6                                               ",
"                                           1XXXXQi$...........................#SXXXXr 0XXXXXXi#9@oooo.$....................................................$i@oom$#HXXXX2                                               ",
"                                           8XXXXXi$...........................#TXXXX,  2XXXXXN#$i@oooo.....................................................$i@ooy$#HXXXX=                                               ",
"                                           *XXXXXy$...........................-BXXXX2   jXXXXXJ#$yooo@y$...................................................$i@ooy$#YXXXX;                                               ",
"                                           sXXXXXm$...........................#MXXXXw   1XXXXXXy#$o@oo@y$...................................................y@o@y$#YXXXX;                                               ",
"                                            XXXXXm$...........................#kXXXXp    =XXXXXR$$9ooo@@i$.................................................$yoo@y$#BXXXXr                                               ",
"                                            dXXXXm$...........................#JXXXXq     gXXXXXM#$9@ooo@9$................................................$yoo@y$$NXXXXr                                               ",
"                                            5XXXX@$.$$.$......................$vXXXXh     8XXXXXXv#$i@oooo9................................................$i@o@i$.nXXXX4                                               ",
"                                            uXXXXJ#..yoy......................$mXXXXXs     rXXXXXX9$$y@oooo9................................................$yyi#$9SXXXX>                                               ",
"                                            qXXXXk#.i@o@y$....................$iXXXXXs      fXXXXXN#$$y@oo@o.$$..............................................$$..$9KXXXX0                                               ",
"                                            tXXXXb#$y@o@y$....................$.XXXXX1      s5XXXXXk#..m@oo@y#$..................................................$9XXXXX1                                               ",
"                                            6XXXXM#$y@ooy$....................$.KXXXX>       0XXXXXX@#$.oooo@y.$.................................................$iXXXXX*                                               ",
"                                            ,XXXXH#$y@o@y$.....................$nXXXX;        =XXXXXQi$$9oooo@y$.................................................$iXXXXX                                                ",
"                                            ;XXXXB#$y@o@y$.....................#YXXXX,         gXXXXXT#.$9oooooy$$...............................................$mXXXXX                                                ",
"                                            rXXXXn.$i@o@y$.....................#MXXXXe         sdXXXXXM#.#9oooo@y$...............................................$vXXXXX                                                ",
"                                            3XXXXK9$i@oom$.....................#kXXXXl          3XXXXXXv#$$9ooooo................................................#JXXXXj                                                ",
"                                            8XXXXX9$i@ooo$.....................#vXXXXX           %XXXXXXy$.$9@@@y................................................$kXXXXa                                                ",
"                                             XXXXXi$9@ooo$.....................$yXXXXX            fXXXXXK.$-$9yy9................................................#bXXXXe                                                ",
"                                             XXXXXm$9ooo@$.....................$iXXXXX1           shXXXXXN$..$$$............................................$:$..#BXXXX2                                                ",
"                                             hXXXXv$9ooo@9$....................$9GXXXX3            1XXXXXXM#...............................................:UxZ:..SXXXX,                                                ",
"                                             <XXXXk#.ooo@9......................#TXXXXr             4XXXXXXJ#.............................................$F&&&A:-XXXXX4                                                ",
"                                             wXXXXb#$ooo@i$.....................#BXXXX6              %XXXXXX@#............................................7V&+&C79XXXXX1                                                ",
"                                             %XXXXB-$moo@i#.....................#bXXXX<               fXXXXXXm#...........................................:+++&V:@XXXXX*                                                ",
"                                             rXXXX!#$yoooy$.....................$vXXXXu                uXXXXX!i#.........................................$Z&++&U$JXXXXjs                                                ",
"                                             OXXXXX-.i@ooo#.....................$oXXXXd*               *5XXXXXS9$........................................7V&+&P7#YXXXXf                                                 ",
"                                             8XXXXXi$9@ooo......................$iXXXXX1                1XXXXXXN..........................................P++&x:#RXXXXw                                                 ",
"                                             shXXXX@$.@oo@9$.....................#KXXXX4                 >XXXXXXB$$.....................................$Z&++&U$iXXXXX4                                                 ",
"                                              qXXXXJ#$ooo@i......................#NXXXX2                  rXXXXXXY$$....................................7~&+&P:$vXXXXX1                                                 ",
"                                              pXXXXM#$yoo@y$......................bXXXXt                   ,XXXXXXH#....................................:P&+&x:#HXXXXh                                                  ",
"                                              =XXXXN#$i@ooo$.....................$vXXXXj                    6XXXXXXH$#..................................:I&&+F$9GXXXXt                                                  ",
"                                              3XXXXS$.9@ooo9.....................$iXXXXXs                    zXXXXXXH$...................................:ZxF$$vXXXXX4                                                  ",
"                                              1XXXXXy$.ooo@i.....................$$XXXXX8                     pXXXXXXY$$..................................$:$$#BXXXXXs                                                  ",
"                                               dXXXXm$$yoooy$.....................$SXXXX>                      fXXXXXXB$$.....................................iXXXXX<                                                   ",
"                                               lXXXXk.$i@ooo$.....................#BXXXX;                       pXXXXXXR9#.........$.$.$.........$...........#HXXXXX4                                                   ",
"                                               6XXXXH#$9ooo@9$....................#MXXXX,                        zXXXXXXGy#........yoy9#$.$....$.$..$.......$yXXXXXhs                                                   ",
"                                               rXXXXn$$.ooo@y$....................#MXXXX%                         wXXXXXXXv-......i@o@@oyi9...99iyooi$......$BXXXXX=                                                    ",
"                                               8XXXXX9$$y@ooo#....................#MXXXX2                          =XXXXXXXb#$...$y@oooo@@@@@@@@@@o@@9.....$JXXXXXds                                                    ",
"                                                XXXXXv$$9@oo@9$...................#MXXXX2                           rXXXXXXXNi#..$9o@ooooooooooooooo@9$...#mXXXXXX,                                                     ",
"                                                pXXXXM#.$ooo@y$...................#YXXXX%                            3XXXXXXXQv#$..9io@@oooooooooo@@y$...#yQXXXXX5                                                      ",
"                                                ;XXXXQ-.$y@ooo................$$..$RXXXX,                             8uXXXXXXXYi#$.$$9iyoooooooomi9#..$#mWXXXXXX0                                                      ",
"                                                8XXXXXi#$9@oo@i$............$.iyi$$XXXXXr                               pXXXXXXXXk##$.$.$#.9999.#$$.$.$#kXXXXXXX,                                                       ",
"                                                 lXXXXk$.$moooy$............$i@o@9yXXXXX1                                ;XXXXXXXXSJ$#$.....$$.....$$-mNXXXXXXXp                                                        ",
"                                                 2XXXXS#..i@oo@9$...........#ooo@iJXXXXXs                                 8lXXXXXXXXXbi$#$$$$$$$#.#.vTXXXXXXXXf                                                         ",
"                                                 OXXXXXo$$.ooooy$..........$i@oo@$NXXXX<                                    %XXXXXXXXXXnbvyi99iy@kBXXXXXXXXXXz                                                          ",
"                                                  uXXXXY#.$i@oo@i$.........$y@o@y9XXXXX,                                     8fXXXXXXXXXXXXQGGXXXXXXXXXXXXXX;                                                           ",
"                                                  ;XXXXXy$..oooooi$..$.....$9o@@$kXXXXX8                                       3uXXXXXXXXXXXXXXXXXXXXXXXXXq8                                                            ",
"                                                   XXXXXN#.$i@ooo@yiii........9.9KXXXXq                                          >qXXXXXXXXXXXXXXXXXXXXXq3                                                              ",
"                                                   2XXXXXv#.$y@ooo@@@@m.$.......MXXXXX4                                            O6dXXXXXXXXXXXXXXXh6O                                                                ",
"                                                   *XXXXXXi$..y@ooooooo9$.....#mXXXXXh                                                0=gXXXXXXXXhe;1                                                                   ",
"                                                    ,XXXXXR9$.$io@@oo@o......#yXXXXXX3                                                    *1001*                                                                        ",
"                                                     jXXXXXn9#$$9iyomy9$..$.#m!XXXXXt                                                                                                                                   ",
"                                                     OXXXXXXGm##$$$.$$...$$#JXXXXXXd*                                                                                                                                   ",
"                                                      ;XXXXXXXYy$#$$#####9vRXXXXXXXO                                                                                                                                    ",
"                                                       6XXXXXXXXTMvmmmvkBQXXXXXXXX>                                                                                                                                     ",
"                                                        wXXXXXXXXXXXXXXXXXXXXXXXX3                                                                                                                                      ",
"                                                         ,XXXXXXXXXXXXXXXXXXXXXl*                                                                                                                                       ",
"                                                          OqXXXXXXXXXXXXXXXXX5;                                                                                                                                         ",
"                                                            >qXXXXXXXXXXXXXurs                                                                                                                                          ",
"                                                              *rzlh55hjg64*                                                                                                                                             ",
"                                                                                                                                                                                                                        ",
"                                                                                                                                                                                                                        ",
"                                                                                                                                                                                                                        ",
"                                                                                                                                                                                                                        ",
"                                                                                                                                                                                                                        ",
"                                                                                                                                                                                                                        ",
"                                                                                                                                                                                                                        ",
"                                                                                                                                                                                                                        ",
"                                                                                                                                                                                                                        ",
"                                                                                                                                                                                                                        ",
"                                                                                                                                                                                                                        ",
"                                                                                                                                                                                                                        ",
"                                                                                                                                                                                                                        ",
"                                                                                                                                                                                                                        ",
"                                                                                                                                                                                                                        ",
"                                                                                                                                                                                                                        ",
"                                                                                                                                                                                                                        ",
"                                                                                                                                                                                                                        ",
"                                                                                                                                                                                                                        ",
"                                                                                                                                                                                                                        ",
"                                                                                                                                                                                                                        ",
"                                                                                                                                                                                                                        ",
"                                                                                                                                                                                                                        ",
"                                                                                                                                                                                                                        ",
"                                                                                                                                                                                                                        ",
"                                                                                                                                                                                                                        ",
"                                                                                                                                                                                                                        ",
"                                                                                                                                                                                                                        ",
"                                                                                                                                                                                                                        ",
"                                                                                                                                                                                                                        ",
"                                                                                                                                                                                                                        ",
"                                                                                                                                                                                                                        ",
"                                                                                                                                                                                                                        ",
"                                                                                                                                                                                                                        ",
"                                                                                                                                                                                                                        ",
"                                                                                                                                                                                                                        ",
"                                                                                                                                                                                                                        ",
"                                                                                                                                                                                                                        ",
"                                                                                                                                                                                                                        ",
"                                                                                                                                                                                                                        ",
"                                                                                                                                                                                                                        ",
"OOOOOOOOOOOOOOOOOOOOOOOOOOOOOOOOOOOOOOOOOOOOOOOOOOOOOOOOOOOOOOOOOOOOOOOOOOOOOOOOOOOOOOOOOOOOOOOOOOOOOOOOOOOOOOOOOOOOOOOOOOOOOOOOOOOOOOOOOOOOOOOOOOOOOOOOOOOOOOOOOOOOOOOOOOOOOOOOOOOOOOOOOOOOOOOOOOOOOOOOOOOOOOOOOOOOOOOO",
"XXXXXXXXXXXXXXXXXXXXXXXXXXXXXXXXXXXXXXXXXXXXXXXXXXXXXXXXXXXXXXXXXXXXXXXXXXXXXXXXXXXXXXXXXXXXXXXXXXXXXXXXXXXXXXXXXXXXXXXXXXXXXXXXXXXXXXXXXXXXXXXXXXXXXXXXXXXXXXXXXXXXXXXXXXXXXXXXXXXXXXXXXXXXXXXXXXXXXXXXXXXXXXXXXXXXXXXX",
"XXXXXXXXXXXXXXXXXXXXXXXXXXXXXXXXXXXXXXXXXXXXXXXXXXXXXXXXXXXXXXXXXXXXXXXXXXXXXXXXXXXXXXXXXXXXXXXXXXXXXXXXXXXXXXXXXXXXXXXXXXXXXXXXXXXXXXXXXXXXXXXXXXXXXXXXXXXXXXXXXXXXXXXXXXXXXXXXXXXXXXXXXXXXXXXXXXXXXXXXXXXXXXXXXXXXXXXX",
"XXXXXXXXXXXXXXXXXXXXXXXXXXXXXXXXXXXXXXXXXXXXXXXXXXXXXXXXXXXXXXXXXXXXXXXXXXXXXXXXXXXXXXXXXXXXXXXXXXXXXXXXXXXXXXXXXXXXXXXXXXXXXXXXXXXXXXXXXXXXXXXXXXXXXXXXXXXXXXXXXXXXXXXXXXXXXXXXXXXXXXXXXXXXXXXXXXXXXXXXXXXXXXXXXXXXXXXX",
"XXXXXXXXXXXXXXXXXXXXXXXXXXXXXXXXXXXXXXXXXXXXXXXXXXXXXXXXXXXXXXXXXXXXXXXXXXXXXXXXXXXXXXXXXXXXXXXXXXXXXXXXXXXXXXXXXXXXXXXXXXXXXXXXXXXXXXXXXXXXXXXXXXXXXXXXXXXXXXXXXXXXXXXXXXXXXXXXXXXXXXXXXXXXXXXXXXXXXXXXXXXXXXXXXXXXXXXX",
"XXXXXXXXXXXXXXXXXXXXXXXXXXXXXXXXXXXXXXXXXXXXXXXXXXXXXXXXXXXXXXXXXXXXXXXXXXXXXXXXXXXXXXXXXXXXXXXXXXXXXXXXXXXXXXXXXXXXXXXXXXXXXXXXXXXXXXXXXXXXXXXXXXXXXXXXXXXXXXXXXXXXXXXXXXXXXXXXXXXXXXXXXXXXXXXXXXXXXXXXXXXXXXXXXXXXXXXX",
"XXXXXj,XXu,XXXXXXXXjXXXXXXXXhr4aXjXXXXXXXXXu2XXXXXXXXXXXXXXXXXXXXXXXXXXXXXXXXXXXXXXXXXXXXXXXXXXXXXXXXXXXXXXXXXXXXXXXXXXXXXXXXXXXXXXXXXXXXXXXXXXXXXXXXXXXXXXXXXXXXXXXXXXXXXXXXXXXXXXXXXXXXXXXXXXXXXXXXXXXXXXXXXXXXXXXXXXX",
"XXXXXX8XX;wXjXXXuXX8hXdhXddX4pl8d3lXdjXXXuXl4XjdXXXXXXXXXXXXXXXXXXXXXXXXXXXXXXXXXXXXXXXXXXXXXXXXXXXXXXXXXXXXXXXXXXXXXXXXXXXXXXXXXXXXXXXXXXXXXXXXXXXXXXXXXXXXXXXXXXXXXXXXXXXXXXXXXXXXXXXXXXXX5XXXXXXXXXXXXXXXXXXXXXXXXXXX",
"XXXXXX;wX8u>,r5O;>ts2f04,f8,r;lXt*=f0rrX0;3grfrXXXXXXXXXXXXXXXXXXXXXXXXXXXXXXXXXXXXXXXXXXXXXXXXXXXXXXXXXXXXXXXXXXXXXXXXXXXXXXXXXXXXXXXXXXXXXXXXXXXX,Wg6WXX5XehXcXXf;;lfX5XXcqeXXXcdX5XX5XcXgwr;5X0X,;<3f;,p;3z;2trXXXXXX",
"XXXXXXu3lrr4,3;pXfX1X8XX1p;XXw41X>X3hX>=6Xaa80XXXXXXXXXXXXXXXXXXXXXXXXXXXXXXXXXXXXXXXXXXXXXXXXXXXXXXXXXXXXXXXXXXXXXXXXXXXXXXXXXXXXXXXXXXXXXXXXXXXXXe<,f,,e=w>e,,%46wq2;2=w,=z2%Xg,=t,,;,rrj%u,=c6rX=%gwt%,cX=2j;h,XXXXXX",
"XXXXXXX>4a;zXp%6XzX1X1dX1p=X0XX0j>X>lX02%Xpf3rtXXXXXXXXXXXXXXXXXXXXXXXXXXXXXXXXXXXXXXXXXXXXXXXXXXXXXXXXXXXXXXXXXXXXXXXXXXXXXXXXXXXXXXXXXXXXXXXXXXXXc,,6e6;Xl2qej4qah4qp;XrwXe0tX2lh=X=,X;p<%hjg,,3p2l%zrg2qttqt;d,XXXXXX",
"XXXXXXX2sXh30,X>3rX3rl00wt,Xt11rX>4j006X43rlrX15XXXXXXXXXXXXXXXXXXXXXXXXXXXXXXXXXXXXXXXXXXXXXXXXXXXXXXXXXXXXXXXXXXXXXXXXXXXXXXXXXXXXXXXXXXXXXXXXXXXX%<j%zg=ppt2%tlq,=j2t%q6%<q2tg%2u%weX6a2ad=,XX6W%,uta,=W6Xg=zXwXXXXXX",
"XXXXXXXXXXXXXXXXXXXXXXXXXXXXXXXXXXXXXXXXXXXXXXXXXXXXXXXXXXXXXXXXXXXXXXXXXXXXXXXXXXXXXXXXXXXXXXXXXXXXXXXXXXXXXXXXXXXXXXXXXXXXXXXXXXXXXXXXXXXXXXXXXXXXXXXXXXXXXXXXXXXXXXXXXXXXXXXXXXXXXXXXXXfdXXXXXXXXXXXXXXXXXXXXXXXXXXXX",
"XXXXXXXXXXXXXXXXXXXXXXXXXXXXXXXXXXXXXXXXXXXXXXXXXXXXXXXXXXXXXXXXXXXXXXXXXXXXXXXXXXXXXXXXXXXXXXXXXXXXXXXXXXXXXXXXXXXXXXXXXXXXXXXXXXXXXXXXXXXXXXXXXXXXXXXXXXXXXXXXXXXXXXXXXXXXXXXXXXXXXXXXXXXXXXXXXXXXXXXXXXXXXXXXXXXXXXXX",
"XXXXXXXXXXXXXXXXXXXXXXXXXXXXXXXXXXXXXXXXXXXXXXXXXXXXXXXXXXXXXXXXXXXXXXXXXXXXXXXXXXXXXXXXXXXXXXXXXXXXXXXXXXXXXXXXXXXXXXXXXXXXXXXXXXXXXXXXXXXXXXXXXXXXXXXXXXXXXXXXXXXXXXXXXXXXXXXXXXXXXXXXXXXXXXXXXXXXXXXXXXXXXXXXXXXXXXXX",
"XXXXXXXXXXXXXXXXXXXXXXXXXXXXXXXXXXXXXXXXXXXXXXXXXXXXXXXXXXXXXXXXXXXXXXXXXXXXXXXXXXXXXXXXXXXXXXXXXXXXXXXXXXXXXXXXXXXXXXXXXXXXXXXXXXXXXXXXXXXXXXXXXXXXXXXXXXXXXXXXXXXXXXXXXXXXXXXXXXXXXXXXXXXXXXXXXXXXXXXXXXXXXXXXXXXXXXXX",
"XXXXXXXXXXXXXXXXXXXXXXXXXXXXXXXXXXXXXXXXXXXXXXXXXXXXXXXXXXXXXXXXXXXXXXXXXXXXXXXXXXXXXXXXXXXXXXXXXXXXXXXXXXXXXXXXXXXXXXXXXXXXXXXXXXXXXXXXXXXXXXXXXXXXXXXXXXXXXXXXXXXXXXXXXXXXXXXXXXXXXXXXXXXXXXXXXXXXXXXXXXXXXXXXXXXXXXXX",
"XXXXXXXXXXXXXXXXXXXXXXXXXXXXXXXXXXXXXXXXXXXXXXXXXXXXXXXXXXXXXXXXXXXXXXXXXXXXXXXXXXXXXXXXXXXXXXXXXXXXXXXXXXXXXXXXXXXXXXXXXXXXXXXXXXXXXXXXXXXXXXXXXXXXXXXXXXXXXXXXXXXXXXXXXXXXXXXXXXXXXXXXXXXXXXXXXXXXXXXXXXXXXXXXXXXXXXXX"
};
