/* XPM */
static char *dc8cfb3abeb74321d2f09334a1adb6c1uOKGkck9V1MpbzqB[] = {
/* columns rows colors chars-per-pixel */
"256 256 256 2 ",
"   c #040402",
".  c #0B0503",
"X  c #0C0904",
"o  c #0C0A08",
"O  c #160D06",
"+  c #130B05",
"@  c #1A0D05",
"#  c #140D09",
"$  c #190E09",
"%  c #130604",
"&  c #1C1206",
"*  c #16120B",
"=  c #1A110A",
"-  c #1E150E",
";  c #1B130B",
":  c #1C1A0D",
">  c #1D1511",
",  c #151106",
"<  c #23150C",
"1  c #23190D",
"2  c #2C1B0D",
"3  c #281509",
"4  c #311C0D",
"5  c #221611",
"6  c #221912",
"7  c #241C14",
"8  c #2B1D13",
"9  c #241E19",
"0  c #2A1D18",
"q  c #321E13",
"w  c #220E08",
"e  c #242215",
"r  c #2C2215",
"t  c #26231A",
"y  c #29251A",
"u  c #2A261D",
"i  c #2C231B",
"p  c #2D291E",
"a  c #2B2A1D",
"s  c #322115",
"d  c #362516",
"f  c #332214",
"g  c #392517",
"h  c #3A2315",
"j  c #3B2916",
"k  c #362519",
"l  c #33241B",
"z  c #392619",
"x  c #39261D",
"c  c #3D261A",
"v  c #342A1D",
"b  c #3A2919",
"n  c #3D291A",
"m  c #3A291D",
"M  c #3D2A1D",
"N  c #3E2D1E",
"B  c #3C2D1C",
"V  c #352A17",
"C  c #2B2621",
"Z  c #2E2A21",
"A  c #2D2C23",
"S  c #282921",
"D  c #312D22",
"F  c #322E25",
"G  c #342C23",
"H  c #3A2A21",
"J  c #3D2A21",
"K  c #3E2D21",
"L  c #3D2E25",
"P  c #3A2D23",
"I  c #332E29",
"U  c #382A24",
"Y  c #323125",
"T  c #353126",
"R  c #343223",
"E  c #3C3225",
"W  c #363229",
"Q  c #34332C",
"!  c #3A3229",
"~  c #39352A",
"^  c #3A362D",
"/  c #3D342B",
"(  c #3A392D",
")  c #3D392E",
"_  c #3C3A2C",
"`  c #36352A",
"'  c #3B3631",
"]  c #3E3A31",
"[  c #3E3D31",
"{  c #3C3B34",
"}  c #3A3935",
"|  c #2E3126",
" . c #1E1B13",
".. c #412A1D",
"X. c #412D1E",
"o. c #432C1C",
"O. c #432918",
"+. c #44311E",
"@. c #49331E",
"#. c #352215",
"$. c #412E21",
"%. c #452E21",
"&. c #412E25",
"*. c #442C24",
"=. c #442E26",
"-. c #423122",
";. c #453122",
":. c #423125",
">. c #453224",
",. c #443226",
"<. c #453125",
"1. c #473426",
"2. c #453525",
"3. c #493225",
"4. c #493526",
"5. c #4A3423",
"6. c #4C3926",
"7. c #423229",
"8. c #453229",
"9. c #463529",
"0. c #45362D",
"q. c #42352B",
"w. c #493628",
"e. c #49372B",
"r. c #4A3629",
"t. c #4D3629",
"y. c #49362D",
"u. c #4B342B",
"i. c #443A2D",
"p. c #4A3929",
"a. c #4D392A",
"s. c #4A392D",
"d. c #4D3A2D",
"f. c #4E3D2E",
"g. c #4D3D2B",
"h. c #443524",
"j. c #513A2D",
"k. c #523D2E",
"l. c #533C2B",
"z. c #523928",
"x. c #423A31",
"c. c #413D32",
"v. c #423E35",
"b. c #453C34",
"n. c #4A3931",
"m. c #4D3A31",
"M. c #4E3D32",
"N. c #4E3E35",
"B. c #4A3C33",
"V. c #433E39",
"C. c #493A34",
"Z. c #513E31",
"A. c #553E31",
"S. c #513E35",
"D. c #533B32",
"F. c #543E37",
"G. c #3E4136",
"H. c #54412D",
"J. c #5A422E",
"K. c #424135",
"L. c #454136",
"P. c #444234",
"I. c #4C4235",
"U. c #464239",
"Y. c #45443B",
"T. c #49453A",
"R. c #4A463D",
"E. c #4C433B",
"W. c #4D493E",
"Q. c #4B4A3C",
"!. c #524132",
"~. c #554132",
"^. c #524135",
"/. c #554236",
"(. c #564536",
"). c #534534",
"_. c #594536",
"`. c #594334",
"'. c #524239",
"]. c #554239",
"[. c #564539",
"{. c #53453C",
"}. c #594639",
"|. c #5A463C",
" X c #554A3D",
".X c #59493A",
"XX c #5A493D",
"oX c #5D4A3D",
"OX c #5E4D3E",
"+X c #5C4B3B",
"@X c #5B4936",
"#X c #564A37",
"$X c #624C3D",
"%X c #634A36",
"&X c #64513E",
"*X c #4B4641",
"=X c #4D4B42",
"-X c #484946",
";X c #534C43",
":X c #594A41",
">X c #5E4D42",
",X c #5E4E45",
"<X c #5B4C43",
"1X c #574B45",
"2X c #545145",
"3X c #5D5144",
"4X c #55534A",
"5X c #5C544A",
"6X c #5B5A4D",
"7X c #5D5B52",
"8X c #585855",
"9X c #4C514D",
"0X c #614E43",
"qX c #625142",
"wX c #625146",
"eX c #655546",
"rX c #645344",
"tX c #695445",
"yX c #655549",
"uX c #63544B",
"iX c #69564A",
"pX c #65594C",
"aX c #69594A",
"sX c #6A5A4D",
"dX c #6C5C4D",
"fX c #695946",
"gX c #725C4B",
"hX c #645B52",
"jX c #6A5D51",
"kX c #6B5C53",
"lX c #675B56",
"zX c #715E53",
"xX c #6D6155",
"cX c #6D635A",
"vX c #666459",
"bX c #726354",
"nX c #72655A",
"mX c #746A5D",
"MX c #7A6B5C",
"NX c #796658",
"BX c #726350",
"VX c #6A6963",
"CX c #7A6D63",
"ZX c #756B62",
"AX c #7B7164",
"SX c #7C746A",
"DX c #78756A",
"FX c #767672",
"GX c #5A6160",
"HX c #46483C",
"JX c #816D5D",
"KX c #84786B",
"LX c #847B72",
"PX c #827264",
"IX c #8D8377",
"UX c #A3958A",
/* pixels */
"sXdXKXIXKXAXsXNXmXIXIXMXLXnXUXKXUXIXJXKXJXjXOXaXKXkXkX,XeXbXoXNXbXJXMXbXIXKXJXJXJXNXNXsXzXuX1XlXuX#X>XwXbXIXPXNXCXNXMXbXpXnXdXPXZXIXUXIXKXMXaXfXBXBXPXqXeXrXtXtXdX&XiX$X(.dXPXzXCXmXcXnXUXBXMXJXKXKXJXNXPXPXNXKXNXKXNXJXBXPXZXcXpX<X'.iXXXyXuX/.rXPXxXnXKXJXBXdXsXdXKXIXKXAXsXNXmXIXIXMXLXnXUXKXUXIXJXKXJXjXOXaXKXkXkX,XeXbXoXNXbXJXMXbXIXKXJXJXJXNXNXsXzXuX1XlXuX#X>XwXbXIXPXNXCXNXMXbXpXnXdXPXZXIXUXIXKXMXaXfXBXBXPXqXeXrXtXtXdX&XiX$X(.dXPXzXCXmXcXnXUXBXMXJXKXKXJXNXPXPXNXKXNXKXNXJXBXPXZXcXpX<X'.iXXXyXuX/.rXPXxXnXKXJXBXdX",
";.4.y.PXCX{.9.~.t.B 2.rX).2.:.eX/.p.k.3.w.oX$Xj.UXIXKX{.eX$X&X@X&X+XtX+X%X%XtXgXfXtX&XoXtXUXcXhXyX!./.k.+X}.[..XXXsX:Xs.].Z.M.Z.0.S.UXIXxXh.(._.J._.&X@X&XtXgX&X%XtX&Xl.J.@Xz.$XdXzX^.d.(.H.J.&X@XtX&XtXgXeXtXrX$X%X%X%X&XaXkX1X>.:.N d.d.>.<.$Xa.m.D.K s z +.t.;.4.y.PXCX{.9.~.t.B 2.rX).2.:.eX/.p.k.3.w.oX$Xj.UXIXKX{.eX$X&X@X&X+XtX+X%X%XtXgXfXtX&XoXtXUXcXhXyX!./.k.+X}.[..XXXsX:Xs.].Z.M.Z.0.S.UXIXxXh.(._.J._.&X@X&XtXgX&X%XtX&Xl.J.@Xz.$XdXzX^.d.(.H.J.&X@XtX&XtXgXeXtXrX$X%X%X%X&XaXkX1X>.:.N d.d.>.<.$Xa.m.D.K s z +.t.",
"%.X.u.MX;XE.g 3.k.~.e.w.!.eXM m p.s.a.t.3.t.a.6.,X[.AXOXe.j.`.J.$X%Xk.J.%X&X@X~._.k.~.~.p.MXpXq./.4.j.j.w._.s.0.y.XX8.8.'.2.:.m J 2 N. X3XI.-.+X@XH.@X@X&X%X%X%X$XJ._.J.tX@.tXgXaX<Xn.M.OX@X_.Z.Z.1.6.$X+XrXf.H.OX@X$XtX&XBX;XL.d.>.>.3.2.p.X.b <.Z.r.f.e.&.X.+.%.X.u.MX;XE.g 3.k.~.e.w.!.eXM m p.s.a.t.3.t.a.6.,X[.AXOXe.j.`.J.$X%Xk.J.%X&X@X~._.k.~.~.p.MXpXq./.4.j.j.w._.s.0.y.XX8.8.'.2.:.m J 2 N. X3XI.-.+X@XH.@X@X&X%X%X%X$XJ._.J.tX@.tXgXaX<Xn.M.OX@X_.Z.Z.1.6.$X+XrXf.H.OX@X$XtX&XBX;XL.d.>.>.3.2.p.X.b <.Z.r.f.e.&.X.+.",
"z n z {.q.U l $.#.b p.1.$.f.e.B b N -.n d k n >.,XD #XB.H n M X.N N -.+.;.n K B -.-.+.4.B p.B./ d.#.M z H E L H P n.L x H r v l s < 0.E.! B.l H z n $.>.>.w.9.;.r.;.-.m d.d Z.w.'.P q.k B k k k k M b N x $.9.w.2.>.t.A.1.!.i./ d m s z #.m j z s m 7.J k f x q z n z {.q.U l $.#.b p.1.$.f.e.B b N -.n d k n >.,XD #XB.H n M X.N N -.+.;.n K B -.-.+.4.B p.B./ d.#.M z H E L H P n.L x H r v l s < 0.E.! B.l H z n $.>.>.w.9.;.r.;.-.m d.d Z.w.'.P q.k B k k k k M b N x $.9.w.2.>.t.A.1.!.i./ d m s z #.m j z s m 7.J k f x q ",
"$ = O 5 ; # + O $ , O ; , , O O O + @ = O O O O O , O , , O O O O * + + O , O O # O @ @ O ; = $ = O $ + O + O O O O O O O O O + # O * - # O = $ = $ ; $ O $ O O O + + + O + O + # $ O + O O $ O + O # , O $ + O = O O O $ = * * + O + O O O O O O + @ O $ + O O $ = O 5 ; # + O $ , O ; , , O O O + @ = O O O O O , O , , O O O O * + + O , O O # O @ @ O ; = $ = O $ + O + O O O O O O O O O + # O * - # O = $ = $ ; $ O $ O O O + + + O + O + # $ O + O O $ O + O # , O $ + O = O O O $ = * * + O + O O O O O O + @ O $ + O O ",
"7 7 5 > - - ; ; - - - - ; * > ; = ; = - ; & = = O ; ; = ; ; * * ; 7 > ; ; = - ; ; = ; = ; = ; ;  .1 0 6 7 9 7 ; 1 - - ; - - - - 6 - * ; - = - ; 7 > - 6 - ; ; - ; = ; * = & = ; - $ = ; - = - - = = * * $ * , $ = = = $ 6 - ; ; ; 7 0 < - ; 7 - O ; - - - - - < 7 7 5 > - - ; ; - - - - ; * > ; = ; = - ; & = = O ; ; = ; ; * * ; 7 > ; ; = - ; ; = ; = ; = ; ;  .1 0 6 7 9 7 ; 1 - - ; - - - - 6 - * ; - = - ; 7 > - 6 - ; ; - ; = ; * = & = ; - $ = ; - = - - = = * * $ * , $ = = = $ 6 - ; ; ; 7 0 < - ; 7 - O ; - - - - - < ",
"8.L J P m l x m H m L H 5X! 8 2 2 8 8 8 1 d 2 q 8 < 5 8 8 v 1 @ < 1X! 0 i r 2 k k s l d q 1 w < < - 1 6 1 8 ;Xq.0 l b d H v s x < U l l 8 8 r < 1 P x U q.N.i 5 1 & < < 2 q 8 8 < 1 < < < < 7 1 8 l ! p - i 8 1 1 1 2 8 8 l i l L v l L P E 7.cXx.U L :.L l x H 8.L J P m l x m H m L H 5X! 8 2 2 8 8 8 1 d 2 q 8 < 5 8 8 v 1 @ < 1X! 0 i r 2 k k s l d q 1 w < < - 1 6 1 8 ;Xq.0 l b d H v s x < U l l 8 8 r < 1 P x U q.N.i 5 1 & < < 2 q 8 8 < 1 < < < < 7 1 8 l ! p - i 8 1 1 1 2 8 8 l i l L v l L P E 7.cXx.U L :.L l x H ",
"4.(.d.>.3.%.3.>.X.N r.&.bX0.>.3.5.@.5.h ..l.6.5.+.A.X.d #.B k.$.2 AXx.Z l 9.7.$.4.a.j.f.%.d.J J $.&.H H 2.M.nX3Xl e.+X6.p.p.w.$X..f.$X$X+XZ.J s XX0X^.{.XXsXE l x k J K X...X.-.N $.M &.m s x l m L C.x.7 P L :.:.&.K y.a.J :.n.:.e.m :.B w.m jXC.P M.^.K >.3.;.4.(.d.>.3.%.3.>.X.N r.&.bX0.>.3.5.@.5.h ..l.6.5.+.A.X.d #.B k.$.2 AXx.Z l 9.7.$.4.a.j.f.%.d.J J $.&.H H 2.M.nX3Xl e.+X6.p.p.w.$X..f.$X$X+XZ.J s XX0X^.{.XXsXE l x k J K X...X.-.N $.M &.m s x l m L C.x.7 P L :.:.&.K y.a.J :.n.:.e.m :.B w.m jXC.P M.^.K >.3.;.",
"p.a.}._.l.f.a.a.f.p.j.p.bXE Z.!.J.H.z.J.+.g.5.k.-.z -...d 2.M Z.z xXE.I x.v 7.b >.$.w.N w.~.N K m K 8.:.M e.MX3XB.:.).$Xa.;.K ~.d.@X$XoXd.A.%.,.&.).].}.0XyXM.k :.b b $.N n N z z K z :.k s s r 0 l ! T - v v P 7.s.:.d m P &.9.].!.&.<.t.t.&.<XE.P N./.[.Z._.+Xp.a.}._.l.f.a.a.f.p.j.p.bXE Z.!.J.H.z.J.+.g.5.k.-.z -...d 2.M Z.z xXE.I x.v 7.b >.$.w.N w.~.N K m K 8.:.M e.MX3XB.:.).$Xa.;.K ~.d.@X$XoXd.A.%.,.&.).].}.0XyXM.k :.b b $.N n N z z K z :.k s s r 0 l ! T - v v P 7.s.:.d m P &.9.].!.&.<.t.t.&.<XE.P N./.[.Z._.+X",
"r 6 8 l l i i r r s k q {.; 8 1 V d 2 4 4 3 3 8 < ; 1 1 1 - 7 i i W D * 6 ; < 6 8 & 1 r 2 2 5 8 1 < 5 8 3 6 i.P i ; 8 l U < 5 1 l v &.l 1 1 r 7 - 5 s k 8 0.s < ; = & < w < w & @ = ; - = = O O = -  .* + + $ - = - < & @ = = < - ; 8 2 < < < v 7 : p i r r r 8 r 6 8 l l i i r r s k q {.; 8 1 V d 2 4 4 3 3 8 < ; 1 1 1 - 7 i i W D * 6 ; < 6 8 & 1 r 2 2 5 8 1 < 5 8 3 6 i.P i ; 8 l U < 5 1 l v &.l 1 1 r 7 - 5 s k 8 0.s < ; = & < w < w & @ = ; - = = O O = -  .* + + $ - = - < & @ = = < - ; 8 2 < < < v 7 : p i r r r 8 ",
"                  t ).^.B.P P U P p s.m P i.N.{.e                               0 E.'.B.P P m P l I.P L N.^.{.i                                 . i  X[.I.L :.L ! Z !.K L '. X:XC .                               u :X{.1 @ 5 8 0 r g.K L N.'.{.y                                 t ).^.B.P P U P p s.m P i.N.{.e                               0 E.'.B.P P m P l I.P L N.^.{.i                                 . i  X[.I.L :.L ! Z !.K L '. X:XC .                               u :X{.1 @ 5 8 0 r g.K L N.'.{.y               ",
"                  D aXw.r < 8 l i 8 P 8 < r p.pXG                               v sX0.q < 8 p r 0 T 8 5 s s.kXU                                   G jXg.#.1 8 v i i :.8 1 l Z.kXW                               . I xXf.8 @ 5 r i r L 8 1 f d.sXD                                 D aXw.r < 8 l i 8 P 8 < r p.pXG                               v sX0.q < 8 p r 0 T 8 5 s s.kXU                                   G jXg.#.1 8 v i i :.8 1 l Z.kXW                               . I xXf.8 @ 5 r i r L 8 1 f d.sXD               ",
"                  b.iX9.1 . . .   . . .   1 9.pXb.                .           . n.aX8.1         . . .   7 L uXx..                   .           . L.sXs.6   . .   X X . . - 8 P 7                               . U.sXs.6   . X   . . . . 6 9.aXb..                               b.iX9.1 . . .   . . .   1 9.pXb.                .           . n.aX8.1         . . .   7 L uXx..                   .           . L.sXs.6   . .   X X . . - 8 P 7                               . U.sXs.6   . X   . . . . 6 9.aXb..             ",
"      . . .     . b.LXoX6           X .   5 XXKXL.              .     .       . b.KX:X5           o .   - v  XG .                   . .         . I.KX<X6   . X     o . . , 8 b.7 . .               .         . . U.KX>X6   . .     o .   6 oXKXb..                   . . .     . b.LXoX6           X .   5 XXKXL.              .     .       . b.KX:X5           o .   - v  XG .                   . .         . I.KX<X6   . X     o . . , 8 b.7 . .               .         . . U.KX>X6   . .     o .   6 oXKXb..             ",
"X o # X X . X X . 7 B.L 6 . + X X X + X . 7 Z.qXi X X . . X X X . . X X X X o X l qXZ.1   + X . X o o   6 r 7 - % . X X X X X . X X X o X . X X . p rX^.7 . # X . X + + . 7 s.#Xi . X X . X . X . + X X . X . . . p rX!.7   + X . X + X . 7 M.qXi . X X   . X   X o # X X . X X . 7 B.L 6 . + X X X + X . 7 Z.qXi X X . . X X X . . X X X X o X l qXZ.1   + X . X o o   6 r 7 - % . X X X X X . X X X o X . X X . p rX^.7 . # X . X + + . 7 s.#Xi . X X . X . X . + X X . X . . . p rX!.7   + X . X + X . 7 M.qXi . X X   . X   ",
"X + * # * o O X X  .5 ; - . X X o X . + . r p.[.q.X + + o o X o o % % X X X # O h.}.p.8 . X o o o o + . 8 K p.E + X + X X + + X % + # X % + * + # ) .Xp.r . X X o X X X . r p.#X0.% X + + + # + + + X . + + X + X q..Xg.r . X X o X . + . r p.[./ X X X X X X o X + * # * o O X X  .5 ; - . X X o X . + . r p.[.q.X + + o o X o o % % X X X # O h.}.p.8 . X o o o o + . 8 K p.E + X + X X + + X % + # X % + * + # ) .Xp.r . X X o X X X . r p.#X0.% X + + + # + + + X . + + X + X q..Xg.r . X X o X . + . r p.[./ X X X X X X o ",
"O # + + o X + * , b.n.H l X $ * o X ; * % l p.!.N.+ + X # + * - * # > + + X + + N.^.p.#.X # * o o > # % k p.^.I.O + + # $ + # # % + O + O # + + O ! 7.L 0 X $ * o o ; * X f p.).I.O # O $ # * = 6 O * X O # + + % E.).d.d + , * o o - # X ; 1 0 6 O + X + # + # O # + + o X + * , b.n.H l X $ * o X ; * % l p.!.N.+ + X # + * - * # > + + X + + N.^.p.#.X # * o o > # % k p.^.I.O + + # $ + # # % + O + O # + + O ! 7.L 0 X $ * o o ; * X f p.).I.O # O $ # * = 6 O * X O # + + % E.).d.d + , * o o - # X ; 1 0 6 O + X + # + # ",
"O O + % . X . % X I.f.j.H + ; * X * 6 ; % v k.Z.N.% . . X + X , > + # + . . . . M.Z.Z.b + ; = X * 6 > + x D.k.M.+ . X . + + % + + + + O + % + # + 7 < 8 - % = * + * 7 - + m Z.!.I.O + O + O = O ; 7 = # + . . . . '.Z.~.m + ; * X * 6 = X O < 0 i , + + + + + + O O + % . X . % X I.f.j.H + ; * X * 6 ; % v k.Z.N.% . . X + X , > + # + . . . . M.Z.Z.b + ; = X * 6 > + x D.k.M.+ . X . + + % + + + + O + % + # + 7 < 8 - % = * + * 7 - + m Z.!.I.O + O + O = O ; 7 = # + . . . . '.Z.~.m + ; * X * 6 = X O < 0 i , + + + + + + ",
"O = ; = O O + . O uX_.k.l O 1 6 $ # 6 1 @ r k._.wXO # * + O ; ; > - = * + X % . 5X(.f.f @ 6 6 $ # 6 1 @ q k.(.wX% X O - ; ; $ O O = = $ O $ - = = 3X].M.r O - 6 $ # 6 1 @ s !.}.5XO # ; 5 - 6 8 - 7 # X + + . . % uX_.A.s @ 1 6 # # 6 1 O 0 M.[.3X; $ ; ; > $ = O = ; = O O + . O uX_.k.l O 1 6 $ # 6 1 @ r k._.wXO # * + O ; ; > - = * + X % . 5X(.f.f @ 6 6 $ # 6 1 @ q k.(.wX% X O - ; ; $ O O = = $ O $ - = = 3X].M.r O - 6 $ # 6 1 @ s !.}.5XO # ; 5 - 6 8 - 7 # X + + . . % uX_.A.s @ 1 6 # # 6 1 O 0 M.[.3X; $ ; ; > $ = ",
"< & < & = O + + % uXPX!.2 & 8 0 * X - e < q B :XE * * O > ; - 6 9 * 1 $ O + O + 0.B.U 2 & 7 7 = X : r w q f.AX<XX + O ; O = - O = = O & < < - ; ; 3XPX!.8 & 7 8 = X : 8 < 2 f.JX<X+ # ; ;  .1 i 7 i = . + O + . + wXPX!.8 & 7 8 ; X - e < s k.JX<X= $ 6 ; 7 9 - < & < & = O + + % uXPX!.2 & 8 0 * X - e < q B :XE * * O > ; - 6 9 * 1 $ O + O + 0.B.U 2 & 7 7 = X : r w q f.AX<XX + O ; O = - O = = O & < < - ; ; 3XPX!.8 & 7 8 = X : 8 < 2 f.JX<X+ # ; ;  .1 i 7 i = . + O + . + wXPX!.8 & 7 8 ; X - e < s k.JX<X= $ 6 ; 7 9 - ",
"r i 7 > # > ; * = {.nX9.1 ; :.w.E 7 > i h.8 1 v i # # # O 9 0 9 p * ; # + # # > 0 6 0 = & K 0.E 7 > l 2.k m bX^.+ X X X = * * 6 l 0 - 6 7 7 > > 8 {.bX2.< < :.9.E 7 5 s ,.d z nXW.X X o * # - * 6 Z G 6 i 9 7 > $ {.nX9.< < :.9.E 6 5 i r 3 z bXE.# + o 6 * = 6 r i 7 > # > ; * = {.nX9.1 ; :.w.E 7 > i h.8 1 v i # # # O 9 0 9 p * ; # + # # > 0 6 0 = & K 0.E 7 > l 2.k m bX^.+ X X X = * * 6 l 0 - 6 7 7 > > 8 {.bX2.< < :.9.E 7 5 s ,.d z nXW.X X o * # - * 6 Z G 6 i 9 7 > $ {.nX9.< < :.9.E 6 5 i r 3 z bXE.# + o 6 * = 6 ",
"g.r ! p ; 9 # * * b.L I.r f tX&X3XE v I.[.M M L / O $ > - 5 i i 7 6 - = # * O 6 W.D n.r s rXrXwX/ v !._.$.-.,.B., * * 6 e 8 l v L {.> 6 6 - ; $ - 1XE M.i s rXrXqXE v !.(.X.%.1.L.X X . ; 6 ; - 6 ; # p Z # * # O ;XE M.s f rXrXwXE v I.v 1 K :.B.+ * $ 6 1 8 l g.r ! p ; 9 # * * b.L I.r f tX&X3XE v I.[.M M L / O $ > - 5 i i 7 6 - = # * O 6 W.D n.r s rXrXwX/ v !._.$.-.,.B., * * 6 e 8 l v L {.> 6 6 - ; $ - 1XE M.i s rXrXqXE v !.(.X.%.1.L.X X . ; 6 ; - 6 ; # p Z # * # O ;XE M.s f rXrXwXE v I.v 1 K :.B.+ * $ 6 1 8 l ",
"d b U E - = # # + - - i 7 8 l s s l i e r s 8 7 7 X X + O ; = - ; < - ; # X . % ! 7 ; & 8 < & & 7 r s d z s 8 6 + # = 1 < 2 4 2 2 :X/ t O & O + X R.q.r ; 1 8 q l l r r f N m 8 9 # # * . X = + @ @ % . + % . X . E.B.U r 8 8 1 8 0 1 6 & ; 8 - 7 $ ; = - L k z d b U E - = # # + - - i 7 8 l s s l i e r s 8 7 7 X X + O ; = - ; < - ; # X . % ! 7 ; & 8 < & & 7 r s d z s 8 6 + # = 1 < 2 4 2 2 :X/ t O & O + X R.q.r ; 1 8 q l l r r f N m 8 9 # # * . X = + @ @ % . + % . X . E.B.U r 8 8 1 8 0 1 6 & ; 8 - 7 $ ; = - L k z ",
"b N l l 0 : $ $ + = 6 6 O = - 1 - - 5 ; = i 1 + 6 X X * O - 1 7 & 1 = O + . . O G x.L @ 6 7 6 > * 5 7 r G l = Z X # = , - 1 2 V 3 E ! G & 1 1 & O / {.B.O 6 ; = $ = > - 5 G 0 O t X X + O 6 @ w 8 & < 1 w O O % + ! 1X'.; 6 ; O # , + + + O - O F + ; 7 - r s.9.b N l l 0 : $ $ + = 6 6 O = - 1 - - 5 ; = i 1 + 6 X X * O - 1 7 & 1 = O + . . O G x.L @ 6 7 6 > * 5 7 r G l = Z X # = , - 1 2 V 3 E ! G & 1 1 & O / {.B.O 6 ; = $ = > - 5 G 0 O t X X + O 6 @ w 8 & < 1 w O O % + ! 1X'.; 6 ; O # , + + + O - O F + ; 7 - r s.9.",
"N p.:.r 7 y = = + i ].e.v 1 6 0 5 $ 7 r & s d.qX0 o + O $ 1 7 < 1 1 < @ X + + O E yXf.b 8 0 i 6 = r P 2 z a.uXt + X # = & 8 V 2 k =.i G - 7 < @ # L aXk.V 8 8 r  .= 0 K 8 V p.OX9 o X O - @ 8 1 8 #.2 8 3 & = . + 5 ^.K r - 8 8 - * 0 v 1 d d.qX0 # # 9 i l r 0.N p.E r 7 y * = + i }.s.v 1 7 0 5 $ 7 r & s d.qX0 o + O $ 1 7 < 1 1 < @ X + + O E yXf.b 8 0 i 6 = r P 2 z a.uXt + X # = & 8 V 2 k =.i G - 7 < @ # L aXk.V 8 8 r  .= 0 K 8 V p.OX9 o X O - @ 8 1 8 #.2 8 3 & = . + 5 ^.K r - 8 8 - * 0 v 1 d d.qXt # # 9 i l r 7.",
"V B k 7 = 5 # = + 0.tXj.f 2 d H l 8 r N z +.H.tXG # # 7 7 r E L 6 6 6 0 $ X X . i.fXA.h 4 k P k s m $...@.H.yXv + # + & < 8 l v J 7.q.! ; - $ - + 0.tXH.d 2 z N v i M +.M %.H.rXD % # > / L l 2 2 8 3 s l @ = + X = & & @ & k P v i m N o.+.H.rXG . * o * - 0 i b B l 8 = - # = + 0.tXj.f 2 d H l 8 r N z +.H.tXG # # 7 7 r E L 6 6 6 0 $ X X . i.fXA.h 4 k P k s m $...@.H.yXv + # + & < 8 l v J 7.q.! ; - $ - + 0.tXH.d 2 z N v i M +.M %.H.rXD % # > / L l 2 2 8 3 s l @ = + X = & & @ & k P v i m N o.+.H.rXG . * + * - 0 i ",
"s 1 7.v r v O + + L tXa.6..XgXdXf.i.BXgXBX%XH.wXv * # * > 8 v  X;X! 0 = 7 , ; % B yXz.6.}.dXdXZ.+XJXgXBX%XH.rXv Z 7 0 i 8 E x U 7.$.B 0.{./ q.L i E tXz.6.+XgXdX!.XXJXgXBX%XH.rXl > ; u ; T :.<X{.yXB.! U ! i 5 # 7 0.f d (.aXdX^.<XJXgXgX%XH.rXl > - ; - ; 6 5 l 1 q.v r v O + + P tXa.6.+XfXdXf.i.BXgXBX%XH.wXv * # * > 8 v  X;X! 0 = 7 , ; % B yXz.6.}.dXdXZ.+XJXgXBX%XH.rXv Z 7 0 i 8 E x U 7.$.B 0.{./ q.L i E tXz.6.+XgXdX!.XXJXgXBX%XH.rXl > ; u ; T :.<X{.yXB.! U ! i 5 # 7 0.f d (.aXdX^.<XJXgXgX%XH.rXl > - ; - ; 5 6 ",
"w 3 8 < < 2 < - % 7.9.$.4.w.>.-.d v p.2.p.5.$.9.E + . O # @ & k B.i.8 2 2 3 < < 7.9.X.5.h.>.-.d 2.d.4.6.5.$.0.E 8 O X = 2 @ w @ b B n z B K K 8 1 / 9.X.4.2.>.+.l q.g.5.p.5.$.9.E + ; X * X % r L f 7 O 1 & < < ; E 9.$.2.1.1.;.l 9.a.5.6.5.$.9.7.1 = O ; & 3 w < 2 2 2 1 1 < & + E 8.X.>.4.5.-.d v p.2.p.5.$.9.E + . O # @ & k B.i.8 2 2 3 < < 7.9.X.5.h.>.-.d 2.d.4.6.5.$.0.E 8 O X = 2 @ w @ b B n z B K K 8 1 / 9.X.4.2.>.+.l q.g.5.p.5.$.9.E + ; X * X % r L f 7 O 1 & < < ; E 9.$.2.1.1.;.l 9.a.5.6.5.$.9.7.1 = O ; & < w ",
"n 3 4 4 w 3 & < $ './ & P 7.i i C r 8 s 7.P ; q.{.< < & 8 1 w m / 1 r q 2 4 2 3 './ & U L i r l l 8 i / U = q.{.8 i & @ 2 f w q -.M $.B z k 8 < 1 {.q.; L / i i l i 8 s 7.P ; 7.{.& 6 1 1 1 r q l l i @ 2 2 2 2 8 '.7.& K E l i i i 8 s 7.P & / {.1 < < < 2 q j g s #.#.f q 2 1 1 n./ 7 P 7.i i C r 8 s 7.P ; q.{.< < & 8 1 w m / 1 r q 2 4 2 3 './ & U L i r l l 8 i / U = q.{.8 i & @ 2 f w q -.M $.B z k 8 < 1 {.q.; L / i i l i 8 s 7.P ; 7.{.& 6 1 1 1 r q l l i @ 2 2 2 2 8 '.7.& K E l i i i 8 s 7.P & / {.1 < < w 2 4 b ",
"+X(.tXdXyXOXB.e./ <X5X/ E.N.cX5XhX#XI. XI./ U :XmX'. Xn.B.(.s.+XaXOXqXOXbXaX+XOXeX:XL U ! G p G U l / ' ) b.uX,X X<X|.[.B.OX/.OXqXNXKXNXdXOX].M.f. X{.1 7 r l l l 6 i l i l l N.5X{.E.[.dX(.OX>X.Xs.q.U f..X).OXi.#Xn.r 8 v Z u 0 6 5 l i 0 7 ! b.^.^.M.[.s.1.3.>.;.p.M.s.,.m v G b.I.P x.C.hX3XhX#XI. XI./ U :XmX'. Xn.B.(.s.+XaXOXqXOXbXaX+XOXeX:XL U ! G p G U l / ' ) b.uX,X X<X|.[.B.OX/.OXqXNXKXNXdXOX].M.f. X{.1 7 r l l l 6 i l i l l N.5X{.E.[.dX(.OX>X.Xs.q.U f..X).OXi.#Xn.r 8 v Z u 0 6 5 l i 0 7 ! B.^.^./.0XXX+X_.",
"q 8 s  XN.v 1 8 6 = & 8 6 > $ 0 1 < 1 < < 2 s 8 1X1X1XE T H E m :.-.L H K -.h.:.k 8 5 - - x.i 7 r 1 7 1 8 8 0 r l q.b s H x r s 8 8 1XW.C.r z B k r 0 < ; ; < ; - - < ; < ; 1 v / i.v v m m m B 8 1 @ 1 l L P m V 2 2 < 1 1 - = $ O O @ O # # 6 6 r l q 8 r s k x v H i.0.P l s r 7 8 r 0 7 - 0 1 < 1 < < 2 s 8 1X1X1XE T H E m :.-.L H K -.h.:.k 8 5 - - x.i 7 r 1 7 1 8 8 0 r l q.b s H x r s 8 8 1XW.C.r z B k r 0 < ; ; < ; - - < ; < ; 1 v / i.v v m m m B 8 1 @ 1 l L P m V 2 2 < 1 1 - = $ O O @ O # # 6 6 r l q < 1 2 s ",
"v P i G Z x.G v r l l E L W 7.] E ! 7./ E / P v U T p P H i y 7 6 v 0 7 7 l v l P / * 0 6 ; - D 7 1 r - 6 r 7 8 E R t G y 8 i.k 9 7 9 i  .> 7 7 0 v 0 v C i t G ! i T ~ t 0 u 9 t 9  .> - G 7 7 9 ; 9 > > 9 i l i 7 0 l r i C l P 0 i 8 - 7 7 7 9 7 i r 7 0 7 r 8 0 0 i i i 0 8 6 7 0 v U G ! ) E ! 7./ E / P v U T p P H i y 7 6 v 0 7 7 l v l P / * 0 6 ; - D 7 1 r - 6 r 7 8 E R t G y 8 i.k 9 7 9 i  .> 7 7 0 v 0 v C i t G ! i T ~ t 0 u 9 t 9  .> - G 7 7 9 ; 9 > > 9 i l i 7 0 l r i C l P 0 i 8 - 7 7 7 9 7 i s 0 l u G ",
"% o X o . X o # o # o X . X o # . % X X X o . X . o X o . X o # # # o . o X o X X # # o X % . X o . o o o . . . o o o X o * o . . . . . o + . X . X o . . o . . % . o o o . X . . . * * X . X % o o . . o o o . . . o X o o o o o . + # # o # * > o # # X # # # o + + # X # # + + % o + # o o # . o . . o # X . . o . o o   . .   .   . . . . . . . . .   . X . . . . o o o . . . . . . . . o   . X o o . .   . o . . . . . X . . . . o o . . . # X o o X o o # o . . o o X X o . . . . X o . . . . . . o o . . X .   . . .   . ",
"> # ; - ; 5 - * > 6  .$ > - ; , O O , , , O % % + % O $ 6 O $ < 7 > ; O O > < < - - 6 ; 1 + = O O ; O > + O O , O , w > - I - . # * 5 * > # & O ; # + O , ; O - + # O + $ O = * * * u u % X = + + ; ; + O O O O O # - O + * + = % % O , & O O 7 7 & 9 1 1 w & O * = , @ $ O @ - ; < @ O & @ & @ O O + + 1 1 o % & = . # X X X . . . X . . X X + . . + . . . . . . # X # * # X . % # # # + * + * # > 5 X % + # X + . + o o o * * # # X # > * O > O * < * > , - 7 7 $ ; , & > = O O , O & > O % $ = # $ $ , # , O > O + o $ $ + O ",
"2 8 8 s 2 q q 3 z d q 4 q #.q w M {.e.g w % d b 2 @ w w 3 3 4 3 <.2 s 2 q k 2 3 4 3 3 2 q w 2 3 3 3 % 2 3 4 w 3 3 8 3 3 f .XH w 2 8 4 2 2 w 3 w 3 w w w 3 w 2 1 2 < w < w w l 3 3 5 d ^.% 2 3 4 2 8 2 4 w s < w 2 @ @ 3 w 2 3 3 w 2 2 @ 3 w @ 8 k 3 2 f 4 4 h 2 4 4 3 4 2 3 4 3 3 4 q 4 3 3 4 h 3 w 3 w 4 5.% @ w w w < w 2 % @ % % % w @ w @ < w @ 2 w X % + O 3 k @ @ @ w w 3 3 w w 3 3 < 3 2 @ k J w < 3 s r 2 < w < < @ $ + % - w & w < s < O s q q q 2 s M z 4 4 f q q 8 3 2 z 3 2 X.2 % w w @ w % % @ w 3 s s 3 & 3 8 < w ",
">.s.!.>XM :.:.:.tXrXXX&X^.^.}.7.dXKXAXs.w.yXZXXXXXs.:.-.<.k :.m.sXd.A.e.l.6.a.;.D...l $...4.:XXXk.XX].{.X.N w.^.^.&.%.<.$.mX[.4 +.4.;.X.B < ;.x o.n m 8.s.w.p.&.p.p.K &.:.:.E.n n.f xXyXE 9.!.'.!.d.,.d -.s.J x >.d :.>.6.2.X.1.%.+.h n #.:.#.f.tXp.2.K n 9.;.@.l.g.5.X.h +.t.j.t.o.3.O.+.t.t.6.o.o.@.o.6.+XM z -.3.O.^.p.w.1.B k d L s B -.L 9.:.,.:.,.v h.:.N.:XsX2.e.N.^.m.9.m.2.<.M 4.<.s.p.p.].wXs.9.m.d.#.j J I.n.,.v v / P H 7.0.$.1Xe.9.&.J 4.d.:.&./.wXoXd.F.d.A.4.m.a.s.o.b <.,Xd.d z k q f s k b &.4.f.8.J z ,.:.#.J ",
"M./.$Xm.&.M &.0.>XjXcXkXN.d.{.s.sXIXZ.k M.ZXkX,XmXuXJ 9.J n M e.zXF.<.3.5.6.a.oX0X<.k J t.Z.:XoXO.~.`.f.j $.^.].y.%.1.m.K CX<Xz >.&.n ,.=.2.y.s J $.z N.w.4.-.x 3.B J n.N.B.B.K n.f hX$Xz q b n 5.@.;.f.$.X.d x P 9.y.s.n.K N.:X'.:.g.9.9.<X{.3XxXs.>.2.2.>.,.4.j B o.h ....;.2.h H.+.%.j.a.O.O.O.o.5.o.J.(.k g >.+.h X.c M N #.H k l d d k -.0.g.e.q.:.9.2.s.9.w.nX>.>.e.d.X.2.s.z $.$.$.J u.f.d.XXOXz 7.K p.v 8.E.H J L v L 0.L / P H {.1Xn.5Xm.-.e...b &.<XuX/.%.!.t.^.>.].Z.3.t.<.Z.iX6.h %.n c 3._.oXd.z J n h s k m K c y.",
"$.k.t.&.$.e.:.s Z.zXyXN.N.f.0.K }.SXk k e.[.m.S.uX].4.;.$.K &.|.CXA.b 4.l.3.t.`.`.$.w.u.p.|.^.@.o.j.k.O.h ,.f.r.9.d.d.[.-.CX>Xs $.:.>.&.&.c -.b J 0.z N.+.0.d.N.j s 9.e.e.>.>.d $.3 kX X-.M.%.s.p.4.r.;...o.$.x p.>X0.&.N.0.s.I.N.n.n.'.5X1X9.3XuX:.o.;.M %.%.>.o.-.n 3...%.%.a.@.@.O.a.o.o.O.O.z.%.5.g._.4.2 c 2.B #.2.b b M n d g B <.N x s 9.s.2.n n M p.1.:.Z.CX^.9.;.,.J N 0.m J n M m =.g -.0XoXm m >.x s J q.H 0.P 0.l l x / L K C.L B.n.7.n.].N.m.'.0XpX:XK a.F.F.t.A.%.k.s.n .XiX1.#.n c %.k.dXsX|.J 8...O.q M x d ,.a.",
"1.1.p.w.s.9.M K m.XXs.N.y.9.$.J j.[.l K J q s L 7.K x J c M k a.sXk.w J %.3.<.~...h <.4.D.].t.5.m.3.t.O.1.S.n.r.;.,.3.d.n MX:X< f z v m k f 7 8 m H s l V 3 4 4 s &.x q 2 4 3 f q s cXwX3 j +.q 2 4 $.q q k K 8 9.K #.K m >.4.+.-.f K 0.0.2.d .X@Xd g ;.;.,.$.$.$.%.h 3.;.3.o.o.O.+.c j.a.2.@.@.5.6.l.o.l.a.4 q j 4 d x n 0.-.N n N $.-.b K H B.p.p.o.$.K f.N f N.MX8.X.w.:.-.n.n.d X.4.e.s.m.8.&.oX.Xr k l x 9.y.s.0.8.L :.7.0.I.i.0.0.q.0.z s K n.y.8.9.&.f.bX[.k d.>.%.t.o.o.y.N 6.zXiXN.q q q k z g K K #.#.g j g 8.g M r.e.",
"#.:.9.:.f./.f. X:X X'.>X}.d.b e.p.p.1.j.'.,.N.s.,.n L K ..J g wXMX}.$.m.d.<.$.f.h d.Z.N X.9.%.%.,.7.e.3.w.>.$.8.M 9.S.<.d.kX:X,.M.>.X.s.f.y.w.>XXXOXS.f >.f.0.:.b M.2.:.'.K m K M 7.nXnXoX4.w.d &.d.:.z M x m s H J H x q.-.&.B 1 8 7.9.0.L 2 qX@X4 k $.o.%.z %.<.n j 1.c +.....o.o.c >.@.O.;.h 5.+.5.;.+X$X6.h b 4 4 h q m 4 z k s q q #.-.N.|.N d 2.N X.B.N d.{.mXp.n f z M M m -.s z m <.>.x ;.<XeX{.0.N i.#.P L x.L &.E.q.q./ m q.9.n.7.7.0.q.0.s.=.;.K !.uX#Xe.:.2.$.j.o.9.p.-.(.}.f..X/.g.;.q q 2 K b 4 y.*.n.w.a.n &.>.,.",
"[.>XwXuXnXMXjXnXnXOXjX.XAXSX{.wXjXCXAXAXSXnXCXCXnXCXcXAXDXSXcXLXmXhXmX5XuXsXxXkXsXjXqXqX>XqX:XeXM.>X,X3Xf.wXpXcXeX5XhX5XhXcXcXcXCXxXjXkXpXxXSXhXbXKXmXcXsX,XpXuX,XpXwXkXMXbXnXCXmXnXxXpXrX+XOXwX,XyXkX,XeXqX>XM.M.B.M.uXXX}.w.,.8.}.XX/.N.n.s.nXxX}.>XyX/.s.M.OX&X}.oX+XqX+XeXj.f.a.(.@XoXJ.g.(.$XOXeX&XaXBXfXsXOX.XOXZ.d.f.9.).[.4.2.$.k -.,X^.z :X,.N.p.M.;.,.w.{.s.aXoX}.<X3X/. XM. X<X,XrX.XM.xXbXZXdXwXkX:XuX1Xn.0.5X:XM.e.m.B.0.).N.{.'.B. X3XuXpXwX{.cXjXjXAXxXqXiXjXpXaXhXaXeX.XOXXXsXjXsX>XF.:XuX/.!. XOXzX$XaX_.M.[.:X",
"mXsXsXsXxXZXjXhXhXxXmXbXSXAXnXZXnXmXZXnXcXxXCXnXnXAXmXnXKXLXKXLXmXjXCXZXmXCXSXZXCXbXZXcXcXcXxXuXhXmXnXKXMXCXxXZXxXSXCXhXlXZXkXCXZXnXSXjXkXZXmXwXLXIXLXSXSXZXmXpXZXhXcXjXpXjXMXSXCXnXpXzXmXjXsXnXkXzXnXkXCXZXCXjXsXbXzXdXkXzXwXaXsXuXpXsXkXnXkXCXmXKXSXnXiXnXpXjXzXgXBXxXnXNXAXqXzXuXeXrXsXNXNXNXBXPXzXJXBXdXbXMXNXbXNXmXbXzXaXaXtXtXrX'.N.).uX!..XCXbXLXbXnXdXiX{.0.<XcXnXIXLXKXcXCXAXPXKXxXMXmXZXKXCXCXLXZXKXbXSXZXaXkXmXAXnXzXzXuXB.|.{.>XzXCXAXnXCXxXmXuXlX3XnXCXbXSXAXmXnXbXMXMXdXoXsXXX XwXbXzXmXSXKXSXnXbXOXcXjXBX!.OX:XaX",
"K J e.&.L 0.q.:X|.s.M.,.-.N.,XcXcX^.M.~.`.wXZ.,.J J ,.s.M.<.K H.l.H N.q.^.].[./.OXkXjXwX XhXnX}.k a.e.Z.>Xy.&.}.d.y.'.M.{.:X8. X^.9.9.A.u.e.M.]./.,XZXSXnX.Xw.<.{.-.n.g.s.S.n.d.-.>.9.:.f.y.s.e.K $.9.e.M.^.!.x <.M.7.M.^.>X>XwXiXsXwXB.n.y.[.f.s.B.2.;.7.7.7.:.x p.>.d.y.qXaX3 k g.>.-.;.;.o.:.j.X.l.a.z.%.1.;.~.w._.wXf.}.uX}.[.^.rXaXzXnX{.{.'.uXhXSXsXsXOXOX{. X>XM.0.XX,XuX|.sXpX X:X.X[.'.<. X.X:XXX}.'.(.hX+X:X<X5X{.'.uXsXnXlX{.'.{.cXuXuX X<X,XN.7.{.F.n.{.1X:XoXN.(.j.[.s.%.;.N <.$.<.d.Z.S.B.F.j.>.m./.|.p.OXsXwXd p.",
"k J L V q.L :.0XN.8.y.J l P N.SXZXL N.wXuX0Xr.f.,.K J N $.8.n <.J < s s &.c k 1.].,X>.% 0 mXmX{.k x 4 d K #.&.n.%.M N.9.m.n.$.&.e.8.9.a.a.d.=.J j kXCXnX8.z 2 K 0.$.X.%.=.&.1.b #.K $.b b g X.J f v K ,.,.&.n k 8.7.*.y.9.K m y.S.y.k >.7.#.f s m z b d n x s.E J K s 2 j oXqX2 2 X.o.n +.+...3 3 4 #.2 n b #.%.o.h n d 4 #.k ;.,.y.,XOX:.7.q.:.k N 8.n.k f.z d.[.[.f.s.9.:.7.0.q.B.0.K l s %.-.,.9.$.&.N M n B.J 3 g #.q.7.7.:X,XC.0 E x K P x 0.9.7.7.8.7.(.'.q.0.K :.i.#.h #.L x f g b N q ,.M n f z f 4 z :X|.L d d.xX|.8 =.",
">.9.n.0.I.-.y.BX[.w.e.9.B H M.iXnX9.XXkXuXd.8.:.k l q c 1.4.2 -.f.M #.N <.s.K w.9.<Xd.N '.pXSX:Xb Z.N.N.N 5.<.c l.A.S.4...m.d.^.|.3.>.OXM.e.>.d.4.uXzXnXk H m '.n.4.,.4.y.,.=.>.2.M z $.>.K &.M x s.e.e.8.9.,.:.X.M J ;.&.r.z d.}.k f m.K f x m m $.9.$.9./ B.P 2.-.f m b %X`.h #.n q d h N o.h K N K ..w.3.p.1...b n >.c b ,.n z ,.oX[.k z 9.1.z x.-.N z L k q.0.s.,.XX{.0.s.0.&.H q.q.i.r p.2.p.p.t.e.K 9.b :.-.0.n.&.0.:.7.,X>X2 s C.n.! L L &.-.7.C.H q.{.:X|.m J 4.p.d 8.d K M k d m k #.$.n b f s s k -.pXN.d 2 `.LX[.f ,.",
":.K n.1.1.;.B.,X.XM.s.2.9.q. XOXnX<X:X XN.x K <.$.:.M M M w.f 9.B 2 J $.^.,.5.%...9..X^.,XZXxX*.d J ,.1.-.d.X.^.4.c *.g 9.f.6.;.n o.;.;.*...a.'.%.m.rXwXN z X.s.X.>.0.s.9.,.4.,.<.K b 8.>.$.4.4.$.n N t.f.>.#.c ..K w.2.N $.g OX+Xq x s.9.:.l z n q.m B $.M h.s.$.b M >.+.d.l.d h #...b X.<.z n s -.b B 3.;.w.a.%.n ;.<.%.N ;.4.J M ].&Xb %.2.p.J M.s.b m ;.Z.s.&.N.[.XX1X{.[.,.x K P $.>.-.i.L m ..e.K a.0.7.L &.q.0.&.s.0.P >XrXs q.$.M.7.h.9.q.B.J P J B.n.M.,.n.C.e.$.#.:.m y.c b %.1.&.K k g %.q M ;.d.k.y.#.$.N oXAX+XJ 9.",
":.d.e.>.a.9.K J m p..X!.N.N.M.oXnX>XM.7.K J -.<.<.s.s x k K w.K m L 9.&.-.+.k &.m.9.d.7.>.mXPX^.s _.|.d.Z.p.a.Z.$.F.].m.y.l #...y.>.,.u.:.,.{.e.g L {.wXN N m.w.$.n.0.,.y.p.0.8.d.r.<.<.g B >.4.o.K 9.7.y.g -.h.b m m.>.N N M eXrXU s K &.7.q.M 7.0.B N ,.q.N 8.h.;.d X.o.6.6.d h $.5.f.s g ....o.X.^.'.5.%.a.a.j c n j $.w.K >.>.K dXNXd >.2.B m n.B M M.I.-.g.M.N.^.p. Xw.1.b 7.I.E :.9.1.I.e.B.,.w.y.M.n.M.x &.q.K e.M.n.n.mXkX! L E.&.E 0.K m m B.0.N.n.M.'.8.&.m $.m z 9.g g h n h b j #.$.4.N >.a.e.$.$.N K J z .XLX:X$.>.",
"c b #.1.,.9.v H 0.'.zXsXsX).b OXZX:X7.N.9.1.8.9.e.9.h 9.%.^.s.>.$.,.K Z.M.<.K ,.J M :.K p.mXnX3.&.].Z.].~.4.M.Z.a.d.s.d.m.|.e.8.,.-.:.e.m.M.n.$.>.9.M.hX{.>.f.l s q q n ,...-.,.....w.K H -.>...M >.J h 9.#.:.-.$.9.-.c #.z K yXsX3 8 7.7.7.L 0.B.$.L v q.n.g.w.:.>.;.m #.z.l.h +.1.X.+.X.X.b B N 2.M.w.5.!.6.4.2.$.X.j $.j n >.;.p.NXbXq K '.H P :.0.0.^.9.n.7.!.M.Z.'.!.p.p.p.2.:.k z 4.>.m.S.0.6.g.:.y.9.:.k 9.2.n.M.N.g.f.kXaXk n.'.i.E.'.q.n.B.K 0.0.L '.,.x s K K n m m.K M b M *.-.K K 9.&.O.$X>.x *.X.w.m -.0.kXAX).m %.",
"x v x P s #.8 J k q.3XwXp.E <.uXmX'.H e.p.K ..y.e.d.d.$.,.-.X.:.p.&.n J :.N d 1.n 9.&.x '.nXMX+X1.s.d.^.;.K 8.Z.p.:.c ..n.-.3.;.9.2.3.^.N.w.y.$.8.0.'.lXf.#.3.J &.,.8.z 8.2 ,.&.9.K &.s k k :.e.8.>.C.<.C.q 0.k J K h.J N K x iXsXs v 0.L H P 7.q.K H U H M X.>.X.j B j -.}.6.4 3.;.o.q 5.#.b b n >...w.j.a.o.2.g 4.$.,.a.3.>.;.%.w.bXbXf z L $.P B.s.,X;XI.9.,.N.p.M z #.>.2.9.+.x :.0.0.B m.f.2.6.s.].S.E.w.H 9.d.M.y.0.,.N.CXPXs L 0.H 7.K h.'.M.n.E.7.H E.=.q.M L 8.7.,.H z h s n h o.n g x g ;.k.t.$.K @.K d v s.bXhX#XB.1.",
"^..XsX{.q.e.m.).n.0.<X3XM.yXmXZXmXcX|.^.>.:.8.$.L $.s n d q 2 q k 4 s k ,.J M 8 n b m 0.wXAXZXdX,.m.1.3.:.c 8.^.A.u.y.C.<.`.M.'.f.M.N e.%.w.z n.<.M uXbXp.2 >.M X.3.9.$.9.f ,...$.n n b M #.K -.2.M q n q h &.2 b 1.B.J >.8.$.qXyX8 w L k v s P -.M 7.z M s.9.w.$.o.h B #.~.~.9.4.1.5.3 1.n p.$.s.+.4.o.4.h +.-.+.d.h h o.%.%...h s 0XzX2 3 V V k m m B.7.P q $.s.1.&.L k L J j 8 s 8 ) 9.p.o.!.h >.m n.y.M.g.H 7.=.7.p.K k 2.bXkXw 6 P h.H l N n.n.9.H x x q.-.L L 9.H b q x 2 d $.%.o.q 4 q ,.M n h f.m V K n f f :.hXlXMXPXzX",
"AXSXZXcXxXxXmXbXCXmXSXmXnXmXmXmXmXKXCXbXiXyXpXsXuXeXqXwX>X X'.uX{.XXsXwX>XXX>XwXeXrXwX}.CXnXCXhXsXxXaX:X.XqX[.dXOX[.rX(.(.3XOXaXOXqXOXsXXXM.OXuXOXuXzXnXOX!.).Z.}.k.oX^.M.f.d.f.!.6.t.r.-.a./.OXOX/./.!.k.{.M M p.4.~.m.1.d.e.qXuX<.M 2.N 0.s.0.h.M.M.y.K d.@X+X@X%X&X+X&XbXdXfX@X@X_.+XbX+XqXqXeX$XOXa.k.6..X(.).g.D.+.+.3.n j d >.&XiXk 9.q.p.M.p.X.2.p.p.>.9.).p.2.$.K w.N.>.0.M.:X1X/.eXrXuX_./.9.:X.XXXd.y.:.>.|.[.n.9.!.sX>XM.L.0.2.p.8.0.{.{.{.M.m N.{.S.M./.[.Z.S.XX{.B. XeX$X0X/.,X(.Z.A..X^._.}.+Xd.s..XoX3XCXAXCXMXCX",
"mXCXAXSXCXKXKXSXSXLXKXLXLXSXKXSXZXKXSXmXSXKXZXZXCXkXZXZXZXnXnXZXpXAXCXnXCXcXcXZXAXnXAXnXLXmXnXxXcXZXCXmXCXnXxXxXjXCXnXpXmXxXZXjXjXxXnXbXsXSXmXkXSXcXpXjXxXxXbXSXSXAXCXnXnXjXpXjXmXnXSXZXyXnXbXbXbXbXjXkXkXsX[.mXsXzXCXaX XuXhXiXbXmXdXzXeXuX,X>XeXuXyXdXOXxXMXNXPXMXMXNXbXNXbXAXPXzXKXSXLXMXLXLXKXPXCXBXBXbXBXaXdXbXbXBXiXdXwXsXaXwXBXZXCXSXNXCXMXmXjXjXmXKXNXxXbXsXxXbXaXnXnXzXmXSXIXSXKXPXLXCXxXbXnXAXNXxXaXwXjXmXZXqXpXuXiXkXCXLXSXbXjXxXhXuXuXcXxXXX{.hXkXnXzXnXzXNXNXPXPXMXsXgXzXbXMXKXKXBXnXCXbXnXSXPXAXCXCXSXCXSXCXnXnXZX",
"uXmXAXcXkXuXsXlX5X5X:XuX,X3X,XlX0XuXuX:XwX,XuXhXkXXXuXuXuXiXsXnXxXAXuX,X:XhXuX3XjXxXnXwXCXZXwXkXkXkXnXcXcXhXuXhXhXkX{.,XnXkXuX,XmXkXkXxXjXjXuXsXZX,XhX3XbXkXuXxXzXzXcX3XqXsXOXMXMXMXcXOX:XcX(.,XuX1XwXuX3XjX:XnX:XcXjX.XXX:X}. XXX+XwX,XuXuXwX0XqXd.sX:X}.eXzXbXkXgXzXiXeXuX[.bXsXiXaXiXsXyXzXmXbXNXbXgXbXNXbXmXMXAXmXbXzXAXcXxXzXjXsXkXcXzXZXCXbXZXlXcXmXLXLXLXPXCXPXnXxXSXSXCXmXcXAXSXSXLXSXZXxXSXAXnXnXcXZXPXZXAXmXxXuXuX,XjXxXCXZXnXnXlXkXlX,XuXkXuXuXkXyXkXpXuXxXCXMXmXmXiXqXsXeX0XxXsX3X,X3X:X'.1X5XiX5X5X1X:X,XuX<X:X:X<X",
"<X5XuXM.9.,.8.K m &.U :.,.K C.N.M.L L H P q.J n.J m J x K L oXmX:X-.x *.:.M.=.3.d.^.s.d.,XwX|.,.4.<.].d.s.+Xp./.XX{.f.{.kX>X2.M.d.M.M.9. XZ.>.s.%.>.d.^.].[.D.s.k.%.e.6.M.f.f.wXeXwXaXxXpXM.1.^.K e.p.$.&.,.e.|.m.-.N c s.'.&.y.d.N.N.N.:XM.M.S.f.K w.2...%.n.e.a.4.~.a.1.4.>.d.n ,.1.4.4.l.e.Z.+.n @.j.zXNXzXeX+X^.f. XM.M.+X^.m f.p.M 9.C.:X`.w.^.s.B.!.<X1X{.N.kXkX7.B.N.N.M.n.N.:X Xd.s.s.n 0.cXzXjXuX'.{.n.,X{.E.,XN.N.{.C.m.8.&.C.M.s.n.C.N.'.y.1.y.1.:X>Xy.9.m.N.8.s.4.S.OX:XM 9.0.H :.M.>.x q.q.-.d.d.{.B.N.0.:.E.N.B.x.",
"[.!.:XM.9.2.-.b X.$.$.k :.>.B.e.s.m J M 7.J ,.M J :.J J N B D.PX}.-.J t..Xd.e.Z.Z.<.%.&.,X`.j.o.,.q N.4.Z./.a.XX^.Z.d.e.xX).d x >..XN.!. X+.f.a.p.^.<.4.p.f.f.9.Z.d.s.s.j.e.S.'.0XzXNXaX2.>.%...h ,.k ..n.-.n >.B h 0.K w.{.^.B.>.s.$.>.w.f.<X).>.d K X.q m p.w.w.3.;.6.+.p.3.d j O.X.o.>.6.c o.@.h B 6.[.&Xp.p.K 9.p.K $.H P 2.-.,.+.J e.$.w.+.M M.&.m.3.m N.7.&.nXZ.8 >.$.K $.q.9.s./.$.K $.#.C.wXrX0.0.m L s.B.0.K q.y.s.9.L 9.y.&.n.n.J 0.0.y.n *.d.p.y.uX4.x ..9.:.e.%.h o.k.0Xf.p.<.7.7.0.e.0.N.$.B M.a.,.g.C.L 0.{.2.L x ",
":XM.^.;.$.$.:.K e.d.0.s.n.{.^.9.e.M J J :.&.9.n.s.d.g $.$.f |.CXa.#...d.w.a.f.S.j.e.M.,X<X`.5.4.S.-.:X/.d.w.3.+.;.t.y.4.zX'.:.9.N. XM.^.w.1.f.Z.Z..X~.2./.!./.d.<Xw.h.M.>X}./.p.~.aXNXoX+.O.h d.9.;.g g h o.s.w.>.X.$.z J n...X.N &.+.>.o.d d._.%.#.M #.g m :.9.$.2.+.,.n 3.;.n X.4...h w.@.+.a.6.+XoX2.$XtX-.f B M.6.f.f.>.K 9.2.:.2.s.'.;.;.Z.p.K 4.M.N 8.[.X.m.mXq.1 y.e.w.w.p.-.;.p.>.m Z.g.B.<X>Xx l v 7.U n.s.2.N.L 7.0.s.,.0.q.8.L n -.$.<.J 9.N q 4./.%.M 1.%.>...+.g 1.}.zX(.1.&.:.:.,.$.n.$.n s.M.>.f.s.:.:.f.N.2.l J ",
"uXN.#X9.-.e.1.$.3.d.0.s.{.{.3.N J -.&.9.K H 0.y.b &.g d b q wXxX..q >.(.f.M.&.M.a.s.M m.g.a.3.s.M.d.r.4.d.;.^.M.S.k.w.$.sX:Xf.qXM.-.N >.;.a.^.!.A.!.!.w..X}.f.6.f.-.^.^.rX+XZ.r.n.pXAX+Xc h ;.t.j.g p.s.s.a.1.6.;.$.,.n e.:.:.f.K ;.;.c j q ~.tX3.#.K %.7.<.s.e.s.:.$.%.g $.-.$.M &.M z 1...6.g.6.~.5.j $XtXN ;.M f.f.).!.w.q.K :.w.>.N.+.o.g.N.>.>.n.d.w.n.;.$.&.bXN.s s.L :.h.:.w.n.d.0.e.N.{.0.[.XXs P H E :.L C.q.H 0.B.'.N.n.0.9.&.:.k &.0.>.M 8.&.z :.A.;.8.1.h ..$.b N =.d.oXZ.>.L N J M h.n.w.d.n.-.<.-.:.k 2 d..X&.0.M.",
"OX!.^.;.$.,.:.2.n.w.e.0.:XM.p.>.,.9.9.&.$.0.0.8.m y.$.M $.x Z.uX<.q r.a.j.p.k r.6.8.d.,.S.%.S.k d x d.w.f./.'.d.~.A.d.1.sX_.d !.6.h.g.p.1.r.d...>.+.>.a.[.f.r.w.t.Z.Z.p._.(.f.d.,.0XNX(.j %.}.t.Z.g.d.;.6.p.6.3.$.N 9.z w.s.p.9.c K K ..X.#.A.iX%.k $.c c $.9.:.<.n N z c M y...J N k g <.e.p.>.@.a.5.>.NXaXq 2.w.7.d w.d.B 7.x h.a.p.f.p.).M.2.;.j $.b 2 ;.1.:.'.CXwXH s.K >.9.9.,.:.9.q.9.{.].N 6.0.x G P E m q.N.l q.0.8.M.9.K L m K k z J n.z c K x #.8.S.r.&.;.1.:.;.n %.x }.>Xd.z 2.M z $.$.n N +.;.n m J C.L L {.>Xe.L k ",
"'.0Xd.^.8.s.n.N.m.e.N.n.}.,.J N q.n.9.0.0.k x ,.K J z m M #.t.bXd.#.t.t.3.u.;.&.g.&./.!.K c F.s N >X<Xn.XX}.}.^.^.^.y.y.bX/.2 Z.^.M.f.4.9.w.3.r.a.'.^.g...$.%...;.1.4.&.d.a.g.4.X.^.MXl.n 4.%.h %.n a.%.>.^.f.+.,.>.f.j z <.n 2...q n -.3.:.).iX<.#.J z &.X.-.$.:.k c b g N K ,.9.N &.8.N f.>.3.6.+.+.4.NXOX0.-.B.-.-.K m k p.:.-.>.2.b @.5.4.d x $.C.0.L M.M.s.q.(.OXd e.$.w.9.>.2.s.-.8.0.s.$.-./.0.l l l #.,.x.7.:.,X8.2 7.J x :.k #.H g M 8.&.7.M ,.s.M XXe.q 8.9.M &.,.M K [.>Xe.w.7.#.q M #.j >.m b s 7.m q.z P n.d.,.z K ",
"]..X_.m.B J $.%.>.1.9.4.;.,.f.n.>.&.s.g x s P 9.:.x J s #.m $XpXa.N ..+.z ,.,.n 8.;.%.'.B >.K j.>.m.^.H.Z.j.z.g.d.:.1.nXmX[.E  XuX'.^.@X;.4.%.M w.g O.w.d.a.$...3.$.d.p.M.d.3.4.w.|.PX(.N 3.%.-.b >.2...N ..M g $.<.n c -.%.9.Z.%.e.-.>.X.q 4.+Xs q $.g M #.N n +.<.<.o.X.J $.9.3.$.3.6...g.1.+.z.3.n w.fXtXf.B q.0.o.s v >.0.g b -.B z p.h.X.q v m C.K :.M.z p.9.0X9.$.$.M.s.M.s.y.9.0.N.m.d.l k y.N./ l v l < 8 r z |.H 3 k H J :.L =.b x J X.*.J K n.e.,.>X!.L n.y.#.J =.M K M.N.s.L x n b b z d f b M 2.2.b m k #.>.e.:.s x ",
"S.M.9.K b N 9.$.9.K $.-.$.9.P :.f.:.m.s l L L.i.B.4./.-.2.f.tX3XjX{./.^.N.,X4.~.!.d.1X'.2.}.^..Xb ^.:XZ.p.[.`.Z.}.f.yXZXsX0X<XoXsXp..X&X#XM.+.-.p.;.A.d.g.Z.a.e.4.,..Xg.2.N e.p.4.,XSXpX^.^.p.1.S.,.M.9.n d M h :.$.d s ;.o.s.M n #.j K z 8 f.+Xd N M #.j o.X.n >.;.3.%.w.+.p.].f.o.b n ..!.d.4.a.j n 2.&XNX0X!.f.h.N.-.8.E H >.:.p.:.K -.$.K 9.1.m 0.K m p.M n.i.pX/.E a.s.>.,.p.K N 0.:.2.N #.s.5XeX;XC.$.7.v / 7.N.1X'.k H k k x q z h 7.M 9.9.=.K ,.q.9.rX9.l J K &.9.n.;.0.B.$.9.,.f.s.w.4.$.:.p.w.6.Z.9.$.s.e.B.>XqX^.B.s.",
"mXkXjXjXbXnXnXjXjXpX,XOXwXcXkXcXZXnXZXmXCXSXZXmXAXCXnXMXAXKXmXhXAXmXMXmXkXmXuXnXkXkXcXuXnXCXjXjXmXmXSXcXZXxXkXbXmXbXnXjXbXnXjXCXmXnXxXnXaXBXjXyXpXjXiXeXsXdXqXrXOXwXMXbXkXxXnXjXsXdXbXeXwXfXbXkXmXMXbXaXfX3XjXiXwXoX(.>XzXeX,X&X_.oXeXXX(.M.:XaX+XqXBXrX3XrXqXqXbXdXBXaXiX`.~.@XdXfXBXdXeXeXaX!.&XoXrX/.OXnXxXpXyX.XpXN..X3XbXjXzXrXrX#X#X.XoX,XrXuXpX X X{.M.B.N.sXjX<XZ.d.#XeXeXXXOXXXeXwX).+XI. XjXpXxX.X'.<XhXXXhXjXcX,X:XN.N.B.d.M.s.uXuXiX<X Xq.'.0.s.>XxX X{..X}.oXoX}.3X:X.XnXsXyXuX>XrXjXsXsX3XjXeXwX3XyXwXjXsXnXxXmXcX",
"sXwX5XZXuXkXbXxXkXjX>XeX<XkXlXCXLXCXxXDXAXZXnXZXAXnXCXCXAXmXAXxXZXmXmXmXMXcXbXnXxXuXpX3XdXcXwXpXuX5XbXaXyXOXlXpXjXxXmXkXmXdXxXxXCXmXmXCXAXCXxXSXPXAXjXxXnXjXbXbXjXnXMXSXZXAXSXbXnXmXbXjXsXsXbXmXCXiXsXsXNXZXSXzXsXjXjXnXCXCXkXaXwXMXNXaXNXuXsX,XyXsXzXrXqXoXsXaXaXiXzXeXXX+X.XyXOXqXNXnXzX$XbXzXZXrX(.sXqXwX}.^.).:X9.!.,X{.,X5X>X}.uX'.>XiXjX).rX,X<XB.E.:X3XE N.lXSXmXaX3XnXCXnX,XuXsXMXNX[.,X1XuXpX3X5X{.,X<X X'.5X<X,X:X XC.N.&.=.y.e.5XuX,XI.&. X3XL 8.5XmXcXpX,XuXnXyX>X,XoXyXuXwXhXkXjXpXsXuXhXcXnXjXnXxXxXZXAXxXxXlXlXkX",
"E.q.'.'.].N.e.,.1.g.^.{.0.n.{.m.e.<X8.{.N.m.'.nXkX0XaX|.,X].<XM.<Xn.Z.(..X|.pXxXyX|.M.^.^.[.f.^.}.[.>X>XOXcXuX>X[.^.,X).jX>XwXjXkXwXyXsXdX:X{.uX,X>XwXuX,XwXuX<XiXlXZXcXuX.X<X[.]./.f.S.d.wXuXuXrX_.9.K g.^.f./.y.^.!./.N.}._.sXkX,Xk.6.~.|.^.<.&.r.<.>.k ;.,X}.n $.4.y.M.!.XXx ..w.d.:X`.!.Z.w.].f.1.XX%.S.B s $.q ,.:XS.8.p.m.y.w.d.4.f.XX<X[.XX}.kX:X{.I.'.x.E.].I.). X,Xn..XwXwXN. Xd.j.m n.n.|.M.y.X.e.E &.N.L 8.M.{.{.^.'.n.7.9.y.,.!.{.uX8.J I.y.K 2.1X:X|.e.p.S.M.3X,Xn.J :.&.=.B.].y.n.m.E.{.:XhXkX XM.b.{.|.B.0.s 0.7.",
"0.q.q.M.uXx d b -.M.K H 9.0.l q k 7.M m c x $.sXeXc ..h 1.%.w.1.o.&.y.l.^.oXsX|.a.j.k.`.[.k.Z.A._.}.(.(.qXOXw.n B 2.{.!.e.(./.[.}.@XM.iXOXk N 0.m x e.J E.9.,.$.7.:XZX X).9.d.+.^.Z.3.w.d.^.Z.d.}.~.2 e.K 9.w.$.%.$.-.-.n ,.+.nXcXy.c n c 3.n +.e.o...h o.g `.&X4 #.o.s.4.f.4.z J g z z A.#Xh N s.5.d ;.j z o.N 1.4 $.}.,.M M.d.%.g.d.w.t.e.Z.(.A.H.yX.Xf.n.n.x M.w.'.m.].x =.M.qXrXw.N ;.7.:.y.^.$.g w.2 7.x 9.Z.$.n 4.9.y.M._.*.J n M.M.J M.,Xd.,.,.n.S.0.r.%.>.<.y.C.0..XqXJ $.x x J J &.q 8 k M m E xXxX:.x K $.&.q q s &.8 ",
"B.7.K wXjX#.d &.K I.8.C.C.0.E x l  X,Xx &.n 2.nXyXN N >.y.3.t.<.;.J ..t.w.(.aX/.A./.(.Z.^.Z.S.}.}.~.A.+XrX5Xy.9.&.d g.a.<.M.g././.}.d.aXpXB M M N K w.f.$.d 2.K L .XNXf.$.l.k.`.A.6.a.f.^.+.t.n Z.NXV s.j S.p...-.>.$.a.z z N.zXwX$.j 1.4.S.>.g h j c >.d >.OXqX+.w.n +.@.%.f.K k d 9.&.}.tXz #.j 6.j g d.c s.B 0.<.d.iXf.-.M.t.o.*.3.p.9.d.f.XX].z.aX>X9.n M M N.K |.M.'.*.N.,.$XfX/.,.x b s.^.v q M J f x g P .X7.k d 0.x c m.:.k g c ..%.9.|.|.<.1.d.+...3.;.m.s.u.9.<.[.iX&.L M z H &.n #.z x z H E nXnXx b m m 7.m 7.l m 7.",
"$.9.&.zX0Xs L ,.8.n.p.7.-.0.K P x {.XXK q.;.e.CXbX>.K d.3.;.z w.d.w.M.Z.Z.OXwXA.s.!.OX].m.}.d._.k.&X}./.wXjXM M.q.k $.%.-.4.+.f.g.a.2.NXMX4 +.p.u.b p.p.>.M.;.M 8 /.JX>.o.j.3.t.6.k.3.(.(.%.p.3.!.zXq K n e.Z.M 1.w.;.;.9.f '.PXeXN c 0.3.5.h <.5.h @.2.b <.gXfXX.@.5.+.6...o.q o.f n d iXbXK ..d.3.1.$.M d J &.M N 2.iX4.M s.....+.3.p.d.f.6.>Xd.4.wX>XC.&.s.J K B.'.f.p.Z.S.z f.kXM.0.<.s.M.}.e.x z 0.0.x L L }.x #.z 0.:.k.uXJ =.J k 3.j.p.tXsXs.M.3.d.$...d.d.4.%.8.L B.,X:.L -.q.-.-.$.7.-.h.K s f.LXjXl h K J K l K z b.N.",
"2.K &.iXS.1 #.-.n.B.K m :.$.b 7.H <X|.:.X.%.d.CXiX$.z 4.;.3.n /.j.j.>.4.t.qXwX}.A.oXoX`.k.@X).}.`.qX.XA.aXdXw.8.B V 4.9.<.>.p.!.g.~./.aX>Xd 9.3.w.e.S.p.-.L b w.s.pXKX1.%.t.a.k.a.k.3.6.Z.k.w...(.MXm >.d.2.6.N >.;.N N 0.d {.LXsX#.f.^.X.+.O.N h o.$.w.g M.zXOXc 5.5.o.%.b q h X.q >.4.eXtXb X.o.o.$.L $.b ;.:.j B 1.sX[.d.y.3.`.d.a.3.;.4.p./.$.>.'.f.K d *.J E.N.4.Z.$.w.K k E.nX:Xs.9.J s.'.K m s 7.K $.L 7.XX$.x n :.k k.>Xq J c N :.$.Z.OXXXn 8.n S.3.:.e.4...m 8.x n.iXJ K J x K n >.n g z J d uXIXuXx j ,.L -.$.K n.,.,.",
"J d H /.M.U x :.:.m s k J :.&.L x oXm.M $.X.~.AX$XJ 1.p.o.$.A.wXA.`.g.a.2.`.tX}.k.}._.(.`.}.`.}.}.OXA.a.rXhX[.}.g.-.,.K $.m -.3.N 2.3.iXyX8 &.N f.OX[.Z.'..X/.XX3XaXAXe.-.9.a.4.+.5.;.a.}.a.;...|.bXs $.>.N 8.j >.1.b b -.s [.PXiXh o.c h #.;.X.;.o.,.p.>.#.r./.j +.d h o.o.#.K d.h ;.M nXrX0.X.n #.-.+.n +.,.f M 9.>.rX0Xp.n 4.;.o.5.3.3.~.f.s.K f.OX!.K J 7.'.0.-.g.7.<.,.g 8 :.kX{.>.J -.2.:.m J H 0.:.,.m :.d.6.N n 4.4.C.J #.0.$.$.;.K d..Xk.f %.3.=.3.8.K $.3.-.,.#.9.wXv 8.K :.M m s.:.7.b :.l ].LXeXP d >.n <.K &.i.$.9.",
"J l P rX,.0 l l P K L 8 v $.J 8.J wX4.J 4.m ^.CX.XN p.5.3.a.oX`.f.%X6.p.e.~.OXd.j.$X(.A.A.>Xk.k.`.l.F.k.yXpX|.kX3X8.M 7.0.v :.8.n 9.,.dXbX2 K >.n.[.0XsXzX>XrX>X0XzXzXc c >.4.3.%.>.*.1.4.>.*.X.iXbXP N.B.M.9.K N B q &.y.x |.IXzXJ L n m c c n o.6.X.n o.q }.g.4 5.;.M #.j n m +.g d $.dX,Xh n n #.<.n M >.X.w.-.$.2.NXzXg #.d.!.d.%.Z.f.d.a.5.N.~.eXw.J H $.M.-.,.1.j <.f.H 0.9.kXs.2 q z c K k l L 8.n X.$.n.0X!.$.n y.u.=.9.s.n.&.,.%.1.XXeX/.7.,.J 1.&.X.%.;.%.$.%.g e.pXm m $.w.n.I.N.P 8 f 7.l :XLXwXx m y.%.,.4.w.m n <.",
"H f.pXMXS.N q.y. X X XS.y.m J $. XsX).:.-.l ^.mXXXM X.p.n ..t.5.w.k.6.l.f.qXsX2._.oX}.+Xf.wX0XeXwXXXm.[.wX}.).rXf.9.m g e.&.-.B.#.m d.AXsX2 / p. Xf.`..XOXqXaX}.d.+XaX%.n 1.4.g.j.d.f.s.o.*.%.b OX$X#.0.>.X.:.M e.4.;.8.n q p.NXdXf.d <.n O.^.t.3.a.o.j +.Z.PX_.1.(.a.4.l.`.3.p.%.+.;.^.KX}.b K ,.N $.$.>.;.n ..X.2.d.zX}.N.9.s.4.#.n }.a.}.>.4.w.:XhX^.^.rX^.K g :.e.M x ,.s H ,.3X/.:.7.d z J i s.9.m n K :.s.kXOXv #.s.w.0.s.d.>.3.K 1.s./.<X].g.oXy.%.>.h...,.m z %.b M.wXp.>.y.Z.|.w.+.:.b m / v 9.zXaXq.f f K >.s.:.L :.X.",
"wXxXZXnX'.).pXhXnXlXkXxXyX,XuX>XjXzXjXkX,X>XbXbX>Xg.j.-.X.k.XXs.p.d.!.^.&XcXnXeXaXwX&XtXqXrXkXnXpXnXsXnXCXmXkXmXkX0XpXqXjXrX3XwX).yXrXnXxX5X XqXrX_.OXOX0XwXXXZ.d.pXmX3XXX).).+X.X+Xf.f.p.-.M.s.>X>X#X1X{.p.s.n.:.I.B.:.;.p.aXMXzX&XrX3X_.+XjX+X+XfX~.@XrXsXMX!.~.OX&XdXdXaXaXsX+XOX<XsXaX^.xX,X).a.I.!.2.g.K p.i.9.3XnXsXuX4.g.M.9.<XhX3X[.a.{.;X0.).3XwXwXE.B.2.i.'.N.{.'.'.^.1XpXpXuX1X/.N.7.K n.:X^.{.s.B.<XwX^.N.N.OX<X).XX:XM.s.7.7.L h.{. X}.uX.XM.-.2.!.M.d.M.f.[.jXsX3XXX3XqX.XOX[.<XI.N '.B.wXnXxX<X).:XyX.XuX:X3X<X1X",
"DXCXZXuXuXhXlXmXZXcXlXkXkXZXSXCXCXVXCXmXSXDXCXjXxXMXMXMXnXKXPXCXSXKXAXLXSXSXAXPXAXCXbXjXAXmXCXmXnXnXcXnXjXjXbXmXbXCXSXmXSXCXAXnXnXLXSXnXZXmXnXSXxXZXSXPXMXnXmXpXsXcXjXbXjXkXsXuX3XiX+XeXxXeXaXpXnXZXmXKXnXrXmXxXjXkXnXnXAXCXAXnXbXzXLXSXMXSXFXjXbXMXsXxXMXMXiX#X^.OXbXbXbX,XfXCXMXbXuXxX:XrXkXpXeXuXjX!.[.N.,X X3XpXxXsXxXeXbXaXsXpXyXcXjXeX3XpXI.+.:XpX.X3X:X5X<X3XxXpXuXhX|.3XnXVXlXlXcXjXuXuXC.E.XX5XpXcXxXCXkXjXkXxXnXkXxXcXuX>X5XhXkX{.B.:XhXpXuX<XhX3XpX3X XwXeX<XuXxXjXnXsXjXjXCXmXnXCXmXZXKXmXnXAXmXAXSXLXKXAXAXxXmXSXCX",
"uXuX1X1X5XpXhXDXhXuX5XXX].uXuXuXhXhXyXuXuXhXzXuXnXnXSXdXAXKXmXxXmXCXnXmXsXnXbXZXZXCXxXSXAXxXkX3XwXcXwXnXuX:XhX>XhXxXZXCXCXnXnXxXcXnXxX>XwXwX,XsXoXcXsX>XwXkX0X{.'.M././.}.y.d.qX.X:XOXpXOX[.pX{.XX<XuXkXpXsXiXpXkXwXkXpXwX,X|.}.OX>XwXwX,XjXdXdX!.e././.d.Z.f.0.6.f.qXXXf.M.Z.|.OXs.'.M.{.S.'.S.f.:X,Xg. X X:X X<X{.1.f.M.w.g.J._.].!.{.f.w..X>X).>.'.M.N.1XI.Z.<XsXyX[.N.$.'.{.!.F.F.{.'.m.i.M.B.<X1X<X{.'.uX<X[.{.,X:X5X,XuXwXwX,X:X{./.f.n. XF.S.{.,X<X<XsX/.].[.M.M.9.9.&.N.N.'.:X^.M.jXkX3XwXOX0XwX:XuXuXyXxXaXpXhXiX'.,XhX",
"8.J L L M.f.|.{.&.M.9.,.k J J m k k x &.g &.d.M.9.X.F.a.[.Z.1.9.,._.xXmXhXsXxXkXxX+X>X>X'.,X^.M.:X,XXXf.8.$.f.N.N.y.5XiXyX<.,.f.e.-.r.2.h p.^.d.,.a.~.J m ..o.q z *.1.k r.g z :.w.sX>X:.>.8.[.A.XXN.&.<X!.].OXN.B 8 0.$.n &.g o.e.n J $.p.M.$X}.f 4 c a.J 9.n s.[.S.s.1.x M k z g b :.r.<.H &.0.>.v 2 K 2.8.K N 0.0.7.2.e.h K 2 8 q d d M n x 9.:.:.p.2.J J &.l 7.(.:XB.=.;.].>.3.:X0.9.n.:.H 0.N.'.n.L 7.x N #.J J s.-.N.C.B.F.>.K y.&.X.$.$.9.-.$.,.8.:.1.<.$.d.Z.;.<.z L k H M d f q g XX{.H m &.M J ,.m.>.J :.y.n.d.M.$.L 9.",
"d.m.K =.m.3.n.0.&.7.<X'.z J m N <.J =.$...-.t.l.%.>.t.(.a.+.a.X.H wXuXzXsXnXmXeXnX0X&X<.s.<XM.0.|..X|.-.q.n.^.(.3.{.,X;XzXx k %.$.3.a.a.>.S.%.a.H g.^.d.,.Z...n %...h #.,.h -.K ;.zX+X#.h n <.d.m.n.:.M.2.s.^.).H 8 =.$...%.=.1.%.>.f.,.+.a.OX$XO.3.J 6.M <.Z.d.f.y.%.J x k N -.e.2.-.-.o.N e.d.,.N 9.0.0.P d 0.<.7.1.q d h >.#.#.L m.y.9.7.n.n.;.9.q.:.$.K B :.l e.Z.5.o.>.d.$.n.n.#.n.$.s.L 9.7.0.s q z *.:.K ,.,.y.8. X'.0.}.[.{.y.g z J n $.k %.s.-.K ..m >.).w.M.>.X.,.;.q.,.b b g 8 sXkXx v X.%.-...-.<.K $.:.$.g a.<.-.8.",
"..k.8.y.y.].e.4.n $.aXoX#.M =.7.&.$.=.>.%.<.4.d.4.1.4.6.a.6.r.M [.CXAXjXuXjXcXOXXXqXpX|.'.^.s.^.N.S.;X0.B.N.d.M.d.Z.;.,XCXe.$.w.2.4.3.3.9.r.%.d.1.m.s.%.,.M...3.<.c g g -.X.-.o.:.dX`.2 h $.X.*.w.X.N ,.e.w.!.n.z X.c 9.o.n p.e.#.8.+.a.N +.p.0Xm K /.M <.s.;.g.Z.Z.4.s.-.>.>.d.Z.3.N 1.3.N >.a.w.$.-.i.B.i.-.9.b q.w.h N $.k k L y.0.2.>.1.>.d.h.$.K -.z q -.2.d '.|.Z.%.e.y.>.N.<.K 9.q.7.k -.i.I.:.x K n.K &.K 4.y.1.e.K !.Z.t.l.d.c 9.K K J $.=.K %.4.J d ^.|..X1Xw.,.s.<.9.8.<.m.L r iXNX:.M n >.N X.4.<.n <.;.c ..d.<.M M ",
"8.0.J =.$.&.%.*.&.m wXeXk l J -.1.c J 9.a.m.e.%.o.l.a.j.6.+.3.2.OXCXnXeXeX3X/.(.wXkXwX X].0XuX XK z :.#.y.m M 0.0.9.J S.nX^.N >.4.4.$.Z.j.<.<.9.1.X.<.J M x h >.&.4.$.>.n.<.3.c d.PXoX2 n #.2.<.f.2.;.;.s -.w.$.#.;.9.:.+.g.f.@.;.,.n 5.o.g &XXX2.V {.;.3.,.u.6.a.j.>.4.S.t.>.f.d.4.4.t.;.<.>.w.%.$.K s.n.2.b X.d 0.0.K d.M #.v 7.C.>.K 7.&.-.s.M s X.o.q 2 0.&.q f.g.M.y.0.8.].0.y.K &.1.9.x m f. Xs.l L 8.h 7.$.m.y.*.e.'.y.w.p.^.4.J 9.e.e.8.,.<.e.m...b m.>XpXuXXX3.4.9.K s.&.<.M.9.#.KXNXK b $.X.K <.3.<.n <.t.K >.M *.M 1.",
"m.,.<.e.3.3.3.%.K #.qXyXk e.e.u.e.g <.4.1.;.;.6.z.Z.4.5.a.3.8.Z.sXMXrXOX3XyXiXwXyX>X[.[.rXjXsXqX'.>.K $.$.X.8.n.M.:.k 8.nX[.p.1.d.a.;.Z.o.o.$.%.X.;.%.J ..c M ;.*.$.2.4.K 3.>.g $.zXOX2 g K $.4.a.w.w.w.N 2.j #.#.$.0.0.f.rXkX#XeX>Xp.;.h K NX&X2 >.M.=.d.Z.a.~.j.6.t.a.a.3.w.!.d.9.5.6.a.>.r.,.>.N s K g.s.g -.b h.X.5.+.d s 9.7.y.-.+.K K >.>.$.s &.>.s x #.#.f +Xd.B.J 9.-.-.b ..K :.-.N m x n.,XM.8 7.n.d.C.K k $.^.F.9.4.&.1.<.g <.,.K 1.<.$.%.<.n c X.j.uXuX,Xg.N.M.S.e.y.*.m b &.y.nXOXN -.>.>.$.>.1.-.m 4.3.<.$.>.<...%.",
"^.;.&.3.<.%.<.&.J s ,X.Xk w.K ..K $.M.n.8.%.3.k.z.d.a.3.z.j.t.j.+XsXoXsXOXqXuXpXuX3XOX,XsXbXeX:XM.,.f.m.,.r.s.N.S.w././.cXOXM.u.Z.Z.A.a.j.6.X.$.>.M.$.n s.K ,.d.t.w.>...+.N J d d wXsX3 q w.3.=.o.3.6.}.'.p.1.[.>.$.K 9.uXnXnXnXkX+X(.s.w.e.0XoXf n H.$.r.<.5.j.H.1.f.t.r.Z.t.j.5.>.>.d.%.+.o...>...f {./.x 3 h.j ..>.;.+.#.y.9.M s.a.>.;.-.$.>.7.z -.$.B m :.P s M.!.4.$.0.<.,.2.$.:.L H K $.:.N.aXN.2 q.&.s.&.J $.M.m.m.3.m.=.9.%.K $.<.%.y.o.<.<.>.a.M.4./.,X^.m.m.M.9.d.8.9.M q d P i.tXaXK J ......N >.X.c n 4.X.<.&...&.J ",
"$.+.N m J K ..$.v s f.S.k x c N M a.b 9.j.d.3.a.@.t.a.3.A.5.;.k.d.aXaX3XeX<XuX>X:XXXOXpXkX/.p.^.(.+XZ./.w.n.M.0.8.0.!.m OX&Xj j 3.4.Z.X.>.%.n $.e.r.b &.N g z %.w.#.2 j #.:.y.j 8 ^.zXx q 2.;.w.$.3.f.B.d.Z.!.p.$.-.1.q.f.>XwX9.3.p.4.5.l.4 l.tX2 H w.O.n.X.t.r.X.>.5.%.5.$.%.@.+.N %.X.h n ..X.X.#.i B.oXN P s.M :.:.8.9.q K 2.4.e.r.n $.n b M f q x M N m x r s '.,Xm J 8.;.J M K m J :.x x P 1.0X,.b n.B.y.d &.2.M.8.y.M.n.K 8.h &.&.=.4.m.=.9.,.%.p...o.d.&.s.Z.N.s.<.s.,.$.g d 8 n.OXwX+X,.M s N n c K $.z M :.n M 8.9.9.$.",
"z 4.d.&.K z s K e.w.oXuXK B <.<.3.A.X.L %.X.3.[.a.o.o.4.l.@...k.w.MXsX_.3XwXjX.X(.[.uXoXrX).2.g._.~./.^.-.H d./.OXa.g.e.pXzX|.].p.w.a.@.a.d.%.!.a.!.p..X^.OXd.!.f.#.>.f.5.qXOX4.p.aXmXOX$.K o.c 4 >.<.J ^.M.f.'.$.y.$.#.m ;.>.s 9.OXa.p.w.#.qXrX^.N.>.^.s.X.d.4.+.+.@.4.4.a.5.O.g z b h 6.>.-.p.p.e.B.[.3Xn.k g q x b 9.d n =.0.w.>.,.d >.#.m x p.$.s.^.9.7.N.<X:X>XrXp.M.:.M e.&.).n.P :.$.-.:.s.,X0.9.,.9.9.'.3.).(.Z.|.^.m.d.[.d.d.o...a.!.w.+.o...d.n <.>XM.:X<X/.!.].1X{.s.K S.I.pXnXuXxXuX}.Z.p.5.1.t.K ..g h K &.<.$.-.-.",
"jXnXxX[.Z.(.oXkXmXnXnXyXwX3XjXsXAXjX<XOXaXwXaXmXMXkXaXaXfX@XrXbXiXAXCXN.3XyXnXqX3XuXsXoXaXrXfX3X X X1XMXnXxXAXAXbXjXxXsXjXNXxXdXqXzXMXpXnXAXsXbXxXjXeXbXhXsX#X0XaX[.pXaXiXnXpXuXnXkXuXuX3XdXeX).[.uXbXjX,XrXwXoXOXeXaXsXsXrXOXuXxXNXnXdXeX+XPXNXmXxXBXMX&XfXaX&XaXtXrXiXsXBXgX.X)..X}.[.bXwX3XyXf.s.!. XXXN !.{.W.3XN s.2.e.#XB.n.8.M.f.f.p.M.B.XXJX/.:.3X{.<XhX>X1X XuXxX<X3XOXI.pXjXOX:X5X X:X X:Xi.3XOX,XyXqX(.xXxXsXjXjXpXjXsX:XpX,X3X>XsX+X^.[.uXqX:XOXqXwXcXjX/.M.[..X.XM.[.jXuXbXzXgXnXsXiXdXsXnXzXkXwXaXOXyXOX0X X<X^.sX",
",X:XuX[.rXuXkXyX:XuX3XuXhX,XuXcXCXZXnXcXhXhXnXCXZXiXdXMXmXnXnXbXjXjXyX3XyXaXpX}.hXxXkXOX}.&XrX^.N.:XyXzXbXbXnXxXbXbXZXmXAXCXxXnXZXZXCXrXuXrX3XkXjXuXyXhXnXxX3XjXyXwXuXjX,XjXhXnXkXnXcXxXZXKXcXAXZXZXLXcXnXLXLXzXOXaXLXPXLXLXLXLXKXCXCXKXKXCXKXnXDXnXbXwX:XsXjX0XNXNXbXCXCXMXNX:XyX,XwX3X,X5X^.C.kX{.uX:X:XN.n.q.M.H p.{.s.M.g.i.q.L {.6XXX5XwX XXXbXp.uX{.:XuXpXM.:X5XSXlX0X'.XX<X3XhX5X:X3XpX,XuX{.<X5XuX,X:X,X3X:X<X>XhX,X3XuXwX>X,X{.[.'.:X{.'.uXkXwXkXhXlXhXsXXXN.}.M.y.y.Z.M.m.M./.!./.d.^.d.9.f.^.}.m.,XtXeXMXnXZXzXnXnXxX",
"m.m.XX/.y.=.s.K 4.M.m.M.e.r.^.:XXX:.8.n.N.N.y.'.H w.d.1.a.e.f.d.N.s.N.,XqXOX(.(.wX:X^.}.+XqX(.yXXXuXqXOX0X<XOX<XqX XOXoX`.j.k.>X,X:X:X^.d.e.M. Xd.J }.uXuXZ.$.3.e.d.d.'.-.8.m.d.^.'.w.d.N.{.OXeXrX}.<XZ.,XbXzX(.(.:X'.|.'.f.,X,X{.{.M.M.^.qX(.N >.K K 3.<.~.}.d./.M.p.p.3.).tXh ,.$.#.<.c #.{.>.9.b 9.$.j.d &.x m K 9.m -.>.f.p.J q.7.>XyX,Xs.s N.p.N.<X<.N.f.M y.8.N.'.7.m J N.B.N.&.&.&.7.=.N m B.N.S.%.m.,.w.-.,.{.,.N.s.8.N.m.|.7.L k k J :.U 0.d.y.n.p.M.9.e.:.,.XXZ.M.<.>.3.y.K :.=.,.8.e.8.*.J y.>.k &.M.&.w.wXCXnXOX].[.",
"s n o...<.d.Z.%.s.3.j.%.k.%.b oX|.s H U 0.e.a.m.m.M.h.9.K >.4.X.m.w.n.s.k.k.a.!.[.3.$.H.(.jXrXwX(.(.k.@XoX>XZ.a.a.(.Z.Z.a.3.;.d.a.t.8.t.,.d./.>X3.4 [.uXeXc g o.&.n h h g X.u.o.*.>.$.-...n #.N n M s z K -.1.c }.oXn $.X.y.D.d.&.q c ..%...o.h N %.^.n ;.;.t.B 3.j @.@.%.a.}.3 d 2 h >.-.B.b ,.c n g t.M w.4.M -.X.M.y.g K J x M -.#.wXwXN.d < v I.N.d.w.8.7.$.e.s.9.B.n.X.x x K z x :.9.J c ..c N.s.&.c &.9.d.9.S.%.3.>.=.:.-.s.'.#.d g #.x n.X.$.$.B 1.H.d.y.<.J ..f.;.>.>.8.y.e.9.n.!.M.d.;.4.3.9.;...x $.M #.x |.mXCXd.b 9.",
"t.3.w.].D.f.e.<.*...8.%.;.t.d.iXuXx -.<.%.;.&.oXrXZ.M.M.6.m.}.%.3.f.>.3.g.,.1.m.j.&.p.a.>.zXmX[.a.w.j.A.j.k.3.a.|.j.w.f.a.a.f.f.r.3.4.;.%.3.oXqXe.J f.zX'.b $.3.X.s.4.e.>.Z.Z.&.<.c +.h c ....K ..$.*.a._.N o...gXoXm s.t.c %.>.M h j.......,...F.`.~.O.6.%.N O.o.;.@.O.h +.l.3 o.4 n 4.q i.w.n q g N $.d @.o.3.r.h y.9.9.8.<.N M d $.]./.z g s -.y.X.%.<.K s.q.K 0.d &.2 4 K $.2.:.M.,.8.M 8.K ..>...y.y.:.y.9.3.8.o.>.r.-.,.y.9.4.#.-.h #.e.s.c m $.,.s.[.p.1.n J ;.e.<.m >.4...0.1.3.Z.!.1.n :.-.1.3.>.-.<.<.s.K |.CXmX3.d ,.",
"d.^.s.f.r.k.=.3.a.>.e.<.=.d.e.M.0XK -.$.M 9.9.(.M.e.s.-.5.+.-.9.-.9.4.o.,.p.;.&.B 9.e.K z sXsXa./.[.`.+XA.l.j.A.A.t.p.Z.a.d.6.k.l.>.4.-.w.6.+X>Xp.z w.zX/.9.2.M.t.>.>.%.-.n.p.K :.c -.%.;.>.&.N...D.s.^.!.4.p.g zX(.c 3.6.e.%.%.c H.1.N M.w.-.w.A.K %.O.M.5.w.X.@.+.j #.4 h @Xf h h n j h ..h h n z q $.f ;.K n ..M m e.r.8.N #.g z $.Z.`.J -.-.m.,.&.7.,.3.9.$.k 9.K e.H N.8.K :.w.e.>.K h n 8.e.$.c m.*...$.c g >.n $.m K #.1.1.4.0.z z k &.c =.J s.0.M./.w.J n L K J +.=.K B $.Z.X.d A.XXK >.;.1.t.4.N J c ;.9.s Z.AXnXM b s.",
"<.t.+.F.%.D.1.3...&.$.n :.8.$.d.XXM.H :.x 7.w.s.p.B.w.w.J ;.w.<.4.p.a.X.2.d.$.L J 9.d.2.&.jXiXp.Z.a.l.J.`.3.~.D.f..Xk.A.5.a.4.H.@.@.o.%.a.!.~.d.$.;.f.iXf.X...t.t.+.+.;.1.%.n X.c 1.X.M ..>.,.M.-.uXd.3.K &.1.c zXqX4 3.a.w.n K t.'.M N w.n.n.oXoX+.3.O.m.2.o.o.3.o.2.g h B oXh j n g d #.X.M n $...,.:.K M c X.;.%.0.n.>.n *.>.m N 8.!.|.8.#.-.$.1.e.;.:.,...J X.n.9.n.K 9.x y.-.d.!.d.y.N =.%.$.<.-.*.....<.4.n :...%.%.x #.K M.$.#.h d m :.2.:.o.s.y.m.M.>...&.e.K %.,.J x $.>.>.n $./.~.=.X.t.:.$.n ..#.<.%.K K &XAXyX9.&.].",
"J r.a.k.%.3.*.>.3.y.x ;.u.&.3.>X/.M.M L K 7.$.J K ,.n ;.3.K <.N 2.>.>.5.0.d.w.e.;.n.9.n.d.xXOXZ.^.1.l.l.5.a.j.4.H.3.a.k.l.a.a.4.%.5.t.Z.g._.Z.4.+.m /.bXS.M t.p.g.5.;.%.c m.3.d.h ..<.-.b z K M.!.[.3.;.d.-.c c iXoX2 %.o.5.n $.%.d.O.>.e.Z.w.z.w.+.&.X.8.o.@.6.z.5.@.h c $..Xw 3 q 4 2 $.N n j b n.>.M $.#.z -.z b b h h z L b J x -.d.s.k f #.<.o.4.Z.c s.m -.w.y...&.d L z 9.$.Z.[.>.m q :.e.m.9.8.m.m.=.J <.o.,.$.>.9.J 4.8.M.:.J k #.z z >.;.X.0.=...s.e.q.$.>.-.K &.$.$.$.>.<.9.e.^.^.&.-.4.3.p.<.K $.J b x >.zXmX>XL q.e.",
"k m.5.$.<.J >.t.<.$.&.M.K c w.Z.^.S.l H 0.m k $.m J ,.>.b f ,.$.n X.K %.m $.n ..2.y.,.S.'.nXnXZ.a.w.OXj.~.^.9.w.k.l.!.l.3.o.6.4.3.5.k.k.+.a.3.%.a.4 ^.NXa.#.u.X.3.1.>.;.M.d...p.O.$.>.n c n X.c c %.%.4.D.#.h M.iX(.4 c n +.a.M ..j.O...O.o.d ..N h $.8.4.*.@.6.6.n t.h n a.$X2 4 4 2 f ,.1.n #.M ,.q 8.-.&.N m x #.0.:.:.L >.z J B w.^.9.x K H u.o.y.e.;.y.4 h.M.9.N N ,.L b k M ).Z./.0.m M J p.M.,.y.&.3.e.>.9.J j $...J K K w.$.z k q N M ,.M 8.8.:.$.4.>.$.1.9.e.:.2.:.K o.$.-.1.%.{.|.$.M.>.>.3.4.$...c J 3 /.CXjXnX<XB.7.",
"'.sX[.d.e.M s.d.K [.(.^.=.,.m.M.wX'.v x z k B J z d.9.e.d.w.f.7.m N.).i.f 9.<.$.$.s.p.M.}.ZXzXt.g.t.Z.k.m.w.a.k.d.j.k.a.p.p.~.3.6.t.j.5.>.3.1.M N 7 d.PXOXX.w.$.m b $.X.>.c c Z.o.>.p.%...z p.g.s.g n s.,.N >.J oXOX0.y.%.0.e.O.s.o.j n $.o.B -.g X.m o.p...h.l.6.4.Z...h 1.tXb q X.b X.8.2.n y.=.$.j p.5.-.>.y.J ;.B.2.:.M 0.f.,.'.[.yXM./ &.B ,.,.o.1.].b 0.B.M.>.x n j o.e.K |.:X>X,XuX'.f.^.+X'.!./.0.d.{.4.M.J g ,.:.y.4.[.S.e.N B K e.d.4.w.y.o.s.-.$.M n a.s.0.2.p.N K s.9.d.>.f.pXOXf.(.3.Z.-.:.N >.,.p.:.nXKXAXLXmXeX,X",
"SXSXcXZXhXsXmXpXpXhX:X9.eXmXCXnXCXsXiXpX0XwX[._. X5XuXjXsXuXyXpXjXnXnXxXbXnXpXyXsXjXaXXXiX.X+XOX<X.X/.~.oX(.}.OX.X+X_.+X}.(..X+XaXjXeXnXdXxXjXnXpXuXAXLXZX:X X<X>XOXXX:XuXsXeX[.oXOXbXrXrXaXnXxX<Xe.I.(..XpXsXuXLXmXjXdXsXaXqX&XsX.XOXqXiXxXyXwX>XeXaXaXyXOXfXrXfXkXkXOXeXVXkX&XeXdXaXiXjXqXOX5XqX3XM.p.f.{.:X{.f.1X'.#XOX).{.).:XjXqXuXB.>X[.f..X[.s. XkXOX,X XrXaXoXXX+X,XpX XjXjXxXSXnXnXsXxXcX5XhXxXcX,X<X#X5XXXM.<X XpXuXpX3X.X,X#X^..XoX|.wXkXcXjXjXuXqXhXjXpXXXwXeXeXqX3XrXqXoXwX<X:X>XoX&XyXaXuXwXbXCXcXAXLXIXLXKXLXLXLX",
":XyX5XhX,XhXcXpX,X[.uX{.kXKXcXhXmXAXDXZXjXkXpXsXnXsXjXeXrXpXkXuXjXcXbXxXjXsXyXxXxXnXpX.XqX+XqX.XrXrXOXeXzXdXxXiXsXaXeXdXaXjXsXnXAXCXAXKXAXPXmXPXzXnXSXSXnXuXbXZXAXMXnXnXmXzXBXzX,XsXkXhXwXuXcXjX5XwXkXxXnXjXpXnXmXpXjXkXmXbXMXbXNXnXMXnXZXxXpXbXbXdXzXdX&XBXBXbXgXgXNXbXxXhXsXOXaXmXiXnXMXaXkX,Xd.wX(.:X:X3XXXeXeXXX).wXqX>X1X,X1X^.OXkX3XlXuXwX>X[.wX3XxXjXpXpXcXkXsXpX3XwXsX}.uXkXbXsX0XwXuXhX<X:X,XuXkX+XwX X'.!.B.:X5X:XwXpXuX5X:X<XXX3X[.wXwXuXwXoXwXwXuXxXxXpXOXsXsXpXhXjXlX<X/..XXXXX<X:XwX[.(.qXpXkXNXzXSXAXCXmXCXnXcXlX",
"'.B.0.C.'.N.J H m.8.N.0.n.n.q. X{.N.'.'.^.N.N.[.:X'.}.>XOXkXjXyXsXuX.X[./..X|.}. X/..X(./.oXqX!.[.OX>X_.>XOXoX,XaXwXpXwX,XwX}._.XXXX}.`.[.Z.Z./.!.{.m.].M.M.a./..X>X'.e.M.n.f.f.a.,X:X^.,.N.8.{.I.:X^.'.N.s.^.1X:X:XN.'.uX@XoX.X|.>X_.wX.X.XuX>X2.;.`.!.(.}.XX X_.wXf./.~.{.p.{.l.a.;.$.w.1.p.b B.w.p.{.<XB.0.M.{.,.{.n.9.s.$.J i.0.N.^.9.w.2.n.N.8.Z. X}.'.N.N.{.,X X].^.M.N.8.0.0.y.J 0.9.0.^.Z.s.'.{.^.0.&.p.8.J B.N.9.m 8.^.n.N.&.:.M.^.M.9.M.S.M.^.}.:X,X0X9.d.M.Z.Z.M.e.y.e.w.s.S.<X>X{.M.^.M.f.!.4.N.XX^.N.8.e.S.d.,.l L ",
"s.^.f.M.).9.l 8.0.&.7.&.U U n. XN.q.7.P H l x {.|. XOX^.x xXrXXX9.9.p.;.d.d.3.M.N 0.q.Z.9.|.[.;.XX[./.}.[.}.d.M.s.e.OXaXzX/.K e.e.r.:.-.1.n N n %.$.g x <.J K z $.1.X.M y.x m J 4 d.>Xb d z m 9.n ..n ,.n.9.L B.n.:.7.'.e.k.[.j.>.2.M.:.9.N.eX).N b N +.5.f.p.4.4.j.n !.).I.x o.h h h #.b M $.4 #.j 2.+.d.J z ,.:.2 N s L :.K 7.! K 9.f.w.N X.<.s.J q.9.L P b.0.x.y.8.K z b N q g s &.K J f -.!.}.{.n.s.s.0.m N.L N q.K k K B.N.7.H 8 &.J M g.w.M.'.8.J uX<XS.e.J J L <.8.8.k &.8.L y.<.}./.$.s.4.n.d.9.,.1.J k K %.N 3.:.J $.0.",
"M.F.y.I.M.q.0.n.7.0.7.0.C.0.N.:X}.Z.9.m m 2 ].pX:X3Xm.f.'.lX<Xn.Z.;.;.-.w.N.1.p.4.M.f.9.d./._.j.}.f.g./.w.f.`.g.1.p.(.dXaXw.4.a.t.j.4.t.3.$.$.4.t.=...s.y.t.>.<.y.3.3.;.;.g $.M q d./.4 q #.b K 3.n.0.K 9.6.K B.M.M.;.f.5._.M.7.!.^.2.m 7.(.yX.Xp.%.;.m.t.w.1.p.@.5.O./.iXOXj %.o.o.X.N o.-.$.o.h.r.5.Z.M.$.-.9.b k C.B.n.N K K q.7.2.'.s.2.9.$.L M P K z $.9.,X{.'.f.p.;.K y.;.:.&.:.$.K &.9.d.|.[.y.0.K $.L 0.K 0.:.8.9.i.B./.0.M :.K d d.^.n.f.w.,.f.wX XZ.M.*.K K w.w.<.K 0.M M J s.^.f.:.9.-.e.4.1.$.d.>.m $.,.t.4.<.&.X.&.",
"wX>X,.I.y.8.y.E.N.B.! 7.L n.e. XXXM.n.^.x 9.uXwX0XXXB.{.OX:X3XjX Xg p.p.p.a.>.2.w.s.w.p.M.g.Z.^.g.A.Z.j.a.Z.Z.Z.d.:.(.MXsX4.4.k.5.2.%.a.;.h.3.4.s.3.J c ;...j.3.;.%.3.%.X.o.3.o.h %.<Xz g J m N.e.2.9.B J J N m ,.6.&.-.<.:.a.s.p.-.f.d.p.f.OX!.f.+.w.d.<.4.p.e.@.5.p./.dX_...g.%.9.u.w.%.o.O...n 1.+.;.p.L L X.M z m z g 0.H N w.w.f.}.,.d.e.d.e.:.h.:.y.C.1XkX!.^.[.f.9.f.d.;.,.,.y.>.&.$.w.S.^.{.N.s.K :.s.M M ,.P P 9.9.].!.0.K d.*.M.:XN.E.0.y.8.[.OX:X>X}.=.X.3.&.J N x :.K $.,.:.Z.s.9.w.w.w.1.3.e.M.:.c 1.u.+.$.b *.N M ",
"sXd.n.,XM.M.:X'.{.7.J U i.e.0.<Xn.0.N.}.N.kXjXpX^.p.n.M.N.sXmX Xp.(.Z.w.>.p.,.M.a.9.p.p.p.-.f.d.F.!.a.>.Z.!.d.d.4.z sXCXyXg.3.j.t.j.5.6.3.3.-.e.5.n r.g.&.3.w.%.f.;.;.N &.N 4.>.m a.[.h <.b ,.^.$.f.f.0.P h L $.s.z $.X.>.-.e.3.N p.~.N @.-.!.0.p.p.9.B g w.p.p.p.:.;.0XdX&X>.a.2.,.4.O.o.$.+.3...h 2.y.N J H z K #.m &.n.$.2.,.g.9./.oXh.].[.M.p.d 9.0.-.e.M.oXa.e./.).f.^.;.J e.e.4.:.;.z 1.A.^.<Xn.N J K 9.#.E H x 9.n.s.[.g.J q.m.m./.f. X2.2.w.Z.>X>XeX}.&.d.O.h c ..m.;.8.X.9.>.:.n.<.d.M.d.>.9.w.a.3.%.&.K <.$.Z.<.d.8.0.",
"wXm.Z.|.w.m.^.M.0.m v L n.8.{.'.s.L M./.,XjXuXXXe.0.f.L :XKXAX7.7.,XOXp.:.a.>.a.3.N M p.f.2.e.p.}.k.f.g.).d.g.d.2.!.eXmXsX6.%.a.5.t.5.p.p.o.3.w.X.p.3.d.e.!.w.4.p.X.r.M ..2.:.h M Z.4.n ..+.<.m.>.y.$.K K J 0.h.E B 9.w.>.$.N.M.9.4.f.5.@.;.|.M.w.f.y.,.'.s.e.t.t.!.m.p.uXOXp.$.g.!.+.a.4.X.o.1.h h 2.,.9.-.d s $.1.$.>.2.z v b t.p.^.!.:.Z.t.h.>.X.&.>.>.'.+XqXf.d.S.s.d.N.d.y.9.1.$.%.2.8.s.M.w.d.B.&.m z &.>.J :.7.9.0.^.d.8.:.8.m.d.<X'.N.s.9.w.9.5XxXkXe.m ^.t.,.p.b <.+.;.X.0.7.0.0.e.9.d.e.:.w.f.1.>.w.>.1.9.K ,.k $.1.w.",
"wX^.y.:.$.H &.$.m 7./ 0.P K 0.).N.^.L N.XXuXwXH M.e.9.N ,XSXmXs.:..X<XZ.p.f.+.g.p.2.9.w.>.2.g p.}.e.Z..X!.!.f.!.rXOX!.kXsXj @.g.a.t.3.3.3.@.p.4.>.w.9.M o.a.4.4.s.N %.n n <.n n J f.p.,.M g ..$.$.2.m k K g N -.-.g 7.2.p.4./.j.p.,.-.$.M %.1.>.e.f.1.<.f.$.9.h.oXOX@X5.yX3Xo.+.4.a.o.>.3.n 4 j b ,.7.s.1.&.;.>.9.w.m N.B.8.$.>.f.d.d.9.9.m r x $.p.9.2.e.M./..X}.}.w.s./.:Xd.N 9.;.d ..&.K $.9.e.Z.E n #.k 0.h.:.L :.Z.,.s.b r.1.9.K w.!.f.9.w.p.K 0.:XsX X4.K M.S.^.1.z n.>.;.$.9.n *.w.-.S.r.&.t./.Z.3.9.a.4.d.9.K M c M 3.d.",
"iXf.<.M.s.B.B.7.L 7.0.q.i H B.OX{.N.&.i.[.{.M.y.s.:.s 1.pXjXaXg.$.}.A.f.}.s.d.w.j.Z.g.2.0.6.>.p.M.-.M.w.>.6.p.+XqXOX0XxXaX4.1.;.o.n a.1.t.+.%.o.,.....n ..n c h ....f s n %.z #.K p.a.$.X.q N w.B.,.N b z n z 2 b g 0.9.1.).!.d.p.-.1.w.N >.d.s.B.p.,.a.^.1.w.w..XqXqX+XdXfXf.%.+.%.h o.4.O.h M b b B w.;.-.n >.>.M b q.q h ..c F.d.a.^.^.e.K $.M M p.M.e.2.j.[.[.d.d.s.t.Z.3.>.,.2.X.n ,.-.&.<.f.f.>.K z J -.w.'.0.[.N.N $.n z X.X.c s.y.,.X.J n m y.>XpXuX}.^.>XH.Z.!.y.$...-.d.M.K y.w.J n...z s.M.p.1.d._.^.d.<.=.K M %.M <.",
"bXqX>X0X:X:XyXf.'.uXwXe.< P N.0.{.pX<X5XsX,X3XuX}.f.9.,XxXjXpX[.qXaX}.qXiX.XOX)./.&XOXH.(.+X+XN.(.rXeXqXrX+X.XeXaXzXaXdXzX}./.}.(.d.t.6.t.5.p.Z.d.-.;.>.p.,.+.4.2.K $.x Z.].M./.XXOX,X/.p.g.p.).f.[.f./.9.p.2.s.^.^.XX/..X+XZ.)./.~.).}.#X).(.[.XX).}.OX}.)././.0XeXqXqXsXrXqX(.(.H.z.f.a.p.-.j.e.M.^.g.Z.9.,.9.%.l.2.I.K !.g.%.kX_./.oXwXiX$X|. XqXwX/.9.d.!.n..XyXpX<X[.}..X<X,X}.Z.Z.qX}.[.#X.X,XM.).e.^.,X3X3X#X X}.f.).1.;.9.N >.y.e.9.^.).). X/.uXhXuX~.$XqX}.kX>XwX!.M.[.+XoX!.^. XXXXXe..X:X'._.#X/.#XXXkX3XN.>.a.A.m.].",
"kXoXA.,XuX|.{.,XhXnXsXg.J B.q.v ZXLXAXSXDXZXZXAXmXjXlXpXuX|.uXjXZXZXZXZXCXKXZXAXCXAXAXcXnXMXMXmXAXmXPXMXAXsXmXAXCXCXmXjXnXZXZXAXbXjXeXsXxXxXnXZXnXuXxXzXxXsXmXbXxXhXsXzXxXwXeXuXdXrXxXtXqXbXiXqXM.}.M.N.{.{.XX XOXrXwX>X|.[./.jXxXbXdXbXxXpXdXuXkXjXjXjXjXyXuXwXsXzXsXwXxXxXxXiXyXqXwXpX).sXOX3XxXcX3X<XyX3XwX5XpXkXrXpXrXxXyXoXsX/.[.[.oX|.].[.qX>XwX,X).]. X{.AXKXmXCXpXCXjXuXwXpXcXZXxXnXhXkXjXjXpXpXxXxXZXmXjXuXjXjXkXjXxXxXxXxXxX5XpXjXcXlXxXcXxXcX,XkXxXcXnXCXnXbXmXkXnXxXmXnXnXbXnXnXnXZXjXCXZXCXxXZXxXnXnXzXzXjXCXnXxXpX",
"8.t.%.u.z K K :.N.S.$.s ,.J M 0.'.kXmXcX,XwXwX XM.d.n.}.s.'.OX.X:XM.}. X:XuX XyXyXwXqX:X<XkXjXMXnXnXxX3XuX,X<XiXuX.X<X^.oX>X}.{.a.^.iXZXnXjXxXjX<X:XdXkXkXmXsX:XwXwX,X<X{.3X,X]. X:X:XM.Z.wX`.3.f.r.s.M.f.p.^.w.b.3.M.m.B.g.^.^.rXqX$X.X[.}.3X:XyXpX5XwX,XOX:XXX>X,XwX/.^.:X'.s.M.g.^.~.!.,X>X}.pXXX:X:Xs.'./.M./.M.).M.0.{.N.H.d.[.m.:.4.1.=.m %.-.,.M.^.,X,X[.yXuX>X>X(.>XoX:X[.XX]..Xa.{. X<X:X<X3X{. X,XuXOXuXwX,X>X,X<X5XuXkXhXnX5XhXhX,X<X5X].|.<XZ.+X/.XX/.|.|.<XM.s.|.[.:X^.XXXXOXpXpXkX<XuX'.,X[. X:X:XXX^.^.M.,X[.].^.",
"c a.J z K ,.b &.K 8 q d H s &.:.1 M.AXyXq k M ,.&.D.u.4.c d.4.p.a.p.>.n -.,.6.k.3.k.t.j.1.w.a.sXOXs.e.i.[.].y.4.:.-.;.4.p.$.n p.$.$.Z.<X:X/.n.N ,.=.8.,.p.kXd.:.g.9.y.$.M 8.:.$.X.K g n n -.+.-.3.3.%.%.<.z ,.j ! j K 1.8.J X.X.A.`.j.$.X.>.,.p.qX>XM.f.p.p.p.p.S.f.2.c f.%.o.+.s.3.5.5.d.>.5.J <.Z.9.;.$.n.<X,.$.-.m j 9.:.M _.J <.N n &.&.K h J $.,.-.^.sXwX-.M s.t.3.t.f.3.j...a.m.4.3.<.0.$.<.9.6.n m.;.N.1.p.M.s.n ,.<.n.$.9.w.jXM.J n.=.m K 9.<.3.%.5.1.j.u.,.X.:.<.n ,.+.w.%.M.K <.<.:X{.y.N.L :.0.f.9.&.<.a.$.*.3.,.d.8.",
"&.3.4.<.<.J b K d M z #.K J 7.K 8 8.KXiXs 1.%.e.u.e.1.<.t.Z.k.p.5.t.&.$.m.!.Z.k.a.g.a.k.d.4.K sXrX:XI.I. XN.4.9.e.;.6.f.4.w.3.1.p.-.e.y.p.,.g ,.p.o.M M a.kXd.,.'.2.9.,.v &.:.x b z m d d $.X.-.,.1.-.$.>...y.+.|.O.x X.d N n h a.}.^.1.3.-.5.1.$XXXy.Z.g.M.9.r.9.;.n $.t.@X/.r.f.^.1.+.-.2.>.-.s.4.-...p.m.|.p.w.w.a.<.m.k ~.%.B z M X.M 8.K x 8.K J :.,.pXwXb ..a.;.Z.p.1.3.t.z.D.^.d.j.6.^.>.j.6.t.>.d.;.e.;.>.;.>.m $.J ,.K $.p.lX0.-.N.:.x / J z a.k.k.S.<.t.4...m %.y.F.>.d.3.%.w.e.d. X'.e.0.7.9.s.N.8.-.1.o.%.`.A.9.^.M.",
"d.N x ..m K $.r.%.:.h l m $.0.8.J L LX0Xl 1...$.<.M ;.p.g.3.5.a.r.a.J <.j.H.a.t.s.<.t.z.t.6.3..XjXOXN.N.).f.>.$.>.e.M.'.a.a.d.w.w.p.1.1.d.+.-.,.O.d.s.e.r.MX'.s.OXp.d.w.M e.f.x :.9.$.K N ;.$.5.>.2.%.X.o.n U 5.3XO.j.n -.,.1.d.d.oXa.h +.3.$.j ~.3X:Xj.-.d.o.+.$.N j j ;.Z.(.$.g.-.X.p.:.X.$.N n.1.2.K >.4.d.a.o.o.p...j s M.~.<.s h d d <.>...4.z P m K nX<Xk j.t.6.].1.d.Z.z.%.f.F.d.3.a.A.t.A.6.d.f.M.s.n.w.w.e.>.>.,.8.e.2.>.,.sXM.e.N.9.$.w.$.M 6.t.j./.D.].;.>.3.1.e.%.j.4.+.3.<.<.p.s. Xe.7.q.9.N.:X8.,.-.<.e.>.3...4.t.",
"8.,...=.;.<.9.p.3.K d $.9.z.n J -.e.LX+Xx 3.-.J >.-.,.e.d.>.d.p.d.w.j.Z.3.A.~.k.4.%.4.l.g.k.$.OXdX/.w.2.f.p.>.1.w.a.a.H.k.A.;.6.w.p.g.e.<.X.$.X.%.3.-.j 1.mXp.N s.9.!.p.i.,.>.b H 4.>.p.j n &.,.0.1.$.m N n 4.M &Xh i.+.p.+.4.=.t.}.d.O.].3.=.d./.zX}.-.d.1.t.p.X.M N &.s ../.B 1.%.2.-.1.1.9.N p.X.;.J w.M.M.z h 1.M z h m ,.f.$.x o.y.$.r.c c $.h *.,.Z.mXoXK f.5.;.a.a.t.d.a.4.t.d.a.4.z.a.a.F.t.>.d.m.>.s.p.f.K 4.N &.J ;.+.$.>.mX9.B s.2.f.p.1.+.j.d.a.a.Z.Z.d.%.S.3.g.+.m.*.%.t.p.3.>.a. X0.7.0.q.[.}.$.8.;.a.4.4.%...N F.",
"l 8.e.m.=.d.e.A.3.a.d._.Z.1.z X.f ^.KXd.m z c $.$.4.h.p.3.>.4.;.-.4.A.Z.j.Z.A.l.k.4.Z.r.~.~.a.$XxXf.I.p.9.g.:.B e.>.w.:.4.a.>.e.4.w.,.d $.K 1.<.%.+.h d a.PXM j h.0.Z.f.9.K >.N k j b n X.2.9.e.e.d.-.#.$.f b f BX3.J.k ;.7.5.r.A.A.>.O.2.M.3.M ).&Xn %.9.b h.+.c $.,.-.z &.Z.1.-.1.5.M.1.:.X.M e.K d.M 1.s.y.k m N J :.*.-.d.d.b K :.2.K 1.M N b k z 2.oXbXM.$.>.6.s.p.e.>.4.1.Z.A.a.2.a.;.>.d.k.j.d.p.d.y.e.2.w.p.>.;.$.-.2.M >.f.KXN K -.l ,.b b &.k.4.w.a.4.w.S...X.t.4.%.&.%...;.N 1.&.4.OXs.&.:.K oXOXp.,.3.>.%.>.%.&.d.oX",
"J M.m.0.y.^.M.>X/.'.XX_.}.1.x $.w.^.jXe.s 8 $.J M 4.9.2.1.w.3.3.w.a.6.A.l.`.~.a.a.j.Z.p._.A.a.@XqXp.e.-.w.B.>.2.0.w.d.d.j.6.;.3.-.X.b M M.8.<.N o.X.X.b ~.JXK :.j m p.f.N z &.M m z k m b g.n.K m h.$.1.,...H o.wX@.u.M r.%.K l.6.%.z.K d.oXg.b f.OXN.Z.-.5.d.y.%.g.;.N N p./.2.w.4.6.w.>.p.].M.M.w.>.-.9.}.p.>.f.w.>.M $.K (.^.z 7.9.N $.$.%.<.e.,.,.^.oXOXw.N $.3.a.M.a.r.;.2.1.r.w.4.%.p.d.Z.d.3.1.1.d.$.&.a.$.4.<.$.k <.;...-.f.KXN 1.#.#.$.e.K [.k.g.d.-.3.k.d...j.$.d...3...<.$.M $.#.-.p.d q d x :X$X;.o.t.1.4.a.w.#.gX}.",
"M s.^.n.OX>XwXyX0X<XxXmXyXyXbXaXsXqXwX!.$.w.9.m J 9.n K n +.n M >.6.%.1.3.;.t.d.t.a.l.l.d.4.p.^.OXf.XX X:XXXd.E -.w.a.;.4.$.$.$.d b b k V +.B M b N b s !.eXp.7.k $.>.k f m 2.H m E #.k ,.s.B z 2.M N &.b x f V q -.b o.%.-.&.d.f.!.p.Z.p.`.m m 4.Z.~.&X+X.XXX:X^.f.s.K B p./.2.>.f.!.w.2.p.!.g.p.h.w.Z.g.^.f.M.1.X.s.y.K -.>Xe.f k w.p.Z.,.n.].^.N.f.,X}.[.-.k ,.-.K 9.4.<.-.j w.>.-.g M N j 9.>.>.<.<.f.w.>.h.>.e.$.z K K N b d H.sXp.p.K -.,.J N ;Xd.>.K ..-.:.g ..,.%.;.*.&.0.-.>.$.9.M -.M.N &.0.w.qXqX[.Z.M.s.<.e.J 9.nX,X",
"|.wXsX,XCXuXMXxXnXhXmXxXwXiXMXmXiXeXfXrXOXf.S.[.0.f.s./.S.(.p./.g./.A.k.~.@Xf.!._..X@X}.+X+X0XXXwX|.qXqX3XqX,XOX(./.(.(.+XZ.).!.f.f.s.$.1.e.N >.w.d.e.p.)..X'.^.s.{. Xp.I.M..XN.f.f.p.n.s.9.5.d.4.w.$.f.f.w.:.e.p.Z.+XuX|.wX<XeX.X[./.XXm.Z.d.f.f..XyX/.!.(.(.f.!.p.2.N K 2.s.p.2.p.;.;.w.-.:.K 1.w.M.f.S.B.Z.d.B.r.M.s.w.].:Xs.:.n.(.(.}.n./.:XuX<X5XwX#X:X0X[.I.M.(.!.p.>.f.2.f.s.j.$.2.N.^.p.f.j.).XXOX+X[.Z.p.>.$.:.$.3.Z.:.&.3X3X<XE.d.s.g.p. XZ.f.!.s.g.,.M.m.^.d.f.k.p.^.^.B./.<XOX:X3XeX0X2X,X0XsX>X~._.g.d.M.(.XXeX,X X",
"nXnXyX>XmXuX X,XhX5X).(.,X.XwXzX|.!.3X>X.X(.rXmXlX5XeXsXiXqX+XaXoX&XtX3X3XOXsXBXdXzXjXxXbXMXMXmXjXeXnXxXpXkXiXxXbXsXbXmXdXsXBXyXeXOX#XqXuXwXOX(.qXbXOXqXeX0XeXyXeXbXqXeXpXeX5X>X3X{..X3X<X[.0XBXqXoX_.wXrX$XrXeXuXMX&X).bXaXyXNXdXBXdXcXeXeX3X[.qXyX}.^..X@X).Z.(.~.!.+Xf.w.f.t.5.j.w.d.$.$.r.>.d.p.$X(.s.p.e.t.M.S./.m.^.>X^.d.^. XXXOX3X5X:XkXwX.X X+X X,XeXdXuX3XyXjXsXwX3X X<XOX:X X:X>X.XOXpXyXpXeXeXsXpXpXpXuXsX#X.XeXbXwX.XyX&XwXwX<X3X>XjXuXwX>XOX`.yX<X[.eXaX,XrX$XqXeXiXpXaXbXaXkXkXuXeXeXiX,XuXwX>XOX XnXiXzXkXwXB.wX",
"qX>XZ.sXsXy.L [.|.s.L '.<X+X/.'.1.|.3XM.M.n.d.N.}. X:X}.}.[.}.pXaXOX,X[.3XqXsXeXiXtXsXsXfXbXeXrX|.oX0XyXqXOXeXqX.X}.wXqXeXsXbXqX3X3XwXpXuXpXwX:XxXhXyXkXpXpXpXxXhXyXXX,XXXXXXX<X3X5X0X|.:XXX<XeX(._.}.|.wX(.3XOX+X0XD.g.[.~./.eXOX:X&X3X!.qX}.N.).a.,.a.Z.9.9.w.M.^.w.a.4.f.d.-.4.p.Z.Z.p.f.d.p.p.e..X(.,.&.>.1.9.d.f.d.s.f.Z.>.).^.'.oX[.s.n.{.XX.Xq.OX:X^.,Xn.0.s.M.s.N.q.'.s.M.N.XX X^.9.M.,X,X).^.M.:X:X^.[.3XuXpX3X3XpXkXkX>XcXpXpXhX3XuXuX,X>Xd.H.f.'.wXXXI.i.d.XXM.[.m.e.s.M.9.M.OX}.j.d.s.[.>X[.m.'.M.S.oX<XZ.+Xm.M.S.$X",
":XuX<XpXXXK y.F.M.J w.[._.!.y.$.s.[.^.d.s.B.'..XN.S.8.e.2.>X+XbXoXf.^.e.f.!.].f.^.A.w.f.A.(.!.m.f.f.^.p.D.d.f.f.~.f.e.S.,X|..X`.}.4.d.[.^.^.M.s.N.!.'.n.9.M.[.n.e.s.9.9.,.d.y.0.d.|.+X0.,.:.4.M.<.,.7.$.j.K 9.<.$.$.w.>.K $.9.;.Z.r.H B N (.d.:.;.N K 1.9.K >.1.&.a.3.;.r.4.1.%.;.Z.1.f.f.a.f.g.w.:./.^.9.J X.%.1.>.4.<.:.-.M c ,.w.w.y.-.%.0.-.m.,.K m.9.N H H 0.2.N ;.n.s.0.M B x ^.C.E >.>.&.;.w.%.s.w.>.;.e.).a.!.|.!.[.:XN.N.N.&.B.y.w.e.w.r.c -.y.i.E :X:Xv s H M J m b $.$.n K -.].,.#.g >.8.e.z y.e.=.{.N.e.:.9.e.=.].sX",
"<XeXH.:X X7.n.N.M.y.F.:XZ.e.2.h.n.[.n.m 0.I.M.n.p.9.E s.8.|.s.qX:Xw.r.:.w.e.f.t.2.-.<.4.J a.a.a.w.1.o.%.y.p.>.w.w...M !.Z.t.9.p.w.n ;.;.>.o.K K <.&.*.1.4.;.w.;.t.w...=.&.4.m m ^.A.!.4.d X.B N %.3.b K -.o.$.>.X.d $.;.r.j 3.6.2.d n z n &X+XX.$.-.X.-.4.n $.w.>.;.g.+.>.>.p.,.K 1.p.>.6.5.1.5.%.$.f.:X:.X.<.A.d.p.Z.$.,.K &.>.^.d.6.!.1.d.&.e.<.1.3.e.-.X.M 9.0.K 2.>.h.N #.M K x -.p.z N 2.>.>.<.;.,.2.:.w.>.e.$.d.f.p.3.3.%.X.;.;.8.;.N b ;.$.:.g z P M d.s.8 m :.b :.x J x M ;.c N.}.>.n x y.-.&.;.w.$.r.m.g $.u.u.>.n.}.Z.",
"t.>./.>X/.>.w.0.&.b >.>.<.K 7.e.s.f.M N n.f.0.>.2.9.M.Z.Z.y.d.oX0X/..Xw.>.4.Z.A.g.9.1.>.,.1.w.6.d.j.6.p.1.1.s.4.w.p.$.Z.}.d.1.>.h.$.-.n -.$.&.>.3.>.3.$.;.3.5.3.>.-.%.-.-.$...:.Z.a.w.>.b N $.3.&.1.$.$.$.B X.X.z <.t.>.6.5.j.k.e.N M V M OX.X>.2.-.%.>.-.X.4.p.g.1.+.o.a.3.w.N >.9.;.X.d.a.5.9.M +.A.^.c 3.d.~.w.;.5.$.1.9.w.y.4.K Z.<.d.d.f.M.<.9.c ,.:.m <.p.M.e.w.;.2.N e.s.7.>.p.1.;.>.e.>.>.n 1.d.w.s.N 2.p.K K g.w.w.0.e.>.4.:.$.b ..+.$.M M d H K k $.8.v H b z &.d K H z 9.J s.}.9.z $.0.m 8.;.,.<.&.N z H 9.M $.-.:.1.",
"%.=.Z.oXZ.M k M K M $.K K H K K N $.B M L $.K $.,.n.Z.p.M.f.!.0XoX/.!.e.-.4.r.w.4.2.>.$.>.>.1.g.~._.Z.w.9.:.-.1.d.w.-.Z.!.w.>.$.$.$.:.%.%.-.$.X.X.$.-.;.>.X.:.-.$.$.X.-.>.&.$.;.f.f.r.3.N $.>.2.X.>.;.X.M n ;.X.>.4.;.o.o.o.%.t.%.%.N n 2.(.`.X.M N X.N m n n n n X.M %.+.n @.X.$.+.w.1.5.$.$.<.$.N e.e.9.;.2.N %.N 2.:.p.9.;.p.>.>.9.4.M.w.4.t.e.r.;.8.=.N 9.Z.[.2.h.9.>.$.;.$.B 9.>.K n b b n Z.e.2.X.n 4.X.$.N 2.9.w.N $.N :.:.;.K N n m B z g #.f k b m M -.K B b g M c M b M 9.m :.m.w.K K $.&.,.$.z $.X...8.*.-.h M n 1.e.",
"$.>.!.0X{.:.:.,.:.,.9.7.7.:.L K -.>.<.,.y.s.s.f./..X}.(..X.X>XfXyXoX}._.(.!.Z.!.~.d.p.p.p.Z.[..X+X/.Z.s.d.s.M.d.Z./.(.OXoX^.Z.M.f.Z.M.p.w.p.a.r.r.9.w.t.r.1.1.w.s.4.a.p.r.w.>.:.d.S.f.r.1.f.Z./.d.p.p.,.;.;.$.w.1.4.d.d.a.w.d.Z.t.1.4.d.Z.`.d.$.X.M n ..o.B -.%.e.e.;.o.X.;.;.X.-.1.p.;.%.;.w.p.9.w.H.s.>.$.-.-.9.p.p.p.e.w.9.w.e.s.p.s.d.p.1.$.M &.3.<.8.=.M.}.wX/.m.p.&.K K ..e.>.;.g.g.p.s.}.XX4.X.X.e.>.X.-.,.p.X.X.J N >.-...K H n M K L m z K -.&.&.>.-.-.P x z M K 2.K M -.,.-.s.Z.j.=.K K :.$.-.K K ..<.9.$.$.M :.:.w.4.",
"S./..XsXiX>XOX>X,XwXwX3XOXXX.X[. X[.[.(.XXXXoX3XrXoX0XOX.XoXwXeXrXoXoXOXOXoX}.oXoX.X+XXX>XeXeXrXoX|.}.~.!.[.|.XX:XOXwXiXyX0XOX0XOXwXOXXX'.}.oXoXoX+XXX}._.]./._.[./.(.}./.^.f.Z.].!.!.^.!.}.oX+X[._.~.~.]./.|.XXoXOXiXeXqXrXeX>XoX}.oX0X$X$X+X[.f.Z.D.d.d.~.!.[.+X}.|.OXOX+X(.(.}..X(.+X}.(..XOX}.OXqXoX).'.^.oXoX@XOXOX}.[.>XXXOX:X).XX}./.^.M.s.N.d.f.Z.S.<XwXwX3XoX(.!.F./.}.>X0XqXzXaXrXdXbXuX+X(.oXwX+XqXqXwX(.}.(.Z.S.(.(.|.^.e.e.s.f.f.e.w.e.w.>.4.p.p.1.e.s.^.M.!.^.^.!.].XX0X0XwX[.S.m.N.]./.e.e.d.S./.].^./.}.oX:X[.}.",
"oX.XXXwXqXiXpXyXyXeXyXqX>XqXqXOXoX~.Z.k.~.~.~./.!.!.!.`.A.k.~.!.!.!.k.A.`.k.A.~.}..XOXwXwX0XoXOX+X_.A.^.~./.!./././.]._./.(.^./.(./.!./.^.).].[..XXX(.!.Z.Z.f.k.A.s.a.f.p.s.d.p.d.d.g.d.f.!.Z.!.!.d.f.j.j.~.>X}.!.g.Z.f.f.p.f.a.Z.A.A.f.Z.Z.d.Z.m.p.1.a.!._.^.]./.!.oXiXsX$X!.A./.].~.f.f.f.f.!.f.Z.Z.f.!.[.|.[.(.}.(.oX_.[.^.^.oX0XZ.!.!.S.m.Z.e.e.t.p.d./.}.|.OX|.(.}._.oX}.oX}..XH.[.^.N.s.^.g./.!.!.d.Z.N.Z.XX(.f.r.A.0XtX0XZ.Z.Z.^./.k.j.f.k.Z.F.d.d.k.k.Z.!.[.]./.}.(.oXqX>X]./.^.S.s.M.M.'.|.Z.m.0.S.XX$XoX0X0XwXeXqXwXXX",
"Z.m.M.s.f.[.^./.!.f.p.5.g.!.OX_.j.t.f.j.l.k.l.j.t.t.`.k.z.l.l.z.A.k.6.k.J.z.l.A.j.H._.yXwXZ.A.A.l.l.j.t.6.4.a.p.9.p.6.4.a.d.t.j.w.1.1.w.>.3.4.4.OX:X;.%.>.4.>.>.4.;.>.J $.s.4.p.p.r.s.r.a.r.a.w.t.m.,.4.p.f..Xf.>.X.$.>.3.2.-.X.r.%.%.+.t.3.2.o.+.%.+.>.t.j.e.s.a.3.t.tXtXa.y.4.a.w.4.%.r.6.1.2.:.;.1.d.e.g.p.t.4.w.t.r.s.9.4.e.[.0Xs.a.D.!.!.p.u.p.1.p.p.t.].}.}.}.].A.A.~.D.M.a.g.1.d.a.p.4.t.2.w.6.,.2.y.s.9.d.p.+.4.m.<XsXI.p.Z.t.k.S.4.s.s.r.m.d.r.j.~.A.t.3.f.t.w.r.9.f.p.e.M &.$.-.w.-.4.1.4.<.,.J &.e.9.r.M.j.Z.m.a.r.s.",
"8.Z.d.4.p.1.r.d.g.a.3.K J J (.!.a.d.~.j.t.j.D.k.A.a.k.t.A.A.A.H.k.z.t.A.~.l.D.A.A.D.Z.sXOXw.k.k._.f.d.3.%.t.>.t.a.f.t.w.j.r.p.a.4.:.4.;.<.>.9.~.xX0Xz 2.r.>.%.$.m M v d J 6.%.n c N J N g 4.-.$.r.m $.,.w.(.sX!.e.4.;.t.f.$.X.o.a.p.>.m.>.t.3.%.;.;.o.%.>.>.1.>.6.O.t.fXtXN 4.1.9.<.$.$./.}.j.n -.>.9.+Xp.a.w.p.X.4.c w.p.;.,.s.[.wXJ 4.f.~.A.k.j.3.p.3.<.3.XXXX|.].j.k.A.}.A.Z.w.d.d.d.a.t.;.1.3.=...<.,.%.d.-.d.p.6.6.y._.zXf.>.a.r.`.`.4.,.t.t.f.4.a.t.~.z.3.4.M.N 3.t.,.>.1.y.K J 9.w.&.t.9.&.4.d.1.s k 8.=.=.K -.&.9.9.y.1.",
"a.d.D.A.1.K 4.;.4.4.m #.b e.qX/.j.t.a.k.z.l.j.d.k.!.`.H.j.A.k.A.6.l.k.A.`.A.z.t.k.j.j.zX`.o.l.f.k.l.t.6.w.A.;.j.k.H.l.d./.r.d.%.w.p.j.e.p.p.a.f.zX0XM 8.6.>.2.,.p.9.8.K $.;.x 2.>.0.L -.a.1.;.$.$.4.4.J d.wXeXa.:.p.-.X.3.o.;.>.4.r.6.f.j ;.N >.+.4.2...1.2.>.1.5.%.p.zXrX%.f.4.%.-.f.XX[.5.6.H.$.p.4.~.tXZ.w.z l q +.w.w.2.M.=./.NX8.s.^.~.}.H.A.Z.F.r.~.S.>X_._.}.y.k.d.~.k.g.^.t.t.d.6.N >.4.5.o.8.8.p.4.6.6.3.1.6.6.9..XNXd.z >.d.w.k.d.s.d.M.3.%.w.a.`.;.;.$.3.F.{.j.Z.%.$.r.d.1.s.K m H m J d.K %.>.M <.*...>.u.+.:.a.m.n ",
"m.4.^.`.t.p.1.o.3.5.%.n m ,.$XZ.;.Z.j.t.j.j.f.f.Z.~.t.a.a.A.k.z.z.l.~.l.H.`.k.l.~.a.$XnXoX3.k.a.S.a.5.t.t.;.3.j.A.!.6.t.n 4.o.:.4.;.a.p.d.f.d.%.cX/.c j ..K 1.k.g.1.b >.1.$.-.>.d.<.J s.f.X.:.w.$.-.c $.a.>X+Xs.p.d.;.d.;.z &.>.8.t.k.%.#.p.w.4.4.3.+.2.>.>.;.p.2.X.g.tX@X@.o.5.a.;.Z.A.).;.z.a.B m 9.4.X.O.%.J z J m.d.t.4.>.2.}.dXf.S._.$Xk.j.Z.Z.~.k.]./.(.`.z.A.k.l.d./.k.j.f.3.a.^.Z.<.$.;.3.+.>.5.r.a./.a.w.a.3.O.4.oXNXp.+.!._.d.t.d.f.^.k.6.e.-.t.k.:.>.>.>.p.$.j.3.r.d.1.a.$.,.>.L &.x J a.;.X.;.#.m -.<.3.t.k./.[.;.<.",
"j.j.A.k.t.3.....X.3.1...m D.wX+Xt.k.r.j.a.f.H.A.~.d.j.j.k.k.k.l.z.H.k.5.A.D.z.a.j.k.z.MX}.t.g.t.4.@.5.t.g.3.A.A.3.k.A.z.3.j.-.4.z.t.3.%.<.$.-...xX^.M 3.<.$.d.;.>.-.M 9.d.$.<.w.9.%.X.w.e.r.w.a.,.9.4.r.g.}.`.a.4.t.3.+...b 5.1.3.;.@.6.a.$.&.+.w.;.e.;.n c w.$.w.k.f.tX$Xf.w.l.6.>.w.f.;.@.f.%.d.y.$.N g n f.X.K w.t.4.e.<.e.a.XXzX].g.d.oX_.Z.D.t.t.j.A._.A.j.Z.d.j.l._._./.d.4.1.!.f.y.>.+.+.4.;.a.j.f.Z.A.6.>.>.5.<.>.}.NXM.e.N.!.~.j.d.3.t.t.a.4.N 3.A.1.3.d.d.4.4.F.Z.!.j.D.s.$.d.8.h.J :.$.1.H o.M s J %.M >.>.d.t.5.<.k.",
"a.%.A.3.b 8.4.5.3.f.a.w.>._.iX$XZ.d.k.g.[.A.a.t.H.%.3.a.a.a.t.t.l.~.l.3.t.4.3.<.j.r.].nXa.1.z.;.%.j.t.z.A.j.f.t.r.m.Z.%.t.3.3.t.%.%.n o.$.o.b 7.wX/.>.e.g.n.p.r.n.>.,.d.y.%.;.<.$.8.<.d.p.p.<.>.2.3.<.3.3.Z.$Xw.w.t.>.N ..t.p.p.t.5.4.r.X.>.>.n %.X.X.....p.9.$.w.p.r.}.tX.X/.g.;.N >.a.5.4.o.4.$.M n %.w.*.1.4.d.d.J <.m -.:.9.oXdXM.3.d.m.j.d.a.k.Z.~./.~.f.t./.5.3.d.A.~.j.6.6.>.$.x z B -.;.p.t.p.p.4.j.5.m M -.%.4.;./.sXf.$.$.r.4.a.e...4.p.4.;.<.k.S.d.1.2.9.u.d.w.d.d.d.y.M J !.<.J g k ,.x m L *.1.X.%.j.XXd.d.j.f.r.F.",
"A.d.A.j.d.f.f.5.g./.qXwXiXsXsXsXoX>X!.f._._.m.j.`.`.A.`.A.k.H.3.>.a.k.M.A.M.M..XpXyXzXCXf.b N z >.4.%.4.1.>.>.t.a.5.X.x X.o.&.$.X.X...$.M =.J K yX<X<.$.j.4.a.s.+.*.$.;.$.3.J ..c J 3.f.k.a.w.d.p.e.h.f.f.!.oXk./.Z.8.>.1.1.>.;.;.%.3.>.;.%.;...%.X.$.M p.f.-.M d.w.p.}.bXtXqX}.p.$.w.a.3.!.r.-.$.&.-.!.p.J $.r.s.e.M.s.2.M.y.y.<XqX^.r.9.e.].~.A.~.a.g.f.A.4.t.r.k./.f.f.l.t.5.d.d.d.M.N.].f.!.M.w.>.w.d.t.t.Z.$.e.w.1.1..X&Xf.p./.Z.:.9.w.!.e.:.>.:.K M.S.f.j.B.M.d.'.].S.D.j.8.K n.^.K $.J 7.,.X.K 8 g h #.4.Z.d.;.a.3.<.9.&.",
"_.).oXS.Z.[.A.p.f.eXmXxXbXbXjXCXmXbXsXkXbXtXiXrXnXdX&XaXqXdXdXNXkXbXbXAXPXAXmXSXLXAXPXAXMXeXmXmXAXCXsXcXnXnXxXcXkXxXpXuXpXaX XaXxXyXjXhXjXzXwXwXbXdX[.g.S.}._.}./.XX.XOXOXXX|.OXwX>XoXoXOXOXOXrX}./.oXOX.X0X|.oXeXaX>X+XOX}.|.H._.oXoX$X+XeXeX_./.+X+X/.rXwX[..XXX+XOXaXbXbXxXsXqX.XwXtXqXiXrXOX0XwXyXuX>X.X(.qX$XrXnXiX:XeXwXyXkXyXsXeXwXwXOXoX0XqX|.+X&XtX%X+X$XqXqXaXOXqXqXqXqXtXaXyXdXdXrXeX@X&XqXtXiXtXxXbX0X>XeXrXoXzXxXyXaXwXrX[.(.yXoX}.].[.<X[.0X[.^.|.|.:XoX0X}.`./.~.[..X>XeXXXXX<X,X|.wXm. X/.&.x <.~.a.r.w.k.>.y.J ",
"MXbXMXjXzXyXqX}.(.xXaXrX>X>XaXnXaXyXzXnXnXOX>X).sXOXoXsXjXaXjXnXdXbXnXAXnXMXbXmXCXxXmXjXmXjXmXmXjXdXuXdXpXxXyX3X.X.XOXoXoXuXsXaXhXjXjX5XuX3X1XyX3XwX}.'.{.:X,X{.>X XOX[.+XXXS.'.)..XoX(.~.f.f.f.f.f.d.}.}.[.~.>XrXrXrXqX$XOXwXqXfXtX$X%XOXeXrX.X+XOX&X>X<X>XOX{.qXrX0XOXeXeXrXwXrXrXsXtXqXrXfXqXOXyXaXiXqXqXOXsXrXiXsXrXrXiXdXpXaX1XyXyXrXdX>XoXoX}.@X@XrX&X+X3XjXwXrXzXBXNXbXBXBXsXfXeXeXtXeXaXeXBXdXrX&X&XsXdX&X3XqXtXwXuXuXrX<XqXwXZ.|.>X(.OXsXwX3X>XOX<X:XhXmXxXjXxXaXxXaXpXlXuXeXsXqXwX5XqX>XXX^.3X'.[.,XuXrXrXtXwXiXsXeX3X",
"hXXX.X0XqX/.}.`.}.^.wXqX(.oXoXOXk.K Z.H.,.M.a.m ,.4.;.w.!.D.0._.dX>X}.(.).Z.`.Z..XZ.d.f.s.d..X[.(.s.e.w.d.Z.4.9.g.f.).p.X./.mXs.9.S.f.2.0.s.>X[.N.).].:X X:X[.B./.'..X!.:XoX(.>X<X'.XX}.[.].F.XX+XA.~.qXqXqX}.XXrX0XeXwXrXoX$XqXfXOXtXOX>XOXqXZ.+X(./.}.}.}..XqX.X}.(.Z.).Z.Z.~.oXoXOXoXH.|.OX}.OX.XOX>X>XwX<X.XoX>XqX>X&X>X(.Z.].[.yXqXoXqXqXoX(.}.oX.XeXoX).M.0XqXOX}.(..X$X_.+XoXoXoXoX@XZ.Z.(.&X}.OX(./._.!.<.!.f.d.!.).M.).}.m./.Z.].w.4.f.wXn.|.'.N.,XxXlXkX).f.m..X3X'.{.).f.N.f.f.:X^.!.;.-.n :.K ,.y.f.d.s.<.s./.XX XpX",
"S.<.X.}.oXa./.].t.<./.}./.}.qXtX_.+X[.iX~.oXoX(.9.w.w.1.e.&.>.OXnXwXM.!.Z._.`.[.}.(.S.!.a.}.}.k.H.Z.}.p.e.1.s.w.w.Z.l.H.1.[.mXM.s.N.0.s.B.N.'.B.0.0.m.M.n.Z.p.d.B.'.^.^.|.!.).{.XXe./.f.j.!.!.s.^.f.XXoXOX_.(.~.`././.~.+X/./.0XqX(..XOX}.OXOXg.}.~._.!.`.oX~.).!.A.p.1.Z.d.p.f.k.k.k.~.6.XX(./.(.[.0X.XOXiX!.}.wX+X|.~.<XoX+X(.[.oX_.wXqX`.D.].w.~.Z.A..X[.,X}.}.rXaX].).+XOX0X>XoX@X~.H.[.^.[.oXiX`.f.}.(._..Xj..Xk.A.f.k.oX~.!.t.f.Z._.]./././.(.].f./.,XhX,X'.K -.'.,X.Xf.e./.^.j.f.a./.6.4.9.9.m m >.3.1.w.,.>.9.J &.9.^.!.",
"g.H.Z./.g.A.j.j.4.3.S.~.d.d.Z.,.Z..XqXsXdXrX}.M.w.1.6.t.r.f.}.}.eX^.>.t.1.f.4.`.(.f.t.j.k.Z.!.6.m.l.f.f.d.4.4.6.t.d.p.~.f.!.kX:.m M :.,.n.M.,.z &.&.P K 1.1.&.>./.&.$.,.p.K E K N.>X3X9.L p.2.S.9.<.w.j.f.+.X.n >.,.>.Z.Z.>.9.-.@.4.e.$.l.tX(.9.d.t.1.1.w.;.$.X.-.$.$.%.r.g.>.w.1.2.t.>.>.6.a...1.>XzX).^.!.!.M.Z.H.e.'._._.~.w./.].(.k.!.4.w.Z.j.k.|.(.!.a.OX/.d.}.|.a._.~.!.Z.d.H.6.j.%.3.k.$X~.(.`.Z.4.(.[./.k.!.`.d.d.d.f.f.a.9.w.Z.B.Z.t.(._./.M.XXN.2.wXs.M.Z.N.^.F.9.0.d.>.+.m.!.Z.d.-.J p.m.4.9.k d.=.=.b :.e.K <./.Z.A.",
"~.rXr.t.w.p.6.d.p.p.p.w.p.s.4.b w.[. X}.[./.e.$.<.4.s.:.s.X.oX`.oXa.-.m.j.j.3.t.g.4.5.;.j.A.w.6.6.a.a.w.4.g.a.j.k.w.4.|.(.XXyXp.v M 1.s.s.e.M >.<.3.8.9.p.J =.a.a.p.p.p.$.x $.$.{.kX[.-.5.5.3.4.5.2.f.w.t.%.3.1.,.w.k.5.w.f.&.o.!.>.1.%.A.gX|.-.2.M $.X.-.o.z d N c $.-.d.~.-.>.$.-.w.e.p.w.p.$.9.tXNX-.y.f.A.>.4.p.%.>.+.6.4.4.a.g.z.k._.Z./.+X_.!.Z.H.a.d.qX@Xa..XH.z.@X(.e.4.;.+.o.p.o.J oXdX$.8.a.d.w.!.%.p.l.p.g.g.f.d.-.4.%.3.d./.p.}.0X+Xf.&.9./.a.e.{.|.'.m.0.].8.0.M.4.e.;.9.>.d.f.4.,.S.;.>.Z.+.$.M M N K s q n M.K -.",
"S.bXr.n $.-.9.4.>.1.w.w.1.;...M >.m.s.Z.6.r.K e.f.4.<.b ;.%.yXwXN.6.a.d.1.4.5.f.r.3.a.3.>.5.z.f.t.5.3.>.r.Z.`.f.g.f.f.eXeX3XaXZ.H -.2.8.e.>.J 4.-.4.y.K $.P $.s.w.1.3.:.,.0.2.m {.bXe.$.w.f.3.t...%.p.9.d.2.>.-.4.Z.k.A.6.>.n j.a.t.f.w.!.gXf.b N X.$.-.N b N ..X.n K b /.).b -.X.:.<.1.2.&.N +.e.tXNX%.6.w.5.t.j.a.D.a.4.-.e.f.5.k.6.4.a.;.k.~.H.j.!.^.].g.eXiX3.Z.l.l.`.k.l.p.%.a.1.a.$.2.[.zX;.e.p.A.j.4.d.:.r.A.Z.k.a.A.N.N.d.!.s.{.a.,XOX`._.t.p.!.[.M >.M.z M.^.<.%.9.e.8.1.J r.$.>.d.4.e.$.<.e.4.%.w.m M b M b h $.-.N B ",
"[.MXt.d K &.9.3.;.-.>.<.3...X.N m &.-.<.-.>Xy.4.$.z <.N $.1.bX+Xd.w.f.4.4.4.a.j.3.;.%.5...=.3.4...w.1.1.j.1.d.<.4.<.>.wXeXf.N.m f N 2.2.d.w.J $.3.J >.-.9.;.,.9.,.$.,.,.&.>.>.M :XpX:.p.4.<.;.Z.3.>.9.w.>.;.p.w.$.d.w.Z.%.$.4.M.>.p.+.d./.gX~.M K -.$.>.N N b N X.4.>.X.oX(.d N %.2.>.p.-.+.1.p.4.qXaXo.%.1.4.d.%.Z.g.6...<.1.z <.1.t.r.>.a.`.(.Z.`.A.k.<.o.}.$X3.|.A.t.`.z.k.2.g.f.6.k.d.>.[.rX$.5.1.a.2.l.>.t.S.e.3.g.2.XXf.M.[.|.e.s.d.].6.@.@.+.p.oX].:.2.'.m.,XXX/.Z.e.j.].&...N b >.j.4.$.>.w.,.d.o.b z b K k y.m 9.N :.P ",
"XXbXz.q $.>.e...f g N n $.c b X.X.$.,.-.w.:Xf.d.g.n b n K 9.CX[.x $.-.t.5.~.t.4.%.1.3.4.&.3.d.a.1.r.B 1.r.r.Z.n >.,.s.uXuXf.:X-.K :.J K 1.>.$.$.M K $.c ;.;.N $.$.<.$.w.8.f.n ;.wXkX,.m 3.d.M.g.d.4.w.d.y.>.<.4.%.2.+.a.o.,.@.f.6.%.l.a.l.gX/.N b b M N d d b M N >...j g.p.X.$.,.$.9.>.$.$.a.9.B $XrXK f.2.J K $.e.4.e.>.y.1.;.M.e.p.Z.1.a.g.6.5.;.a.~.4.w.tXqXd.~.l.j.w.5.5.a.g.5.d.k.p.9.qXiX;.Z.p.p.a.!...e.N.!.).&.!.^.6.6._.[.4.>.M.d.f.w.j.4.>.}.Z.&.M M.|./.%.~.A. XF.m.X.-.J J f.1.>.a.8.d.M 1.g #.M M n q &.;.s.b m &.",
"d.tXoX8 $.K c <.j ;.n $.b X.:.>.-.a.s.m.&.1.-.;.$.-.m X.k g wX`.f %.t.a.;.3.5.t.w.;.a.5.3.j.d.2.>.t.4.w.1.6.4.4.e.4.1.wX>Xm f.f.>.Z.w.n.$.M N ..M &.$.K ,.M >.&.:.X.4.w.$.w.$.$.oXBX$.n p.4.,.a.5...1.p.4.`.6.e.;.3.;.l.f.3.6.f.+.n a.+.5.tX~.h M K B M n O.b c n X...M w.h.X.-.1.w.$.>.;.X.1.B m [.).b j.J p.,.1.4.w.9.!.m.1.p.M.3.-.3.w.d.Z.3.3.a.n.].d.w.yX+X-.A.H.4.4.1.w.Z.Z.~.>.w.N d @X0XB 6.w.p.5.6.X.:XZ.Z.s.e.<XA.f.!.^.k.$.w.Z.d.1.1.d.>.e.}.[.q M 1.9.n d./.(.4.%.%.8.y.r.-.w.3.<.k.X.k.X.9.M b &.x $.z M J >...;.&.",
"1.dXwXk d d 2 n h u.h N >.e.o.X.>.>.p.j.;.&...j z #.m x $.a.sX[.&.M d.w.p.X.X.-.*.>.X.$.o.b n n N M %.n &.:.N K 4.-.w.wX3Xq B k 4.<.>.>.j 8 q H k M N q x #.#.b n #.s c M v #.g wXaX#.z <.X...5.3.4.$.3.%.X.c ;.s.<.o.M.w.o.;.b >.M ..o.a.gXZ.g z X.$.b ....M c O.-.%.X.1.=.X.n e.&.f b q 2 :.p.3XNXXX-.,.;.r.1.#.w.<.K t.3.*.>.>.d.3.+.N %.;.M n 9.>.f.$.2.OXqX4.>.3.w.d.d.f.4.d.M.M $.j.wXNX0Xf $.a.3.a.X...s.%.Z.g.~.Z.(.Z.S...X.a.1.Z.s.f.e.:.M 9.}.f.>.1.K &.-.,.;.z.5.w.9.N c ..b J 1.$.&.c -.z m n s g n x M H m K K c #.",
"w.iX$Xq f X.d #.#.>.-.&.(.tXN f N j 1.,.b z -.g.}.+X.XqXkXmXjXjXkX^.s.5.d.>.8.}.].qXsXd.a.|.:XOXeX}.f./././.[.:X/.f..XjXxXN.,.d.^.f.<.d 1.e.L N m K 1.1.9.J &.<.4.K 9.n.w.s.n.[.zXiXM./.!.^.XXw.s.p.a.a.^.`.}.!.1.g.!._.k.k.f.6..X).$XqXqXgXXX,.M.f.p.>.a.t.w.w.k.~.f.>.4.2.`.l.$XrXJ.!.~.bXPXKXLXMX0Xa.Z.M.s.e.<.iX`.d.w.a.K a.d.Z.M.<.2.H.}.OX/.Z.(.aXoXwXNXiXl.a.!.-.a.3.w.:.f.].oXbXmXPXCX[.b f.6.p.f.(.eX[.p.s.|.s.b 3.J.2.b M p.S.>XoX}.!.m.s.{.OX>Xd.>.$.&.K J s.s.N -...M 4.e.:.Z.}.d.D.w.1.d.d.s.:.w.u.4.x #.2 K b q 8 ",
"zXaX>XoXaXdXfXaX|.yXrXgXnXSXCXbXnXCXAXnXdXcXmXxXxXnXCXLXKXZXnXLXKXLXSXCXSXCXCXAXAXKXLXSXSXAXSXSXKXAXCXAXzXjXnXZXnXnXCXcXNXnXmXCXCXmXcXwXjXjX,XpXhXjXzXjXbXsXxXsXsXuXbXjXiXjXsXyXbXbXdXaXwXuXsXjX,XkXbXaXxXbXNXdXkXzXnXjXzXbXNXbXKXKXMXNXBXmXxXxXsXfXaXdXbXbXbXMXAXNXPXSXAXIXIXPXIXIXKXKXPXIXLXKXKXPXnXbXJXKXNXPXKXSXzXbXNXnXnXPXKXNXCXxXnXPXbXxXsXyXBXMXsXyXjXyXuXsXkX>XzXzXCXNXAXCXPXLXKXLXLXPXNXIXIXPXKXIXKXsXAXbXSXMXzXAXAXMXCXCXIXPXjXjXsXqXpX,XhXaXiX(.wX>X,XwXtXsXrX>X.X|.].qXoX,XkXkXwXxXbXxXpX,X3XkXxXuXkX(.f.[.Z.oXtXXX",
"OX`.wXqX&XqXqXOXOX0XOX.XuXrXwXeXuX,XrXeX0X,X0XxX3X|./.M.[.!.B.uX<XkXwXqXyXCXnXS.!./..X:X>X}.|.[.zXXX/.oXdX3X9.e.|./.:.7.y.-.s.s.0.:.xX.XX.<.$.-.w.p.1.Z.p.(.:XjX,X;XN.N >.4.a.p.1.M.1./.[.oX+XzX[.n.Z.w.e.:X[.f.S._.>X&XsXsXsX!.Z.+X^.~.[.#X^.[..X[.oXOXaX0Xm.^..X).+X XS.C./ K k ,.#XzX.XOXuX/.s._.>X}.}.OX0X}.(.OXXX@XXX.XZ.(.OXoX0X!.wX X[.3X<Xs.6.OX}./.Z..X(.M.[.+XrXyXkX_.uX.X[.oX}.!.@Xf.(.$XoX[.rXoX}.wXeXrXhXwXqXeXeXOX_.fXwX:XwXjXpXZ.!.(.[.0X>.a.<XoXwX|.wXnX.X+X/.|.>X&X(.[.}.w.9. X(.!.(.jX/.X.w.j.F.k.XXsXqXzXaX3X",
"f.k.j.a.d.1.;.j.w.^.g.N M f.M.M.'.n.m.M.N.s./.nXM.l y.s.y.9.0.E.N.,.s.s.E jXjXx g $.t.d.K 1.9.1.l.k.$.&.nX[.2 :.:.p.,.f.9.d.n.7.J M jX.Xm 4.m.e.4.#.;.a.M.;.f.'. XsXI.M &.f.>.:.r.a.>.&.&.J d zX/.:.d.1.,.d.p.a.-.d.j.(.(._.$Xa.2.;.w.p.9.e.m.s.<.N -.N 0X_.b m B B $.m H z K k 2 d `.zXw.-.f.$.1.<.4.a.1.,.S.4.X._.qXd.9.p.6.f.f.p.1.m 1.f.M.}.tX/.0.d.f.j.1.5.e.a.}.eXXXqXsXn..Xd.1.2.w.4.g.a.H.a.+.f.}.d.}.wXM.B.}.).Z.p.!.p.f.p.[.'.!.}.6.h.w.d._.&.X.p.M.^././.}.aXq.M.s.9.J ,.9.&.f.r.&.s.d.K m :X~.U k z -.a.[..XS.S.A.1.",
"6.j.t.6.3.3.p.w.6./.2.m.K $.4.s.s.9.1.g.'.7.>XAX9.r v 9.9.e.f.i.L B i.9.:.aXsXw.<.1.k.a...s.>.%.K M.;.^.nX.XP 9.:.2.9.9.8.:.0.q.J K xX[.z 8.2.%.;.9.<.w.d.g.s.1.>.yXZ.K $.$.$.<.>.&.-.$.;.B >.NX:Xj >.w.2.f.Z.^.M.M.Z.M.d.p.dX[.n 5.1.6.w.2.f.w.g :.w.k tX(.s B L >.N X.:.N ,.s g s.(.MX9.p.Z.;.k.l.k.A.m.Z.a.4.r.OXiX`.'.1.z.d.d.4.2.9.d.e.a.[.dX[.M.f.!.w.Z.}.}.(.Z.}.`.wXiX|..Xr.w.w.A.a.Z.f.k.g.Z.Z.!.g.Z.iXs.f.(..Xw.Z.e.r.2.d.^.n..XxX).%.&.m.}.K e.f.M.J 0.e.[.yXm.L :.-.x 9.H J e.e.2.d.k.<.d.wX'.:.9.K m e.].qX-.-.d.X.",
"Z.F.l.5.a.>.a.p.r.M.!.9.K -.,.9.p.2.-.M.M.2.].mX^.8 :.q.q.s.$.-.7.8.,./ m jXyX&.4.g.j.K 1.r.1.K 3.e.M OXCXoXk $.>.s.8.q.J k ^.,.k y.xX>X#.;.,.;.,.J K <.1.$.>.<.4.,Xf.,.$.,.e.;.K N &.&.$.J Z.bXf.g >.p.<.8.p.6.Z.!.k.a.r.0.NX,.>.p.B -.>.1.2.X.+.w.p.-.dXOX#.H V -.d #.-.d P #.K k l.zXu.S.4.t.`.j.k.A.A.3.k.a.t.}.aXH.1.>.w.&.w.9.p.e.s.p.Z.0XsX}.Z.p.'.f.A.Z.f.}.!.).A.,XzX]./.f.p.4.g.6._.a.k.w.!.oXa.t.~.rXM.2.[.-.$.:Xg.s.,.2.^.d.yXeXK z y.:X(.2.e.d.XXn.w.B.|.(.d.$.>.<.m 0.M B.d.m.;.w.<.g M.uX[.J L K K f.+X0X!.M.%.3.",
"A.4.;.p.p.d.d.f.Z.[.Z.1.-.$.,.w.s.2.9.p.:...M.nX(.1 s H B.f.$.0.:.K H K -.jXpXN 8.g.a.3.8.>.:.X.a.<.z dXKX0Xl -.n.n.s.[.9.&.F.s.q.H uXhXJ e.n n 8.e.X.h.;.<.9.K 3.S.m.-.$.2.9.J >.2.L $.>.p.eXbXs.&.e.%.t.w.f.>.p.p.;.;.9.d.zXK :.K ;.>.$.N 2.$.1.3.:.N zXOX8 k 7.q.P m b v P m -.q m.zXa.r.w.(.~.A.a.~.z.A.4.4.k.[.zX).M.1.>.3.9.9.f.m.p.g.f.}.iX[.g.k.(.`.H.`.~.^.H.w.f.|.bX_.}.4.2.,.3.r.k.w.d.j.k.`.l.~.$XsX<Xs.).w.9.'.p.s.;.g.y./.`.wX<.$.1X<Xw.e.p.M.^.2.y.I.'.$XM.9.:.y.>.0.$.9.!.m...%.n N .XsXd.d $.%.M $._.$Xa.%.l./.",
"a.+.a.f.a.j.a.f.j.^.Z.w.1.>.0.f.d.-.2.>.h.:.n.sXs.< v P :.K &.K :.H x x M pXsX;.N 4.$.4.:.-.>.g.s.>.k ,XKXOXb 9.;.9.K ,.w.$.e.s.s.b sXjXK b J :.2.9.K N 8.r.M g 8.S.K l ;.4.r.9.$.p.s.y.9.e.>XuX1.:.w.;.w.d.w.w.9.>.w.,.f.Z.dXN >.2.N >.g.9.a.a.>.>.g.>.rXOX3 V f.2.b 8 :.8.9.9.:.7.f.BXw.>.l.k.6.H.w.A.k.t.4.A.m.$XtXp.a.4.d.s.;.a.p.f.Z.Z.A.$XzXg.f.a.w.J.l.`.Z.f.d.H.f.oXPX/.!.<.N :.d.Z.a.k._.~.`.4._.).J.}.f.6.Z.Z.:.'.!.[.9.f.1Xf.uXZXd.s.N.1.+.[.M.d.M.n.7.=.d.eXh.K x K &.N 2.!.^.t.X.s b 2.M.aXn.9.J $.-.n d.rXa.4.D.p.",
"d.%.d.4.4.a.d.s.4.k.f.2.w.w.s..X).$.N :.n.$.j.oXj.r l B $.H s l 9.#.k s l MXsXx >.1.;.>.#.N 9.>.a.a.j L ZXuXz d l 7.J 2.>.$.9.z J #.uXjX,.p.B.0.n.9.9.8.K 2.m >.|.f.8 8 L 1.9.>.K s.:.M z $.y.OXw.$.1.4.p.t.1.;.+.3.;.2.w.~.aX$.N ,.:.,.;.n N X.+.1.2.9.fX.Xf q L #.k d P z z l k 3 1.rX1.p.k.A.`.6.t.k.4.3.j.%.;.0XiXA.j.p.a.2.6.9.1.p.>.4.1.(.tXj.`.f.A.k.H.A.H.9.1.f.n.OXPXf.g.+.p.t.a.a.l.~.k.l.z.Z.f.+.d.XX>X!.}.>.g.S.~.).^.M.p.4.|.@X{.d.:X}.m.p.o.f.s.e.^.0.].$X>.K z :.$.&.>.d.`.p.4.;.0.K k 3X.XE z $.&.#.<.[.w.5.d.g.",
"4.1.<.p.a.p.k.k./._.(.w.f.XXqXpXOX9.J 0.M.w.{.pX3X9.K J N J H x k k &.:.!.SXmX<.M B M <.<.e.K n -.m $.XXAXKXPX(.s K m 2.-.e.M.H v k jXuX!.wX,Xs.[.S.M.B.1.s.,XjXxX,Xv x Z.S.Z.^.).(.+Xs.XX,XjXxXwXd.>.B B $.<.c n b 1.:.$.}.$X>.X.X.M h +.$.u.X.>.>.N $.rX}.N 8 K m .X_.H B X.>.w./.oXsXZ.e.S.k.d.4.t.Z.w.$.d.f.|.eXsXqX/.n 6.p.M.k.}.OXOXwX|.qXsXqX@X_.+X).$XtX.X_.[.(.g.>XsXqX}.N -.f.M.[.`.Z.k.!.4.k.f.d.<X:XsX#XN w.'.}.1.p._.4.S.[.wXCXlX^.|.oXw.a.tX}.>.(.1X:X[.sX|.^.n.7.0.q.9.s._.%.>.O.N #.M.iXhXpX9.2 s >.f.sXyX[.$.a.",
"[.@X}.[.oXqXyXzXMXnXcXcXbXxXnXCXjXmXAXmXnXnXMXmXnXmXAXmXmXZXAXmXmXAXCXnXmXSXZXAXDXCXSXPXKXZXCXAXmXjXmXSXSXAXSXmXnXCXCXMXxXCXAXmXmXnXxX:X{.sXcX,XuXwXpXpXnXjXbXcXlX5XpXZXnXnXjXkXdXxXbXsXbXnXmXxXnXaXwXzXbXdXpXiXpXzXzXdXzXMXJXzXzXsXyXiXdXeXeX_.).f.f.).BXwXaXaXbXJXAXNXbXNXMXMXdXnXJXdX.XwXqXiXoX}.|.|.0X0XdXtXyXaXaX#X[.f.aXzXwX}.iXiXsXsXyXuXdXkXdXfXjXfXsXzXbXyXiXbXrXMXsXBXBX<XOX0XqXuX,XrX<X}.OXtXiXaX>X<X'.eX[.(.eXaXqXrX<XXXAX>XnXnXcXkXaXtX.XwXnXfXaXuX>X}..XZ.~._.F.7.'.:X>XcXbXyXeXwX0XpXnXbXdXsX,X}.sXMXnXnXCXMX.X0X",
"NXbXNXxXMXmXAXxXpXjX5XjXeX.X:X3XwXuX)..X:XuXpXbXjX3XjXpXwXpXsXcXuX(.5XuX3X X3XwX,XsXkXaXjXxXmXjXjXsXmXnXsXpXwXuXxXuXnXnXjXCXmXcXxXcX<X{.N.XXjX X{.<X,X:X:X'.{.M./.I.^.|.I.'. X X3XwXM.i.M.d.!.|.XX_.0XOXXXqXOX+XOXqXqXrXrXOX,XOXOXaXzXbXdXdXbXzXtXOXfXBXBXaXzXiXzXzXdXdXnXdXMXbXNXiXnX+XqXaXwXiX>XqXsXuXiXqXsXiXhXwXwXpXpXiXnXbXOX$XiXuXqXwX<XpXkXwXwXeXiXsXaXeXdXuXwXBXxXsX>XdX>XpXbXjXsXsXrX&XqXsXaXsXqXqX:XsXuXkX}.eXkXaX$XiXsXwXwXkXnX|.[.cXaXiXeXeXwXkXsXiXiXdXsXdXaXOXsXeXzXaX<X<XuX3X5XuXuXjXnXsXkXwX:X1XrXmXMXPXMXmXmXnX",
"+X}.sXsXzX(.N.e.9.E 9.n.$.>.w.s.b B 9.q.M.B.p.^.h.K L v q.s./.xX,X-.N.f.^.:Xs.w.s.f.:.i.9.s.s.-.$.K s.XXy.f.).{.,X|.3X3X3Xm -.$.H 9.J 9.0.:.2.K n.7.n.L 8.M m M ,.K 9.q.L M.'.q.,X<X,.2.s.:.-.e.s.!.K -.%.a.w.+.$.4.>.2.X.-.a.!.w.-.-./.~.rXeX).g.f.f.l.g.d.f.s.D.k.g.l.k.A.(.}.4.:._.a.w.k.d.Z.(.p.wX.X|.Z.|.y.p.^.f.}.!.2.!.!.3.g.f./.'.M.)./..X6.j.Z.}.j.}.3XrXqX[.}.!.^.|./.e.+Xf.!.H.f.p.OX!.).!.(.g.s.:.[.s.f.;.(..X(.[.}.}.s.9.,.<.}.Z.).H.@Xg.f.(.!.XX(.^.s._.[.+X}. X'.|.}.M.q.M.e.,.8.s.[.:XM.!.^.Z.(.|.>XeXdXiX0X(.[.",
",.e.yX$X/.N N s.p.s.h.1.>.s.2.x n $.2.p.n.:X:X/.e.-.m 0.M.N..XpXsX2.s.9.h.e.F.^.B.p.1.s.f.n.8.9.:.>.p.n.q.'.S.^. X:X3XuX3X2 k B d.9.n.I.7.N 9.$.,.,.:.d N.m -.:.y.>.X.>.8.{.eXuXMXqX:.9.f.r.w.s.^.H.6.2.2.;.w.>.$.Z.f.>.a.-.6.@.;.8.8.p.f.tX).s.2.-.h.h.;.@.%.X.N O.g.6.s.a.k.5.6.d.M.3.X.8.$.a.j.$.eXoXB z %.z ,.S.5.g.j.d.M.l.%.4.r.a.~.j.M.!.A.t.t.`.k.3.d.rX[.M.M u.w.s.e.q.x f.>.;.+.a.w.rX$X,.+.p.N n /.N.o.d.;./.Z.k.k.Z.f.%.M [.|.].f.[.H.z.;.e.:Xw.s.2.y.y.{.J s.K w.L L K +.>.^.d.,.M.s.N.F.f.d.;.e.g.a.;.%.K #.M $.e.",
"K K wXmXOXb >.$.B M -.Z.oX,X&.J 9.,.w.>.$.8.2.Z.s.2.:.s./.M.!.CXuX:.s.p.s.9.M.Z.&.:.7.r.2.i.K :.$.2.2.9.).M.e.B.S.S.3XxX1Xv ,.y.H x w. Xs.-.>.m K m x w.e.^.XXh.9.9.0.$.$.s.e.).xX3X-.w.3.d.w.k.^.,.+.a.:.;.w.!.p.d.l.5.j.;.p.-.4.9.>.4.f.NXH.s.N $.a.+.;.@.3.z +.a.d.z.w.p.4.O.=.l.a.2.5.3.3.4.p.>.tXXXn <.r.>.y.:.g.j.t.g.d.r.%.3.w.m.t.3.A.5.1.d.A._.`.a.w.>X}.w.H 0.,.0.H 9.p.m.$.w.g.m.X.tX(.;.X.<.$.6.M.2.$.[.[.|.4.t.6.d.K 4.A.^._.f.a.;.3.^.m {.hX<Xn.-.9.d.|.K $.j K M K K 2.M a.r.:.w.e.;.$.e.9.N 9.<.;.e.-.w.,.N ,.w.",
"3.p.OXmXoX-.2.$.$.K s.-.4.%.b $.$.;.,.:.B :.k 8.n.L p.s.^.^.N.nX].s $.;.&.2.:.,.-.h.:.9.L 7.M K :.:.K P q.:.U :.k v 8 ,XpXH &.s K n.9.e.1.l K w.L x 0.y.m 1.K 9.-.8 =.m 7.,.1.H iXmXB 1.;.Z.>.;.s.m K X.X.4.>.Z.a.;.p.6.(.>.l.p.).t.1.@.M.PX(.1.$.;.a.+.2.6.a...].a.Z.w.>.h ..@.5.4.h.<.X.>.1.>.B $..X^.b M <.>.k.o.>.`.5.6.s.A.w.9.!.t.r.3.t.t.d.4.t.6.4.4.w.OXwXf.;.s.w.i.n.p.p.4.&.2.6.a.w.(.m.k c %.4.e.!.p.3.(.^.~.4.p.l.k.%.|.k.[.g.>.#.n A.w.2.s.wX}.2.E.E.m.9.#.:.N 9.q.L ,.8.M y.N.M &.,.P y.e.1.9.s.9.:.J <.%.f.X.n d.",
"9.a._.MXqXM :.>.K w.,.-.<.M $.K <.m M $.&.s.N s.q.7.m.s.^.M.s.3XXXP f.v 8.K p.9.s.E K L :.L x :.J 8 H s l B.7.v P y 8 hXuXs s.L E.{.m.e.8.=.9.K n 1.e.&.$.0.:.m ;.J K -.H -.:.K zXzXb X.b Z.e.d.1.a.$.7.,.2.-.X.-.z 2.!.!.;.w.@.n H.a.$.X.zX~.N ;.3.@.t.M.Z.%.S.S.(.,.M.m.M.e.u.>.>...%.5.4.z.h ..(.f.}.1.<.M.>.5.j.1.t.3.g.d.j.-.e.Z.w.>.;.d.m.a.4.4.k.z./.f.wX<X>.p.w.w.X.>.9.d.>.;.<.N -.2.f.A.b ,...d.4.f.4.M [.H.6.D./._.3.[.'.oXe.F.F.|.N.,Xm.m.e.uX[.9.n.-.s.-.s.9.:.0.L x $.9.:.:.9.:.m 0.J *.J 9.0.&.,.K M 4.;.9.+.>.d.",
"a.4._.bXoXN 2.$.2.4.K :.>.M z M K r.K &.8.&.x K 7.B.<XI.S.M.:.XXuX/.wXK 7.B /.[.e.-.&.p.m E 9.v l p.n.-.B.I.0.0 U v 7 uXpX0.N.9.9.L :.$.$.<.M.:.p.J 8.9.9.K 9.q x m K k x J q s sXaXd $.9.e.d.+.h.m.%.>.w.;.w.~.w.M M 3.@.@.d.6.w.B.f.t.X.MX(.N w.1.r.:.@.9.s.u.5.r.5.F.f.d.%.>...V h 3.1.p...p.[.r.k.}.X.4.f.M.d.4.M w.;.k.3.1.>.d.|.d.5.w.j.Z.9.a.3.~.!.f.p..XXXx M.-.K N M.^.$.X.M X.$.1.$.`.}.v ;.1.^.^.6.o.w.[.H.^.p.z.^.}.F.a.Z.l.<X|.].;.Z.@.M.^.:X).:.m 7.M.d.m K 0.7.0.0.n.9.0.:.s.n b 2.>.$.K 9.0.J :.N $.p.1.&.>.>.;.",
"3.o.OXNX>Xm 2.X.>.$.x m n K b x #.M x J K z H K &.e.M.x /.f.e.{..Xh.Z.r x $.p.>.:.B J 2.#.M J 7.hXpX5X^.N.N.L H I.7.2  Xs.l k 8 s x J n &.K &.q x #.x K 9.K m d 8 w q k #.s 8 l yXiXd z n b X.-.M z %.+.&.b n 2.#.;.,.M L 9.>.%.>.,.r.g ;.NXg.>.f.6.>.+...z #.k X.$.>...O.5.;...6.f X.l.t.-.O.J n k 1._.j.p.~.8...%.*.4.a.t.m 4.1.f.~.a.f.>.w.p.4.e.j.k.H.^.9.[.'.:.n.w.>.a.a.p.n %.$.M n b s d._.z K 3.y.1.a.N j.!.o.4.g.g.(.>.Z.f.a.d.^.6.a.a.k.!.M.m.}.|.p.e.>.p.9.N 0.2.2.L m >.N b K y.0. XOX^.L $.E 9.X.K -.X.p.2.X.<.3.%.",
"3.,.>.NXOX3 s s v f 2 q m #.V k s -.$.=.=.2.e.0. XN.5Xs.,X:X,XkXnX/.].}.:Xm.).).1.e.K $.B i.B.n.<X/.<.$.^.0.N {.{.N.{.lXhXC.n.9.B.N.{.|.^.8.v k ..J P :.l k H s.m P 9.&.J {.v 0.ZXAX/.9.p.}.OX~.!.Z.M.f.d.a.4.g.Z.^.s.p.N.(.6.1.).H.k.@.@XNXoXp.d.a.%._.5.h z +.;.g.1.%.%.X.;.l.5.n *.a.3.%.a.r.k.].eX(.$.$.>...=.5.K ,.8.j.w.4.Z.f.6.3.<.,.=.$.:.f.k.j.<.N.9.:XqX{.,.-.K M z z f x m ;.>.s.N.>XqXs 8.K w.>.J >.:.p.4.^.^.4.5.>.M.%.1.p.j.a.k.{./.(.XX<X<XyX!.^.K N.s.N 8.:.$.2.7.4.J J s.[.Z.^.d.0.$.&.7.z $.M &.,.y.s K &.<.3.",
"oXoXiXMXnXwXyXOXeXeXwXsXsXaXuXaXpXuXhXwXuXjXxXZXmX3XmXxXwXjXxXmXbXwXpXjXuXpXkXjXuXpXsXnXZXcXZXuX1X3XwXjXlXxXcXxXnXlXAXZXAXCXSXDXSXxXmX5XXX,XhXjXjXxX1XnXkXnXnXnXsXjXmXbX3XnX3XkXZXpX<XOXyXxXsXXX'.}.n.XX3XyXzXdXxXNXPXPXCXxX@XBXPXKXAXxXAXKXzX<X3XtX&XOXz.H.4.Z.+XiXtXxXaXzXaXBXzXyXkXCXkXwXPXJXPXJXJXeX[.}._.yXkXeX0XzXsXyXdXqXyX>X0X.X}.N.'.XX:XyXwX0XeX{.dXnXzXjXiXpXqXeX.X3XiXyXsXMXhXKXKXKXNXeXwX_.mXdXfXzXkXpXkXMXsXsXqXqXkXyXyXaXzXeXdXaXfXzXnX.XnXsXfXsXaXnXnXpX,X,X>X>XOXiXsXxXSXnXsX XwX,X,XeX,X<XuXXX<X[.!.,XiXqX`.qX",
"zXzXiXaXnXnXNXsXkXdXdXbXbXnXaXyXoX^.M.s.d.3.k.d.>.3.a.e.D.t.t.>.%.=.4.j.4.4.f.6.a.Z.>XmX:Xm.P <.9.1.f.d.~.[.p.p.H.d.S.M.'.N.{.).'.$.n.<.N.{.N.n.3X{.L 0.C.0.s.m K m -.9.-.:.e.p.-.m.y.!.m.1.w.,.-.a.t.f.0.:.iXrXw.-._.k.p.>.@.f.Z.z.Z.H.+XOXf.(..Xf.@.;.x K J K X.j.@XBXKXNX.Xf.).S.Z.f.9.>.Z.g.Z.1.;.$.1.Z.9.:.].f.Z.>X.X}.|.}.wXBX`.M.[.OXOX:X].|.!.f.p.[.:X}.(.>XOX(._.[./.n.w./.].}.}.N.4.w.Z.}.a.^.XX(.}.!.qX+X|.qX>XaXBXXX!.0Xk.oXwX`.@X`.>X>X^._.|.5.d.!.iX.X@XJ.}./._.$X}.iXsXwX>X4.!.y.^.M./.m.XX|.}.oX|.0XwXsXNXaXNXbX",
"(.A.s.<.d.1.g.p.a.1.-.4.Z.}.rX&X1.<.&.<.4.j.9.>.3.r.t.4.D.t.%.w.A.t.t.t.<.Z.k.t.`.A._.xX9.m <.4.%.d.Z.w.f.f.a.Z.d.w.&.K K <.>.,.e.#.&.y.&.7.0.x ,X{.l x 7.s z s x d X.J K <.w.K p.s.-.w.+.+.j.<.%.p.;.w.<.N.MXtXg.f.k.6.g.5.6.6.5.@.>.~.J.z.6.d.^.M x k l K :.y.,.$.w.&XNX+.t.t.a.t.4.o.h.o.p.n c o.4.>.$.u.K 1.$.+.%.3.g.c 4.>._.zXw.d./.A.!._.m.>.,.5.*.a.H.}.|._.OX`.~.D.N.M.;.M.9.>.>.$.m n 2.4.~.f.p.a.5.-.!.d...a.j.qXbXg.Z.+Xl.a.}.6.`.k.$X~.A.|.`.H.A.|.}.k.l.a.~.g.j.oXA.m.qXM.&.n 9.-.d.D.Z.>.1.%.s.d.s.A.<.(.d.a.d.f.",
"j.t.>.J 4.K e.w.;.3.%.<.,.>.fXoX6.d.a.d.3.t.4.w.m.A.j.t.r.$.3.4.t.5.<.1.<.4.a.t.A.%.a.,X,.K n X.3.M.3.d.p.w.d.w.s.d.f.w.9.<.J $.r.x 9.y.0.f.e.B.cX<Xs m M k m k H x m z $.-.p.h.k 2.h.<.>.w.N.%.,.1.p.g.=.Z.bX&X>.1.o.+.6.+.`.~.A.5.Z.!.z.l.a.w.m.>.k X.1.0.1.9.m 9.w.@X&Xh m 6.o.4.D.a.f.p.s.+.w.Z.4.;.a.e.3.p.6.f.$.;.>.@.d.$.+XzXj.e.Z.Z.D.m.A.3.r.d.d.!.oXqXeXrXk.`.D.!.t.d.k.f.w.n 2.t.B 9.Z.~.~.A.f.Z.3.&.M a.d.k.^.rXdXk.4.k.H.3.`.`.].`.].`.`.j.l.$X}.k.a.`.~.~.}.oXz.oXt.a.iX{.e.4.=.3.~.=.a.<.z p.a.-.&.Z.4.[.j.a.1.d.",
"3.1.&.d.4.&.d.>.4.1.j.w.>.Z.iXA.l.6.j.[.3.>.Z.Z.Z.f.^.4.3.1.4.$.c %.w.<.t.=.4.1.k.&.M.<XZ.<.M.9.,.d.d././.9.t.w.k x $.m 3.x $.,.:.y.n.8.L 7.0.s.nX:Xx l m l l 8 m x s.9.,.0.x b x >.>.2.d.p.m.p.$.4.^.<.f.d.MX~.b w.o.r.l.;.>.H.k.2.2.5.z.l.g.d.!.w.$.-.2.9.<.1.L 2.+.~.+X-.2.>.o.t.;.o.+.n 1.r.p.d.6.f.p.3.4.4.n f.S.t.3.1.-.1.(.JXw.+.k.9.A./.`.j.a.].}.~.A.`.`.oXa.D.~.~.j.a.8.%.o.1.n.p.n w.5.4.@.a.f.H.a.w.f.;.d.f.^.iXJX$.w._.$Xl.~.(._.(._.`.`.l./.}.l.z._.`.>XA.A.A.t.A.f.F.jXf.;.m./.9.=.>.s.w.a.d.w.a.t.d.e./.A.t.a.3.",
"y.+.9.d.&.3.4.%.a.j.k.$.b p.$XoXw.a.t.j.2.*.e.a.d.a...%.J ,.Z.,.J 3.J X.a.4.=.1.k.m.].xX).n <.e.^.K s.d.4.%.w.s M $.w.:.e.1.&.9.s.7.H -.&.L J K CX>Xx l :.s g.s.0.M s.J 0.M.2.s.x :.s.0.m.:.1.j.w.:.d.f.d.M &X6.2.w.w...$.N -.1.d.6.t.1.t.6.4.6.>.m d N -.1.w.9.X.;.5._.$Xn m.Z.s g.4.p.-.-.p.t.f.o.5.;.j ..D.f.)./.a.>.j.d.p.p.0XMX:.9.D.OXF.H.`.5.d.A.`.k.k.S.,.1.a.^.e.Z.!.s.w.8.1.e.4.X.>.,.3.~.;.1.-.j.6...Z.p.p.4.^.J.BX4.a./.&Xj.`.M.A.A.~.`.%XJ.$XH.H.`.A.l.a.1.m.;.z.`.4.`.jXZ.t.6.|.t.e.d.6.3.4.>.4.a.$.e.s.j.a.a.t.t.",
"A.1.t.j.d.o.6.=.g.t.6.%.z f.iXXXa.j.4.a.t.3.a.<.k.3.%.4.d.!.Z.$.a.f.$.d.a.4.%.3./.X.,.sXK %.,.8.,.t.|.Z.g.M.{.S.y.8.s.w.r.p.n.$.K y.n.n.>.m l :.nX{.K K 2.p.w.p.w.$.^.2.,.M -.,.q H M.Z.Z.z $.e.M s.0.1.$.m &Xa.,.f.w.5.^.w.4.p. X6.-.p.k.f.*...X.+.X.N k L $.N $.&.;.oXiXa.>.5.n g 1.p.p.s.>.k.g.;.k.*...4.4.5.a.d.>.;.%.%.4.k.tXNX>.9.F.`.D.j.j.l.l.A._.oX_.(.!.a.k.M.Z.(.5.,.3.1.f.M.J 1.s.d.d.^.%.,.u.N a.r.^.Z.d.}.t.A.JX>.9.a.iX`.D.t.A.A.`.J.`.k.`.%XJ.~.J.l.D.A.D.j.].d.f.w.&X|.d./.].D.y.f.a.d.Z.m.Z.s.-.w.d.f.e.t.;.f.",
"Z.5.t.t.t.f.f.w.<.4.4.r.=./.aX$X^.4.Z./.Z.Z.6.A.a...3.>.d.j.4.%.4.a.3.1.a.;.f <.e.;.^.kXp.l s.m.J n./.w.;.3.d.e.1.,.N ,.d.3.p.,.x s.8.:.7.9.x k sX<Xx s b J K -.e.2.s.p.).X.e.k :.K M.4.5.>.8 d >.s.m B 2.<.zX^.3.%.>.+.4.a.M.!.w.N 6.d.<.t.t.=.2.K :.X.-.p.$.$.>.%.X._.dXOXz.t...3.p.l.t.p.$.<...n g c t.>.t.1.w.4.M o.f.s.r.e.A.sX..,.d.A.~.A.4.p.$XH.[._.a.j._.w./.S.d.4.3.M.M.d.e.w.M $.&.>.%.$.3.r.1.u.w.b Z.w.D.j.&.$XMXg.N .XA.5.:X|.H.|.%X%XJ.l.A.J.z.`._.A.m.].k.D.a.j.X.f.uXf...a.a.4.p.,.4.y.4.K a.5.t.M.d.d.Z.Z.J d.",
"d.t.t.4.3.z.d.X.$.m.wX&XaXiXgX0X(.Z.^.1.6.[.d.a.l.j.1.k.a.e.d.N ..d.1.x $.<.e.uXwX,XuXhXs.x q.s x L x $.;.k n 3.J 1.z m.e.p.M s q n.j q #.M 8 x pXuXg s 2.>.;.K e.9.M $.$.d B ;.e.q f.(.A.H l s.B.9.-.!.wX$XPX&X!.3.f.a.!.%.h $.a.1.2.#.6.d.n h 3.B :.9.e.2.<.;.o.c &.$XPXzXaX$Xz.;.;.>.@.-.M d >.1.t.s.9.g c >.g.J f.b >.4.$.0.0XwX/.Z./.(.Z.~.].0X}.l.^.].;.Z.f.t.[.w.....n >.g ;.].$.0.:.s.e.,.M -.k #.K ;.|.d.1.<.3.9.eXsX/.f.^.}._.[.XXJ.l.A.`._.A.A.H./.y.D.d.A.j.k.f.k.`.^.,XiXF.m y.8.9.w.;.y...o.o.4.r.t.w.a.A.3.>.a./.",
"t.A.`.Z.s.!.`.%.,.wXmXnXmXxXaXpXsXxXsXzXsXuXwXaXsX3XrXaXqXwXaXuXsXiXxXjXmXxXnXKXCXZXAXCXnXjXZXhXnXcXhXcXdX3XhXpXpX<X<XpXyX[.3XjXZXcXCXZXxXuXcXCXZXKXB.v (.:X}.:X3XOX|.:XOX>XeXdXyXiX XiX_.{.,XuXuXuXuXAXbXMXAXaXeXzXbXwXzXnXnXpXnXsXBXuXbXNX%X`.oXqXsXmX$XoXZ.qX$XeXzXPXMXPXNXMXbX<XpXdXaXgX0XeXsXkXaXOX&XeXsXsX$XrXCXOX>XiXeXzXMXzXZXkXjXzX3XeXbXMXdX0XqXOXXXwXoXtXuXNXcX>XyXqXkXtXuX.XxXOXuXnXdXkXiXrXkXkXxXKXzXXXiXzXsXPXMXNXaXzXzXiXaXdXbXzXzXtXiXeXtXaXSXkXzXiXiXyXkXaXaXyXsXjXbXNXbXZXxXMXzXuXkXwXsXkX>X}.oXXXoXA.Z.A.d.d.",
"sXzXiXyXiXtXOX!.^.sXdX0X.X^.XXrXiXiXyXaXzX>X,X`..XwXpXnXbXnXmXMXmXxXpXxXmXhXcX5XhXxXxXnXxXxX5XbXxXhXwX,X:X5XhX3X3X:X2XuX X5XjXjXxXmXcX5XpXcXhXhX,X5X' M.Z i.I.3X3XOXC.{.3X X2X:XsXpXbX3Xw.s..XI.{. X.Xf.<.0.).+X).5X).).N.Z.aXqXpXbXdXuXPXKXgXgXMXPXMXdXfXAXNXMXbXNXNXpXaXyXoXyXyXsXAXaXdXOXiXaX$X3XsXaXNXbXdXwXsX0XjX[.:X0X|.3XuX1X0XOXpXzX:XnXyXeXfXpXsX XnXeXsXhXcXAXMXMXCXPXkX>XkXCXsX&X:XpXdXBXiXjXmXsXiXJXOX+X>XdXrXbXcXsX.XiXyX&XNXbXnXbXAXgXBXbXJXJXCXgXaXaXdXzXNXeXBXbXnXbXbXjXxXAXSXMXkXaXiXqXnXkX,XkXsXzXtXzXzXzXnXaX",
"uX:XXXiXqX^.+Xp.9.S.(.}.Z.m.(.XXw.M >.A.,.1.d.X.z w.M d.w.>.:.+XsX[.9.M.J K M.d.4.,.3.9.N ,.:.|.~.9.s z f.a.L w.w.L s.0.q M.uX7.l 7.H E l v m :.X.7.>.0.< 6 7.m l l l r l v 9.M.I.f.3Xg.h.K $.p.n.s.w.N >.^.K ..g.p.-.;.M f.n.N :.^.2.f.q.(.fXbXiXOXp.4.Z.2.t.4.6.M ,.f.XX^.d.>.^.(.~.+.,.`.Z.f.M.9..XOXOXf.9.d.9.e.s.X.&.&.$.>.1.k 1.^.m.j.A.s.d.9.).(.8.y.0.hXhXeXnXuX:Xn.<X^.XX<X,XqX|.s.J iX].iXOX>X!.a.[.!.%.w./.!.;.XX;.k.;.d._.j.`.H._.A.`.z.oX6.0X`.tXdX}.}.oX].}._.XX/.!.Z.f.M.^.wX(.`.>.a.e.f.S.e.d.^.a.j.f.~.wXOX:XuX",
"%.4.e.tX`.4._.a.r.e.f.k.p.r.|._.k.f.d.XXe._.iX].2.>.<.$.N #.k d.xX}.&.k N 2.J J J 9.&.K x H K s.-.$.$.s.e.,.l M K N.x K 2 n.cXZ.d >.-.0.8.e.,.E L i.2.b 8 0 7.7.E v q.L B.{.:X#X2.g.rXN j >.-.g.1.k X.w.X.;.N +.M ;.;.;.8.M.,.-.f.N.2.X.f n 0XNX_.;.@.~.#.q d.w.l.3.d.w.Z.z.Z.A.3.Z.3.4.M j.;.d.j.z ).}.aXj.1.e.p.f.p.$.s.q.w.>.J *.4.k.A.t.d.(.^.,././.wX|.'.5Xf.zXxXJ ].a.A.~.Z.;.H.Z.;.*.9.}._.wX_.d.;.;.~.~.(.[.}.Z.M $XoX`.H.^.Z.l.Z.A.4.k.6.k.k.4.g.%.&XtX%.z.A.j.t.A.Z.A.k.d.k.d.Z.Z.l.1.f.4.a.>.4.<.A.3.l.u.m.9.t.=.e.;.",
"!.w.H.oX/.~.D.t.9.4.4.3.3.e.e.8.].oXqXaXkXbXaXd.<.w.9.$.<.>.>.d.ZXXX#.,.p.2.S.H 0.&.x x J -.8.K c M =.M.%.e.w.x k &.z x s n.mX/.z 2.p.9.9.&.b 8 7.x p.q.E q.G -.s.,.7.E {.).).(.:.7.).n z 6.p.<.g.!.g.^.k.-.)./.K /.!.f.f.f.N w.Z.X.B B M K -.zX&Xw.>.A.%.3.B 3.j.p.t.m.j.d.z.3...d.5.a.%.f.d.s.j.y.S.A.rX~.x ;.s.p.1.t.8.<.r.>.6.-.>.t.z.a././.1.1.p.j.}.qXuX{.K uXiXn.n.$.=.~.8..Xf.e.d.<.p.M.f.sX}.n +.;.f.Z.(.r.^.%.g.A.;.@._.}.k.A.>X_.oX|.k.w.k.Z.d.f.&X0Xj Z.a.d.r./.2...!.%.Z.Z.A.~.Z.3.t.t.<.5.;.,.%.%.t.j.`.a.d._.Z.n.",
"~.H.A.qX^.a.d.Z.4.a.f.>.4.4.9.K s.wXxXxXnXyXd.K k 8.a.$.a.3.<.d.nXqXM 9.1.K M.3./.s e.2.8 x J s.:.J 9.e.,.s.M q $.B.x 7.m XXPXK r -.s.9.8.&./ 2.L V v d e.0.H #Xn.N K 9.i.9.P ).7.U e.$.&.,.w.B 2.p.j./.f.4.y.2.-.qX.X/.p.s.4.$.,.p.h.f.f.b N dX$X4.j.~.g.6.`.S.5.4.6.t.t.w...h %.;.r.&.4.4.t.a.j.f.l.@XiXM.>.s.f.w.k.t.K p.a.%.1.t.s.r.f.A.^.A.9.r.Z.|.|.g..Xf..XcXCXb.:.0.<.m.w.y.w.|.Z.4.J 4.d.yX(.-.-.w.a./.|.3.a...A.d.`._.Z.z.3.`.`.J.~.%X`.4.!.A.-.<.$X_.o.1.l.k.m.d.t.1.a.`.m.^.w.1.!.k.t.c ..`.d.4.1.^.j.Z.F.D.^.XXj.^.",
"5.4.).eX3.A.~.}.~.^.!.k.d.9.s.w.d.jXnXwX(.w.M m <.S.f.4.>.n K &.bXrX..4.p.p.a.H k s $.p.z B.:.e.3.m.4.M.D.K :.M 9.:.k K K :XKX2.8 N e.-.M i.0 :.x 9.i.I. Xl 9.^.s.N s.:Xs.q.#X Xi.E ).d.M p.>.N N.+Xf.OXrX~.p.p.d.f.,.+.4.p.B z e.-.b m B w.2.bX&Xa.k.H.l.L a.t.3.t.z.3.>.;.g n %.4.a.<.M p.w.p.4.f.d._.fX+X,.Z.^.!.M.m.:.y.3.f.,.f.s./.e.4.p.~.~.(.n.M.+XS.s.:._.PXnXp.:X}.e.S.y.;.4.9.%.n N _.A.zX[.4.j.j.;.-.2.+.4.4.>X}.%.%.t.&.~.oXk.`.`.XXl.}.[.d.1.g.qX!.y.^.A.d.p.g.Z.!.j.M.z.~.t.Z.A.^.a.6.3./.!.4.-.M.A.d.j.k.oX`.6.A.",
"k.d.^.oX`.|.(.oXoX/.k.^.!.d.d.!.<.^.a.Z.:.p.Z.Z.d.e.<.e.%.>.K m.mX{.,.9.e.-.M m.M.e.^.Z.>.Z.d.m.,.M.1.J M M $.s &.:.&.9.k XXLX|.l s.s.0.i.7. XN.K s.).B.M.p. Xs.I.8 B.i.K i.^.f.#Xh.fXf.h $.&.1.e.w.9.}.iX(.-.f.f.-.f.h.B -.5.9.:.z K ^.M.9.p.zXOXf.3.;.+.n 2.3.4.w.%.3.1.o.x +.%.%.a.4.3.g.>.4.6.A.Z.Z.&Xd.>.A.a.(.9.g.Z.A.k.}.A.g.,.p.y.9.f.n.j.}.w./.:X/.g.s.0XLXyXw.H.@.n f.8.&.%.|.9.e.e.).4.bXoX,.^.m.k.1.f./.!.}.k.`.a.Z.].Z._._.`._.|.oX}.a.+.4.+.!.tX>Xq.j.j.3.w.^.d.a.a.D.a.3.`.A.k.p.f.k./.S.a.u.d.d.<XD.D.t.!.}.D._.",
"@.1.oX&XXX{.f.>XOX!.e.d.d.a.$X^.-.:.,.4.1.a.^.f.a.4.w.1.n >.K Z.pXM.#.,.p.g m Z.4.>.;.>...Z.Z.1.=.%.N K M J K x &.< k 8.s |.KXqXL L L v V E I.P P z E d 3 s V m 2.$.8 B x i.I.f.w.s.CX$.d ;.b #.z x *.M.^.!.h +.X.s k #.9.>.B !.k.M r.$.t.n >.MX.Xw.h z +.;.$.6.t.%.5.3.;.N X.3.%.t.4.l.+.%.X.;.n ..h 2.0X|.*.>.*.A.r.y.$.a.m.k.A.>./.[.&.y.M.a.a.].4._.|./.F.8.p.dXNXs.m 8.$.M.b J z #.q &.;.w.>.iX}.y.^.u.].,.>.~.k.`.N `.t.j.d.Z.A.$XA.`.@X|.|.a.H.z.;.p.[.XXM.M.6.j.,.p.3.a.A.z.;.z.].z.J.`._.A.M.<.a.j.p.g.9.O.+.o.@.3.l.4.",
"m.y.OXtX[._.qX XZ.M.:.w.M.XXiXN 3.~.8.M M 3.~.w.:.e.Z.y.3.4.-.x .Xy.3 7 s z >.<.z 2 <.4.-.f.Z.$.s z &.K z e.L w.M.p.^.0..XuXMXxX Xp. X3X5X5XB.K B.jXxXwXE.pXB.yX X;X5XxXhXkX,X XOX3XCX#X!.d.Z.j.f.e.s.d.!.g.n H #.w.x N l -.-.w.j c g N P d v iXtXn.M <.;.g ..j.z.a.t.;.%...%.3.t._.f.%.t.&.e.j./.M.Z.XXsX$X:.:.z 8.z 9.9.x <.p.<.>.w.a.$.w.[.l.f./.2.|.:X>X[.oXoXNXKX@X).|.:X{.d.y.:.9.M.{.N.^.OXPXiXe.p.K d.2.m.d...=.k d.<.1.oX0X(.$X@XoXH.H.a.J.z.l.6.g.>XrXOXA.`./.[.Z.Z.e.4.6.+./.}.j.j.4.l.t.3.4.4.3.^.a.a.j.t.A.~.6.a.r.",
"$XgXgXzXaXsXsXiX+X<XOXoXwXiXaXXXsXdX+X|.sXzXiXeXqXdXyXjXkXxXCXnXmX3X,XcXkXcXnXMXcXpXmXmXnXkX3XqXhXxXhXxXZXcXmXlXZXZXmXcXmXpXbXjXxXxXZXmXnXZXeX'.,XAXNXbXmXnXdXnXbXhXkXxX X3XeXpXsX.X3XyX+XoXwX:X'.{.dXbXbXdXg.Z.'.[.NXbX7./.3X'.&XzXnXnXoX,XMXPXPXBXBXzXdX(.oXOX&X&X$X|.y.rXgXbXNXJX3XwXzXMXJXKXPXJXJXKXAXyX,XkXsX<XaXSXnXsXzXzX<X3XdXjXmXnXcXnXSXCXSXSXLXLXPXSXnXAXKXNXJXKXMXAXmXKXjXhXZXjXPXMXPXLXZXnXCXNXAXzXKXKXmXsXNXCXzXnXCXJXJXSXfXPXJXMXJXMXNXgXgXzXdXbXCXAXAXNXmXiXBXMXmXbXbXMXsXtXsXxXbXzXsXbXbXdXaXqXrXqX+X}.oXoXZ.}.",
"fXtXNXtXtXzXgXzXwX$XqXtX[.(.}.>.h.g.qXOX0XA.|.$X[.XX[./.n.{.N.^.S.oX>X[.f. XwX:XXX[.!.y.Z.'.8.nXmX X X<X].s.e.x q.s M K N -.L K M.f s.z b B d J 2.-.#.j p.f.2 s 8 B $.d.M $.2 n !.w.-.X.*.N m f.u.z M.s.,.!.!.Z./.{.^.p.-.p.M.{.pX[..X~.wX>X:X).XX!.'.f./.Z.n..X~.h.$.N.:XsXzX@Xf.n.w.U s.M.(.(.}.0X(.0Xd.}.S.}.A.N.'.|.m.'.[.|.:XwXbXxXwXXXeXwXiXrX X-.:X}.!.S.n.XXqX+X>XsX[.{.^. XqXM.{.M.OXwX^.d.f.qXOXOXwXwXeXA.Z.qX0XiXsXbXfXfXgXyX&XgXzXtX@X%X%X@X!.A.6.`.OX0XiX!.oX@X[.[._.g.}.}.`.a.nXNXqX,XXX|.oX}.OXdXsXrX$X&XtXtXdXbX",
"oX`.w.d.M./._.}.tX/.Z.w.>.Z...X.$.-.kX>X#.d.wX0.p.:.M N 2.0.x 8 &.d.z s d q 8 d y.&.$.9.,.7.m yX>Xk N f k x s s K 8 r :.k L s.K 9.>.).$.K P #.w.4.p.:.b g.B.b x M >.B d.w.p.d -.N b o.n $./.1.d.p.s ^.M.]. Xg.,.~.>Xf.7.2.2.B.5XwX`. X[.f.K b +.N l l l N K E :.,.3 f m K yXOX3 < < < X.*.<.s.p.s.h %.w.f.;.;.<.b ,.&.e.9.y.N.9.[.s.yXbX9.d.n.&.X.N.M.M '.p.d.b m./.[.oXOX(.@.OX}..XM.#.K J p./.w.q././.!.d.k.t.Z.d.a.a.l.H.J.zXbX(.3.m.j.`.`.t.6.oXl.;.h l.4.f.F._.j.4.}.A.Z./.^.^.a.p.f.,.XX}.X.3.p.$.,.4.-.a.k.j.5./.Z.]._.`.",
"S.k.t.A.;.d.t.j.[.D.Z.j.d.3.k.l.$.s.nX&X2.(.a.:.$.f.f.m.d.p.J p.d.;.J &.z n l k N.n.J y.K h.H :X).m p.&.d.w.b N >.J s.N K ).M g K K >.B z b g S.p.w.N N :X'.m /.w.8.$.f...p.z.-.M.b -.X.d.L l ..-.).{.M.f.f.+.H.f.+XZ.&.w.p.:.{.f.qXOX6.$.>.9.,.$.l 8 v q 2 2 #.-.2 M -.-.eX).O H -.K q.&.p.X.f.f.g ,.<.<.o.}.M M p.e.Z.y.s.m.m.f.1.kXzXn.0.^.[./.9.-.@.wX|.|.|.}.]._.~.$.e.Z.m.4.!.z.B 0.e.<.1.~.`.[._.A.a.1.f./.Z.w.A.|.+X~.NXbX}.~./.qX&Xk.g.l.%Xz.l.H._.A.~.a.Z.k.4.A.@XrX_.f.4.;.;.[.d.}./.>.XXj.~.p.Z.3.4.>.5.k./.%.a.D.1.",
"^.4.a.j.h.3.4.%.1.oX&X4.a.d.Z.;.<.M.zXyXn.e.&.-.>.M.!.a.>.d.d.[.9.m ,.e.$.k :.q.J M.7.$.&.J 0 {.f.z q.U p.:.s.K 9.x m H n.|.7.:.J K 2.k k n.K e.4.p.w.B pXxXb 2.+.>.-.a.3.g.l.a./.2.p.p.p.a.%.-./.d.!.g.a.d.p.!.a.rX^.+X$.B B N.;.>.w.$.-.K :.$.-.s l x #.E d l +.k M -.p.sX!.m s.y.q.,.w.X.4.;.M n y.w.$.|.a.;.3.F.M.d.f.M ..,.2.<.zXaX-.#.k.}.k.9.oX[.m.u.d.~.j.J M x z p.6.g.p.M.#.z 9.K 4.g.p.;.&.<.}.n l.d.~.w.p.~.w.`._.MXtX;.z.`.wXoX$Xl.l.$X`.j.z.z.w.}.A.A.M.A./.}.!.~.!.d.^.p.d.5.oX`.d.^.`.f.3.d.%.1.<.a.e.;.-.1.t.D.",
"4.5.4.+.t.a.F...%./..Xa.<.w.6.e.9.d.xXaXB.N.4.e.9.g.M.w.-.!.:XXX&.$.d.y.J k l x z  X0Xs.P l z uXs.8 7.L 8.:.2.2.8.0.I.{.'.e.,.g k -.k b J d.d ,.e.+.4.j aXAX,.1.p.3.w.t.;.4.k.p.u.).2.6.4.!.>.J 2.!.>.6.6.6.g.$.2.OXyXqXf.B.^.Z.J B.0./ -.:.P m K M 8.7.9.q.N L :.b K 9.{.eXZ.d -.%.1.>.4.3.g.K p.-.r.$.n J +.4.1.X.m.1.s.f.N.0.8.K sXrX-.>.J /.k.4.0XoX~.wX.X].~.[.,Xd.Z.M.k.f.g s #.x 0.$.7.:.M.M.!.].S.j 6.Z.H.k.e.k./.J.g.tXtX%.F.@X@XJ.~.6.A.oXl.[.z.5.].oX_.l.5._.~.l.t._.eXm.4.;.d.'..XXXe.A.[.n Z.a.j.u.&.M.<X}.a./.F.d.",
"d.w.A.k.d.A.d.%.a.w.j.3.t.d.9.g.d.f.bXtX6.M.s.0.9.^.p.w.h.f.N.M.0.7.n.0.k L 0.l N wX3X.Xx z $.jXZ.v n.K L &.N 2.K p.pXn.M J J N 9.;.-.m z K <.r.$.,.;.h .XMX,.@.3.5.3.<.;.a.H.}.a.6.O.a.6.a.X.4.i.p.$./.~.a.f.#.H.aX0X+X!.s.f.!.).uXI.-.L v z :.z B w.{.{.0.,.d $.m 0.g.Z.rX_.2 N ,.4.n a.6.%.d n $.d.>.8 s m d.f.k.y.+.%.&.d N 8.;.sXqXm ;.t.a.t.<.|.J.|.'.d.4.d.$.z.A.t.<.X.:.>.J n.m.K p.$.].7.!.K n c +.p.j.m.a.d.p.d.k.-.gXBXN `.+XJ.%X6.6.5.z./.k.5.3.oXl.l.$X`.`.a.|.`.A.%.O.`././.f.tX}.n w.$.O.3.6.6.p.f././.oXoXZ.D.k.",
"f.a.d.l.S.A.6.6.2.j.d...g.`.Z.a.w.k.qXqX:.m N.M.:X}.p.:.-.:.N E m x y./.n.M.m 8 s.C.{.{.s.d.K uX!.b 9.J N H m q.L s q @ q k s x < 3 q 3 b 4 d n b N b 8 <XPXw...5.%.;.-.3.3.+.n q #.%.6.+.3.-.=.d.Z.d.l.4.;.!.X.9.aXB +XOXi.M.#XN i.n B H B 2.B.k ,.-.,.2.9.M B -.$.L q d.NX^.3 y.1.3.z.1.o.+.4.3.>.2.M n.'.'.S.*...<.;.w.$.$.p.M K iXkX-.4.j.d.}.|.|.oXd.j.F.f.f.t.[.A.s.$.K n.n.P e.;.1.e.#.m -.M.$.!.!./.j.M._.4.6.p.>.K <.CXMXw.}.@XJ.`.`.`.~.H.z.l.z.t.k.`.k.$X%Xj.A.].H.6.t.~.Z.4.H.[.@X~.$.k.t.w.k.>.A.d.%.-. XF.aX$X1.5.",
";.4.d.p.H.f.@.5.o.N c M >.t.p.&.1.$XzXdXf.p.J $.|.m.d.p.2.7.4.'.f.q.B w.x k d r {.f.1X|. XN.m yXXX1 s d r s 1 s L s v z L #.v m d 7.0.1.,.>.s.H.4.n.,.,.jXnXM g o.q b j h ;.j 4...N K d b e.B.K ^.k.o.g n 1.!.n `.zX2 !.&Xs.s.).$.W f 2 j $.$.-.@ H z 3 #.z q 3 N L q k {.sX>Xz 2 ;.j #.q :.8.,.#.N X.@.;.w 3 K 2 $.K M M N %.,.k $.xXjX&.%.p.g.^.d.k.3.q t.a.M 3.6.d.g p.M e.4.o.N $.K N $...l 9.w.$.&.5.5.N 1.$.@.6.5...9.3.BXtXO.[.5.t.J.l.z.l.J.`./.k.3.a.k.@.5.z.l.f.}.5.@.f.a.5.@.l.8.H.`.B ;.f j N o.t.J.@.d.].|.tX`.t.3.",
"-.f.@XOX.X}.$X`./.k.`.$XtX$XtX%XrXaXzXaXBXmXdXiXuXeXeXdX5XmXcXcXnXxXeX.X/.OXOXxXhXuXpXuXcXmXuXnX,Xp.{.wX:XdXnXsXmXkXCXCXmXSXAXnXAXCXmXPXCXKXPXMXxXCXCXnXCXjXOXsXsX.XuX3XpXbXqXeXdXaXaXsXsXkX(.rXaXtX&XrX0XjXBXqXMXBX&XdXoX#XZ.}.a._._.$Xp.4.+.n d q.s.4.j.f.d.>.Z.6.1.OXzXNXSXnXiXnXAXmXtXzXrX`.k.A.8.M 6.4.|.`.|.iXqX_.oX>XoX.XOXwXjXkX/.>.l d./.f.OX).e.uX{./.|.A..XxXmXiXnXsXdXyXkX0X0X}.Z.e.{.}.OXgXgX_.iXzXXXrXwX$X}.$XtXdXNXfX.XJ.OXeX$X@X@XgXkX+X@X%XOXtXaXgXCXgXaXaXrXgXbXgXrXeXtXoX0X0X@X&X&XdXeXrXtXbXJ.$XOXoX`.t.3.u.",
"dXsXdXbXMXgXCXMXgXeXdXbXBXsXXXiXyXeX].wXdXiXeXqX&XsXaXyX3X5XhXmXSXZXAXjXcXnXAXcXAXmXmXcXmXxXlXcXcXDXSXSXSXKXPXZXZXSXAXSXSXAX1X'.<X<X<X<XaXuX<XwX#X/.~.|.I.#XZ.#Xf.a.!.s./. X!.XX!.yXNXoX3X0X).].@XeX~.>XqX|.rX+X$Xf.n.OXqXeXqXdXzXdXBX&XzXzXeXpXMXmXAXzXNXnXMXMXNXbXdXgXiXaXdXhXeXpXiXaX].rX}._.0X,X|.S.s.rXbXyXiXxXmXjXzXdXCXNXbXiXzXsXzXoX7.>XdXNXmX|.nXKXZXzXbXLXSXxX0X<XZXxXnXnX3X,XrXyXdXoXMXiXfXKXNXtXCXPXxXCXBXJXPXJXBXNXSXNXgX&XgX&XgXgXbXNXCX&XfXdXJXMXzXNXnXgXdXzXbXbXzXtXtXsXNXNXMXKXMXMXMXKXJXJXJXJXtXbXNXbXgX0X$XbX",
"w.(.iXkX>X`.A.4.4.s.u.>.3.<.:.L :.8.>.M.s.>.g.t.d.-.-.K B K K M.>XM.m.7.Z.q.0.K 0.:.0 i.B.7.8.E C.N.m.s.0.1.:.f./.B.f.uXhXN.4 c #.#.k 1.N d q y.f z d 2.K -.h z &.g d 4 h M $.K 4.9.+XH 4.-.z h.:.h.N $.+.7.:.v -.p.'.i.2.>.d.>.2.;.J N n.{.OX0X/.N.E d s.>.m.E 2.m.B h.N N b 2 >.j H b 8 l 2 4 8 0.0 +XN.|.7.N K M.N.w.,.S.m.s./.n.e.M.y.d.u.L n.x l x ,XoXn.r.{.,Xs r 0 ! ! P :.>.h.q.:.m >.H ,XN.y.}.p.1.Z.f.g.1.z.~.!.p.;.a.l.`.}.6.`.5.A./.$X0XoX_.A.}.rX9.e.2.-.$.p...1.f.d.].w.r.z.}./.!.j.>XOX|.f.p.6.`.f.XX].|.XXXX(./.",
"9.^.wX,XM <.1.{.,.y.M b ,.H 7.&.7.K J e.K $.$.M J J x L k L &.M.,XK x L m s x 8 s 8 7 Z ,.v 8 2 l l r 8 K m x :.8 x s -.xXC.8 L H x &.n.k k d 7.0.L s.m K X.g M H q #.x l x H &.z d.g.K 8 m H U H v v N.S.9.f v L 7.XX9.,.$.$.b K q E >.L 9.|.,X0.U K 0.l q k 8 K &.L J J z q v s d U k f 7.l l v H l eXi.8 m 7.7.K 0.<.$.&.x v -.J H $.8.,.2.l H y.n.0.E.m H J 0.b.< 8 K G U L L P J h.B H P p bX:Xl ..>.-.3.d.s.w.w.>.d.a.a.m.a.a.t.a.3.6.Z.:.2.@.4.3.n p.S.f 8.v J N x 2.7.$.K 9.M -.7.}.4.$.-.M >.X.>.$.K $.s.w.,.f X.Z.-.-.",
"Z.Z.M...4 -.-.;.;.<.X.m y.x %.9.-.&.7.s.H E x K M 8.:.N x 9.&. XuXV l -.H G N K J H k k K 0 L B P x k L H m x k m 7.< U cX:.f P m l f z f k x H -.X.q.q k s k d B v s P k l m m v B }.P m U m M H 7.N.C...B 2.v ,.B B.>X0.N 8 2 2 j m N l m XXnXC.s 0.s 8 s l s 7.E #.b H z q s P m d k P z :.s 5 l 8 <XC.l v q.k k 8 k b x k m x z z H k B 7.N n.u.7.N 7.q H L P uXl 0 E G G G P U b v v L m l sXS.V k N 7.0.r.$.-.B j.9.>.w.p.-...1.p.1.9.Z.a.9.-.,.e.;.m.S.m B m v m K ,.9.L B 9.N L 8./.p.-.4.;.s.+.:.$.>.$.s.N e.!.1.^.p.(.",
"7.K |.a.L K N n.:.b J m k k J 3.,.m m 8 m q l m l J L :.8. X8 I.E.l 8 0 i v 7.:.H 8 v K s l H &.x 0 L :.s k m s l 8 8 E jXL G H B l J #.7 s l x J :.s 1 v l v x l s l v l l E v 8 v #X1 l 8 L H l P =.9.g j m 8 0 l B 8 2 f 8 7 0 H N &.m l J XX1 < < 1 l 0 q U L l 8 m l 8 l s P l 8 l s s i < 1 i 7 N.x 7 2 P 8 l s Z x m r i l x l / ! ! 7.x :.m L L H U U l E.vXP U r p i 8 l 8 v x v m s l yXs.8 8 s U m H x m $.>.E q.-.z j K &.:.K L s.,.M K N n n 9.wXm k G L k k m x m k K :.:.7.'.p.$.9.>.0.O.d m M ..K M 9. Xp.9.-.;.",
"1 +.#X,.d s k q 3 q #.l q x x #.x J s 8 l 1 l l l k l l k G w E L.v l l 8 P r l 8 8 i l 8 0 i i 8 i l i v U l 0 s l 0 l 5Xv 0 8 8 8 0 3 < r r s 8 8 s l 7 7 7 r 0 i 0 1 < p 7 i G l B.0 r i P E i U P x s v 8 T i 8 7 & 7 ! 0 0 l i 0 i x < l 0.$ < < i 8 r 0 l l q l l i i 0 8 i 8 r l 8 i 7 8 0 7 9 B.G 5 < 0 0 0 7 7 0 5 - 7 i v 7 7 0 i s s l s G l 8 7 0 0 U q.O ; > ; & 6  .= 9 8 6 0 8 0 0.P 7 7 7 i 0 l 0 8 8 r U 8 r s l l l s r Z v 0 l l 0 l H U 9.8 0 i 7 8 8 l D l 7 8 r r l E 7.l m #.b s z l l q s s x E 2.q.L K ",
"1 v 0.l 8 7 8 7 5 < 6 7 7 7 7 6 7 8 - - 6 - - < - 1 6 6 6 6 > 0 Z u r 7 6 6 7 7 - ; 5 6 - ; 5 * = 5 - 6 7 5 6 - > 1 - - ) 9 : 1 - - ; = 5 6 6 6 1 6 7 ; 7 7 > - = 6 = = 9 t 7 i y t ~ 1 1 e p v < 1 8 i i ; 7 < - - 6 7 ; Z 1 p 0 - 6 r r O P i $ ; e 5 0 0 7 8 7 < 8 < 1 8 8 0 8 6 6 7 7 7 5 7 1 6 ; G 0 ; 6 9 ; > > > 5 6 9 7 > - i 6 9 t 9 6 6 0 7 6 i 6 6 6 9 F 9 9 6 > - 9  .6 6 > 6 5 > 7 P p 7 7 7 9 7 7 9 7 e 7 7 6 7 8 i i 8 7 0 7 0 7 7 7 0 9 7 r p = > 5  .> 6 9 9 > 5 ; 7 t 7 r 7 < 6 5 0 0 t 7 6 6 0 y i r G v i w ",
"- 1 7 : 6 < 1 6 5 ; = O 1 5 - $ > ; # l 7 % - > ;  .* * ; - > # * * 6 ; 9  .;  .> 7 > - - ; > * 9 ' , # * > * > + - > - - - * * L 0 5 1 - 1 6 7 0 7 7 7 7 1 6 6 0 6 - 5 6 0 i 9 6 6 7 7 7 l v - > 9 6 = = - 7 >  .=  .= ; 7 6 1 6 6 7 5 6 - 6 > 7 9 7 0 6 6 6 ; 7 l 7.l 7 5 0 7 1 5 > 1 5 6 > - ; ; ; - - ; = = - 6 - = * 7 y i y 7 > - ; > 5 = = = = # # = * * * > = ; ; > - $ = , , 7 D t > ; $ O = ; 6 - - - - - - - - = = # ; ; - > > - ; - ;  .p = * > : ; $ + O = - ; 1 - O ; $ 6 - ; * 9 6 * > - = = E 7 + - > 6 7 1 - 9 ",
"W V.^ ' ' I ( ! Q HXU.V.Y.t D ' I D 7XY.=X=XV.I { ^ ' ' t ' ] v.W.' i G r r Z F ^ ) / x.x.=X=X' {.8X XW.VX5X{.] [.T.R U.b.{.b.5X5XI.q.b.' x.B.'.*Xx.i.{.'.0.q.x.p L *Xi.C./ b.2.XX*.N.B.#X'.jXxXhXhXBXlXcXE.hX:XjXhXN.5X6X5X1X/ x.] I.I.c.b.) I./ R E.i.B.c.L.I. XlX5XuXR.=XU.] L.] x.U.b.F E Y p C G C A Z G ] Q ^ { { v.=XY.V.^ C F Q ^ ~ I ^ ) ' I Q ^ ' { Y.*X' Q ' Q ^ W ' / / T T v.v.L.x.' U.Y.U.v.) b.q.x.T.v.U.] V.] ) ] b.U.B.i.c.] / U.1X=X*X*XW.V.Y.*X{ ' ) ] v.' ! { V.] ] ] ] x.( x.x.) ] c.*XW.4X] I u Z / C E./ ",
"FXVXVX8XGXGXFX8X8XGX8X9X8XV.Y.G.V.-X9X} 8XGXVXGX9X8X9XGX8X8X9X8X8X-X-XV.*X9XGX8X-X9XFX7XGXGX8X9X9X} 8X9XY.-X9XVXG.Y.9X8X-XG.8XHXS -X9X-X9XQ -X9XGXGX9X9X9X9X9X8X8XVXGXGXFXGXGXGXGXGX8XvXFXVXFXVX9X} VXFXVX| GX-XGX9X9XVXGX8X-X9X8X8XGXGX8XGX9X9XG.9X8XG.9X8X8XDXvX7X4X;X2X4X;X7X6X9X8X=XY.Y.Y.HXV.V.G.V.R.R.=X9X9X-X8X8X7XV.} ] -X4X8X4X9X*X=X=X4X4X6X6X4X8X8XGXGX9X8XGX4XY.-X9X8X4XY.{ I ] Y.Y.-X9X9X-X{ -XY.Y.-X-X*XY.-X-X-XY.Y.HX-XY.*X=XR.HX=X-XV.4XVXVX8X4X4X-X-X*X*X-X-X-X9X9X-X-X-X-XV.V.9X9X-XV.Y.8X} | } Y.8X-X8X8XDXDX",
"7Xp 2X[ ;XvX*XG.8XA -XT ^ SX8XS *X{ I { I ' VXvX' V.U.2XVX4X{ 6X*XK.*X5XW.T.2X2XHXjX=XD =XG.Q V.W ] G.;X( L.=XhX] t i i F & W { ' ' ;XE.^ 7 ' T [ ~ Q V.*XQ } x.=X6XY.T.;X4XW.R.R.V.V.hX*XW.=X*XY.W.2X] ) T Q HXA Q V.;X;X~ F ^ T.K.' U.K.} V.] HX=XW ! b.T.T.U.v.W.=Xc.^ =XW.;XE.^ ( v.V.c.v.{ V.T.HXW.W.E.2X5X;XW.;X2XcX5X=X2X4X7XhX4X;X2X4X7X4X7XlXW.4X4X=X4X-X7X4X-X-XV.} Q R.-X' Z i ~ T v.W.{ *Xv.F I A Y T ] ^ Q { ' Y ^ ~ v.{ ] v.v.^ v.U.~ b.;X5XY.W.U.v.{ V.G.{ } Q V.v.R.=X-X' | I ' G.{ ' G.Y.] Y R Q T U.7XW.6XQ.pX",
"S HXS  .t 4X> I vXx.;X2X~ A t ` L.Q Q A A ' | G.~ Q W.( ! lXP.I ^ T [ 2Xc.W { Y.I S X e a 9 S A Z G A 9 D c.I  .e I . . 6 # D A t 9 F / Z y i 7 9 : p 6 C u I Z ! S p F I 7 T F Z Z t 9 Q S S a A A u Y 9 -XI I 9 A S I S * R.D i I Q I V.V.Y.^ ` ' 9 V.b.v.T.I { T.Q.T.K.2X4XI b.] D ~ K.~ W F T ~ ~ T ) ) v._ _ i.' W W I.Y.K.V.T.2XT.{ R.W.2XW.v.} ;X=XR.v.R.Y.HXV.Q D *XV.S D ^ I t t y Z ^ p ^ T x.i ; > >  .D e ~ y t : p a W x./ ' c.G ) P./ G ^ F t u t G T x.F A G y p G Z { =X` t W ) p y W T c.Y { ' W u y ] Y.U.~ I ",
"^ 2XT.K.W # ] ' Q Q . o x.S 9 Q 8XG.S G.I V.V.E.-X( K.E.Q 4XL.~ c.V.=X` R ) ;XQ i p ` ' A  .| c.T S L.Z u 9 F > * : 7 6 > 9 | ^ I { Z C ^ C C 9 9 A T i ~ Q Q b.~ F u V.] A W I ! A C > T ] ~ F y ( W.W 9 F v.C A S ' } W t p u D ! b.W F Q V.( U.] T c.` R.Y.2X=XT HXW.K.R.L.v.E.P.E.] Y ! ^ G c.~ D / Z K.W e V.V.F Z 9 F =X*XY.V.Y.=X^ U.R.HXW.I G.2X2X;XW.T.6XZ E.R.~ } ;X2XW F { T ^ ^ ( W T L.W T t t u S S Z T ~ i 6 , K.~ Q ^ x.E.~ x.U.b.c.b.F T ~ ^ y : =X] T F V.T Z A 6 ] U.T c.~ Z T _ U.~ ' ' V.( } U.y Y Y.W.Q.( ",
";X^ T.2Xc.E ) 4XF ` 4XI 3XV.C y U.I 6 T 4XP.S ] 6XK.6X] Q Z T.L.W U.*XE.T.] 4X7X1X4X*XU.[ ) T e y T.y _ D { t ~ G e W E e u t ~ G ) Z G t I p S | y R { ) ! p L.A [ v.;X` v.*X] x.D ~ ^ D W ^ ] 9 ] 4XI / Q p Z t W v.R.R.( A { 6XR.4XU.W Z ) ) T.U.2XW.) T.L.c.{.V.5X X) 4X~ K.W b.T.Q.c.~ E I.E.i.T x./ F ) | ) [ i.c.b.P.T L.R.L.4X5XT.T.K.5X;X6XW.y =X2X[ =XHXv.1XU.W.v.) 2XL.v ( { ] [ 2XU.( W ~ F Q E.( HXK.C G D U.F 1 W.] ` R _ W.T uX=Xx.L.W.U.] =XL.HXQ ZX) b.R.=Xv.=XF F T.L.) Q.D C ;X=X6XT.Z U.~ c.R.2X-X( F W.W L.",
"4XR.F V.L.hXL.HX6XU.W.T.y R.W.y e 8X=X` E.x.v.HXL.*X4X' R.[ W.T Y.Q S ;XY.Q } =X*X;XW.hX2X3XG a ) [ t Y ^ ) Z v.Z R.=Xc./ Z u Y c.G ( ~ P.i u v ` R c.T.Y R D R ' W ! T D G.I Z W ] K.T.) F ^ { =X) ^ V.;X' W ) L.( R.W =X4X4X;XT.=X=XT.U.2XW.Q.U.2XT.L.T.) *XT.5X2X2XD ;X5X/ W.U.E.c.2XW.R.c.5XU.) b.x.5XI.U.D [ HX=X2X7X5XI.U.W.W.;X;XvX4X;X).P._ U.V.vX3X) vXc.Y.W { Q.3Xc.~ _ 5XE.W.b.U.;XW.v.u =X2X;XE y D E _ Q A G.;XY.I G e [ T a R 5XW.W.v.Y.=XR.L.2XE.Q._ p u b.Z Y 7Xx.Y.7X] Q.T.v.] Y.{ ;X] v.;XF ;X;XVXQ.W T P.W.( ",
"R.D E.1X2X4XvX4XY W p V.t ] 6XHX: ;X=Xx.] HXU.4X5X;X( Q.K.W.W.Y.W.' S { _ =XV.u | { ~ 2X4XI.=X7X2XR L.7X( _ { y  ./ T D ~ ` L.K.c.i.W.c.P.v.^ T ! / _ T ( T.L.] ) p / I.W. .e L.[ ' ] T.Q.P.` ) vXHX] W.T ' R.~ b.G.;Xc.U.x.P.;X{ c.D _ T.;X2XT.Q.L.P.L.R.v.5X2X;X7X4Xc.6X4X8XQ.2X2X2Xe [ R.U.;XQ.x.Q.L.4X4XW R.7XW.2X7X;X5X5XhXpXhX;X X;X7X4XY.=XU.7X4X4Xp W.7X/ T.L.W.v.4XE.L.Y.jXB._ ( R.Y ) 6X2XZX6Xc.: W i.T.P.L.T Y =XHXZ E.t ^ [ ~ t T.P.=XT.e vX6X^ =XW.Q.^ ; V 3XR Y.T.R.{ VXV.Q.Z G.R.;Xb.6 D E.2XxXhX XI.T.P.5X) 5XT.",
"G v 5X=XE.! R.2XI R.R.F W.v.=XK.A a ) ] v.4X;XhX8XL.[ ] E v.4XT.*X[ v.F ' Y.Y.U.V.[ A I 4XQ.cX6X=X4XhX6Xb.T.~ ' v.G.F F ! e c.x.c.T._ [ ) ] ! | E Y c.c.i.T.c.~ / ( c.` ' I R.4XA p Z U.( Q.R.( P.) 6XY.a ;XW.W ` W.] 7X{ ] K.;X4XT.W.R.T.W.6X;XR.c.=X4XQ.2XR.;X2X4X4X=XvX4XvXVXvX*X;XT 5X5X4XW.b.W.5X~ W T.) lX4X5X4X4X6XhXW. XW.;XT.b.U.T.V.*XlX5X4XVX2X[ VXlX5XT.hXmX7X9 { =X4X{ V.HXU.*X7X/ ) =X~ ~ Y Y A R.] L.W.] W.[ T.` Y Y ' c.~ ;X4X^ W.2Xx.b.HXvXY.S W.vX;X;X3X=X7XT { *XR R.HXI W Y.;X` T =XT.pXnXW.6Xp b.[ =XR.b.W.",
"7X6X2X2XlXhXvX6XZXSXDXW.7X6XI { *XY.8X4X4X=XZX5XL.) Y.=X6XY { W.2X=X4X2XI ^ 9XVX6XGXW.G.F VX*X2XDXFXZX1X;XL.4XR.=X7XQ.` / R u 9 4XK.^ HXU.*XR.) ' U.=X=XR.I 2X4X5X6XQ.2Xu v.4Xy a p V.V.R.5XR.Y.p U.2XQ.T.c.D vX4XL.W.7X2X) *XR.hX;X4XVX X2XVX4X=X6XvXvX*XvXvXvXvX4XW.Q.2X4X2X;XvX4X7XvX5X5XhXR.2X=X5X[ 7X=XcX4XQ.vXvX4XmX7X7XQ.Q.2X;X=XK.Q.6XvXE.4XFXDXvX4XLX4XVXFXLXR.-X] vXvXU.=X6X4Xv.] vX=X;XI.E =XL.R.5XV.p Y.=X=X5Xi.;X2X=X2XQ.2X4X4X! [ 4XD L.W.;X6XW.;XD VX2XVXQ VX2X~ vXvX4X6X=XQ.L.D P.K.Y.SXZXvXlXT.W.2XhXcXI.lXU.6X",
"L.4XvX6X[ Y.T.G.5Xb.2XZX] G.T.b.7XY HXK.{ ( 4Xv.5X' =X{ { ) U.;XR.K.Y.VX=XV.8X2X8XDXDXLX6X7X*X2X=Xv.Y.2X2XU.VXjXW.x. X_ ( ) T x.! y _ =X^ F F P v.~ R T P.*XG.2XHXU.V.Y.W.{ ~ ! ;XW.x.A ;XT.=X*X=XW.T.~ 2X=XI 2X6XV.4X[ 6X_ U.( Y.4X4XG.c.W.1XU.=XR.L.2XL.T.4X4X2XT [ v.G p y ) v.` W 7XL.T.2X=X6XL.U.W.=XV.7XT Y.;X7X=X2XVX7X;XE.5X;X7X;XVXvXmXvXZX7XDX7X7XW.Y.=XvX8XR.=X8X8XvX2X9XvXlX) L.HXvX2X2X6XQ.T.~ 2XK.K.HXA HXv.~ b.hXcX5X) *XVX=X;XHXZXvX=XDXZX( 2X4Xu *X[ 1Xx.W.4X4XIX-X9XY.7XK.^ P.;X6X=XQ.HX-X=X4Xc.! ^ ZXE.{.5XR.",
"7 c.I # I * S W C ] e ( # , L.+ e Z  .7  .* X Y p , 9 { Q ( I e F Y.* C A G.Y. .I Y.K.p _ 2XT W t Y U.e ` ` A p r 9 W 9 y { t U.+ 7 : e  .X X * e + - D G c. .^  .t W Z W a A F I ` i e   e # S A X Z X  .A Q   t Q 9 : u W A V.u t ( A T y , [ v.W Z t _ . ; X & y p & 6 : + T - Q A W c.c.^ : : e p p u I : L.c.u Y 4X=X' A G U hX;XQ <X=X' p =XT.y F u { b.Y R.;XQ V.} 4Xe S I  .D ~ Y W.i.!   ; a 7 % X X  .W 9 [ W.Q ~ t Q * Y W.x.*X5X;X[ 6X4X=X5X+ i.e   t + C : HXI vXS 9 ' , :  .- W U.] W x.L.q.T D 6Xi.T G ~ ;X+ e e ",
"i.;Xy t 9 ] Q  .vX5X[ 5XhXF v.~ * K.e I D S ( p D P 4XhX5X=Xc.D Q.[ K.2X-X*XY.I | T.HX^ L.W.Y.U.c.T.5X4X*X] ^ 9 y W *XE. X! ] : p L.*XF ) F Q t S u L.( D e U.Q V.x.;X2XY.I 9 W ~ v.v.) u =XT Y.Z v W U.R t Q Z  ., ^ L.e W ! R.;Xi T W.T.c.b.R.2Xp G. X4Xc.y i./ ~ G e D Q D R.vXW.5XL.cX{ W.T ~ b./ i _ T.) *X=X` HXVXVXL.1X;XvX7X5XK.=Xb.b.c.E.P.U.K.R.2XvXR.2X*XY.FX4XR.a ^ =X;X[ x.mX2XI.7 HX~ ^ 1 Z * t 9 p Z  X{.P.i ) W 4XHXhXc.y 2X: *XI Q 8X4X/ *X) ;X;X1 * HX2X*X6XQ >   7 { , y ^ U.hXK.P.V.W.Q.5X X6X;X{.<XxXv i  X",
" XW.c.C t v.v.( Q e u u e Q.e ~ { E.y Y ;X2Xb.U.cXc.b.! B.;XT.2XHXD T ] Y.^ K.c.^ [ T.Y.=X;X] v c.D ~ Z Z v.v.{ T =X{ 4XW.T T.[ T.W L.u ) E.c.T  .D 9  .7 v.Q S p ] I I ^ L.^ p W.=XL.T G.T.;XE vXR.E.Q.;X: F =XT.x.^ ;X2X;Xv.~ C V.v.] c.2X;XG T e 2XD *X4XW.cXW.b.G.[ 2X~ ~ W ( ~ G ] y b.T E.U.;X[ x.2X6XT.2X4X6X2X^ ] 2X4X6X=XT.b.2X;XY.;X[ c.U.7X4X7XlXHX] p / 6X( F e E.W.W.=X=X6XhX2XvX_ W.vXb.) G.6X~ =X_ b.! p v T.I F 2XT   I E.6XK.GXQ 7XG.4XVXV.GX6XDXq.a D D D ) 6XW./ i =XT.5X( F Q R.W.[ U.W.R.! uXQ.7XR 5X4Xc.hX",
"4XE.b.R.L.U.b.=XQ A U.> t P.2Xc.W Q t A R.~ G Y.p T : y D y e { C U.v.V.v.V.=XE.7XY.W.! b.] =X;X5XR.Y.A R.Y.~ V.5Xv.;XU. .] ~ 7XE.) v T u D D i A Z +  .T Z A F F A p t u L.W 4XVX) e ~ U.] ! T G W.( y W 2X^ Y.[ I v.p G : D / ) T.v.T.2XHX! ! i ! W.) D ] v.~ U.P.U.2X[ L.^ x.x.T.L.W W I ^ ~ T ^ T.c.c.R q.i.^ ;X] ] L.( T vX=X2X;XW.U.HX;XW.K.b.W.c.E.4XY.{ =XW.T.Q 2XR.x.! 2Xv.Q.] D 7X4XU./ 1XF Z c.2Xp  .v.b. .y p y L.U.U.T u ;X| ; ~ FXY ^ Y.2XhX4X=XL.T D LX4XV.=XD L.c.D E.: i e ] *XU.;XP.4X5Xv.T.1XE ( W.[ *X4XT.2X",
"HXW.x.T.L.Q ( Q  .} ~ -X .D / ^ 2X4Xv.D T I } Y. .t t T t T T.Z ) R.^ ( ^ E.U.W.=X;XD Y b.*X6X=X^ ;Xt 7XV.T.W W W.6X9X] ] ] p ! ^ HXW.] ~ P.y ' ( F Z ( T.D D ' F u T / [ A R.v.p c.! b.=XW _ U.q.E ~ p I L.v.( V.T.Q A i a T.~ W [ ( F U.P.) G x.R.b./ L.v.U.W.R.T.U.=X] v.~ K.c.T ~ [ ` Y =X( F L.( E L.! Z / ! T ) v.x.b.b.;X=X! c.b.;XE.T.] T.2XE.c.] 4X6X4X] W.0 R.T.( [ *XT.W.=X/ 5X2X2X2XE.` =Xc.p Z T.P.y A e ( { T.Q.] Z A c.G.Z T.=X] ^ Y.-Xp 5XvXpXc.T A VX8XV.4X4XZ A K.hXL.E.x.~ =X4X4X) T.L.T.I.! W b.i ' / D K.Y.",
";Xv.T.;XF 9 a Y W Q ` 8XW.W u t V.c.Q.~ W.V.R.) W  .t K.v.1XY.y e 9 X Y I.P.P T W U.L.=X6X*XW.G =X[ C W.] ~ W K.W.7X-X| { R.E.D e V.] ) F ( ^ , { U.Y.U.K.) P.K.c.W.D _ Q.A =Xb. .p W ` L.~ 4XW.P.T.W.1X) ~ ~ v.R.[ W.=X] Q.] ) T.] ] ] V.U.[ W.v.K.HXT.^ R.K.v.=Xc.U.;X=XW T ~ v.Y ! ( x.;XE.E ! c.HXG D G G i.D T G W.' Q.[ T ` ^ Q ~ R.L.[ ] =XW.;XW.L.*X=XW.Y.c.v.a ' ` Y.v.D Y W 1X=X4X4X4XL.D =Xa 1 Q.vXb.W D ( 2X=XQ.I p S 9 a T.=X^ 6X~ 2X4X-XI *X8XZXvX=XT.@ E.~ *X1X2XvX6XU.vXhXnX) a  XT.;X{.W.W.) =X2XW.u ~ _ ] x.v.",
"! v.p p ' Y.{ Q ' C ] L T.! c.`  .| _ Q { 4X| ] p [ 4X` E.Y.v.t t Y.v.W.E.E i.~ ~ u =XR.2XR.D W.U.T.5XW =X( Q 4XV.D t S a Y.^ W.U.' ~ ` t u ] W c.A W ^ T.` ) _ v.K.i Y.) c.K.F E.D p T.) i.=X=X4Xx.G K.U.L.2XF Z E.;Xb.K.V.L.U.U.U.Y.T.T D ) Q [ U.) c.T U.W Q.T.D L._ [ b.T.T c.R ) D I R.E v c.D _ P.~ Y R ~ ^ Z p ) x.T.{ D ` *XI c.^ ] ~ T.Q.U.2XW.( ;X2X[ ^ 4X6Xc.W.;Xp R.c.) Y.) W =XZ HX2XW.^ > t ^ ^ 7 T.P.U.:  .Q T T.v ~ y ` 6Xu ( G.4X=X8XGXS 8X-Xv.W._ Y ^ Y.) a G U.b.) DX=X2X4XZ Q.W.Q.1X=XR / ( HX .) R P 5XY.D ",
") HXL.y ;X' 9 C u y K.D a Y T S A W : A Q ^ I ^ ) 2XvXp * y [ ) Y.Q.7XvX^ p ;X=X5XL.A W.[ c.K.7XW.W.T.D ;X2XY.^ E.7 u Q ( | e 9 HX[ E.D F W T ~ A ' ( F _ ] Y ;X*XT ^ W p T.Q F T K.U.x.6XvXy [ =X[ y 7 D { { ( [ T.[ ] ( K.L.T.) c.K.W.L.A b.L.*XT.) K.b.v.) { ~ T.L.~ ^ ] ^ ;XK.` A D ^ I V.v.y L.T P ^ L.T c.] u ( v.2XR.F V.( ) y Y.W *XHXT.Q.P.[ K.v.W.L.R.v.R.=X;XR.;XU.L.v.I K.HX] Y.b.~ ' T.;XU.7X;XZ t =XW.2Xu y T.v.A p 2XT.U.c.lX: a S HXvXHXv.HXX vXv.9 6XY.=Xe  .| p ;X=X' ;X2XY.! W.T E.W.! ) R F I T K.F Y t ( Q.",
"4X2Xv.I R } u F u e u  .Y.4X{ W U.Y ^ L.F ) 2XR.7XC c.;Xb.=X7XG.2XT.W.K.Y R.[ HX~ ;Xb.^ Y Q | v./ ( W 4X~ ( L.) ;XW HX=Xv.S R ` HX^ c.` I x.v.} U.^ W T ; Y.2XP.~ ` Y Q V.R.t c.L.T.K.K.7X;XW c.] R.T.C G ^ / ;X) Y.Y T ~ T ! U.^ ] 2XT.W.U.W.;X;XT.;XT.R.L.=XY F R.W.] I U.y ) ^ T y t p ) Y.W T T.G : 7 p A I ^ F x.T ~ W.D { L.W R.} S Y v.E.v.Y.( ] W.) F v.c.2XG.G ) U.U.' { } Y Y.U.T.;X;XR.] 4XvXLXVX( ] 5XG ] Q.T.R K.W [ U.U.Y.2XhXW.R.Q A   y =X=Xo Q 9XA u { ) _ ' ;XcXhX*X' 4X] u t E.F L.Q ) v.7X2XU.( =XR.D a ) Q.",
"6X2XW.=XV.T.V.K.I A ' ~ ] ;XY.7X;X=X6X;X( ` ] | D W.V.7X5XW Y.W.;Xx.^ K.K.F 2X4XK.-X| { ;X=X~ T.Y.L.V.U.y c.Y.T  .[ E.Y.V.U.L.;X4X] A Y.6XHXA K.4XW u / Z Q U.b.T ~ T V.v.' I 5X2XW._ W.T.[ -X' I ^ v.7XL.x.2Xb.T v.=Xv.W c.) R [ v.c.( ] W.L.v.W.Q.U.T.T.^ ) U.K.x.{ ~ ( ~ ~ ` F ^ T p F 6X=X7 ' y D ( 9 e [ R.i ! / I.Y c.( c.~ ~ 2XF 2XY.{ W.R.' } { ) Q ( ` K.*X^ ( F T e ^ Y.v.Y ( ;XR.2X^ E.6X5XQ.[ Q.Q.2X( Y.( U.W.7XvXT. .[ ;X=X2X=X4XvXvX7Xa ` VXvXp W.VX6XY.2X2X6XR.[ VX7XV.6X~ T 2XT y W.vXb.W.vXlXZXhX' U.T.L.2XU.Y.",
"T.T Z 2XY.=XA : G.Y.Q.P.T u ( C a 2XF Q Y.C / : ^ G W Y [ G Y ! W ~ 2XU.6XU.-XHX*XU.T.vX2XhX3X` T.U.W y p *XL.) A Y - 0 7 ^ V.=X- p p p c.y T =X[ Q A Q R.t t / T.^ [ F ] p *Xc.;XK.' ^ =X=Xp 9 L.[ i ;XQ.4X2XS ^ G 2XQ.K.U.K.p ` V.~ c.] x.{.( L.=XW.U.~ { ~ L.U.( I W { ^ [ ^ W ^ 6 ~ D p T ~ T ^ v.x.~ c.] ^ F ) P.U.T.[ b.] | D ~ K.2XT ) [ W ! / ] ^ U.K.] T.` i { D T Z W u D ^ 9 ^ ] D 1 L.t x.Y.e - L.T > G./ T p =XP.;XT.W.6X( : I I T x.i.W.6X2Xc.c.6X;X3XT.W ] ' 6XF T | ] 4Xv.2X( Z x.4Xx.E.5X;X;XW.W.W.2XL.| ! L.V.",
"G Z y V.] A D W ] ^ C t T { G.a p c.p y : ! [ Y.~ e ~ W p ( I V.HX5XR.3XvX7X6X] 4XvX;XW.Z x.5X5XG T V.[ Z P./ A 2XD i l p D ] | 7 ~ + 1 e W p / e T =XQ t ~ ^ T v.] ^ ^ [ V.) R L.Z V.v.v.=XU.T.[ Y.D ~ W.W.R K.6XL.2XY.[ L.HX0 F W.T.c.K.( HX` ' 3X;X2XL.c.HXR.) ] W ) ^ ^ ' T ^ [ ] ] [ I I ) ;X) ] ] T.( ` / L.) ( v _ K.x./ v.` Y ~ L.T.[ v.! R.v.R.] W { T.c.D V.T y T ~ u Z ( V.i > W u W [ G ; t T Y - / ! ~ t a ) A E.;X[ Z L.E.! v.c.[ T.4X4XDXP.U.pXP y 2XT.  . F 5XhXQ.u W.5X^ T.c.1 T ) 7 _ e t ! p x.;XQ.;XK.a [ ! ",
"R.T L.T b.I R.4X! p I Q I x.) D p C 9 9 t 6 I b./ ;X_ D 2X^ T.=XW ( W.E.V.U.4XhX2XW.F p ) ^ Q.P.K.HXT.=X~ y T D W _ _ x.3Xb.) i.I.;X/ e c.v.V.T * T W.( D Q.HXY.Q ( Q Q Z p 2XL.T  .A Y.' T.Q.^ W ~ *X) ^ ] [ T.L.4XU.G Y.~ U.[ E.W.R.y ~ ) W.W.` c.] E.W.L.W.b.! U.c.L.U.~ / 2XQ.K.K.v.] ^ F e D D ] L./ u T W.T./ T c.=XI.R ~ T.U.^ x.L.4XT.;X2X6X2X;X{ L.b.W.V.Y U._ ' W V.A =X( b.6XE.S T.Y.T _ Z e D ) ( y Y ~ W ( ` Z U.b.L.;X: - v.L.5XR.2X4X2X4X2XW.hX) y c.D mX;XD e ;XvXT.[ HXP.D ] 7 : A T ) _ t ^ ;Xv.c.K.2X;X4X[ 5X",
"7 W.6XY Q.W.;XW A ] ~ v.D ~ A | a a ) c.[ | Z D Y [ e v ;X~ T b.R / [ Q.L.^ L.;XI.U.i.P I.2XK.` T.v.~ G c.Z HXc.Y v.W 2XW.=Xc.W Q.T.q.L.~ y x.Y.=XW.) R.2X! =XL.~ W T R T ! R.` ' W D I u ] | | v.G V.4X2XL.b.] ~ 6Xx.V.v.! W.b.Y.E.L.Q.P.c.c.=XE.Q.W.;Xv.I.b.) c.T.=XE ) x.v.6XI.v.x.) ^ ' L.{ F y x.] T v.T._ T ^ L.' v.U.L.U.G.b.U.;XW.=X;XY W.a G p T.;X=XL.T 2XK.v.G.T.^ 9 Z : : D =X=XR.D ~ { Q.[ Y.L.( , V =X4XY.v.c.u T. XE x.hXv.=XvX5X7XU.7XV.4XhXQ.Q.[ =XT.DXSX2Xp W.x.6XT.T a   I =X] ) Y.Z T W U./ R.4XL.T F 4Xv.2X",
"3X2X2X2X=XG.R.W *XY.;Xc.3X=XK.G.{ 2XV.{ L.D 2Xx.b.) T.v.L.=Xt I.hXE./ ;X6XW.[ c.E.]  X;XcX4XV.2X2XQ.v.W.;X6XR.v.2Xv.V.HXt 9 L.y ! I.c.] v.2XZ ;X2XT.-XvXvX;X5XhXVX=X=XK.[ ) ) G 6 [ 6XP.W.2X=X7XvXL.4X6X2XW.~ 5X;XP.5X2X XE.5X2X( T.K.5X2X[ ( K.*X=X;X*XvXE.2XD 6Xx.T.T.T.b.R.U.W.Y.R.b.L.;X;X] Y T E.2XR.v.) E.W.=XG.7XT.) Q.4XVX6XV.7XW.' b.1 ~ I R./ 4X( ~ ^ ' 2Xx.4X=X;XT C F ( S : ^ ) * - { U.6XV.;XR.C L.] ' 4Xb.;X=X) 2XhX2X7X2X2Xx._ Q._ 7XvXe 2XvXvXVX7X=XE._ G i L.Q.hX7XW.=X) P  .{ ( L.HXHXZ v.W.Y {.*Xx.v.b.Z x.) ",
"7XV.T *XW.Z T.*XY. .L.Z v.^ Z A } W y Z p ' C i ` ~ K.W.y L.4Xq.c.[ ] U.T.1XP.! c.9 T P.5XL.x.c.) HXT.=X^ ;Xc.) G b.V.) T T 6XL.~ Q.A p Q Q 1 y t e W ^ L.T.vX*X~ R.=XT.^ ` D v.Z 9 ^ P.2X2XT.5Xx.=XY.*X` *XU.] ) ) T./ 2XW.D [ c.~ Q.b.b.[ e ~ L.) *XT R.~ ^ K.L.c.T.E.T.F T.L.U.) W.2XR.p t  .;X) / ` V.! ~ I v.T.W.5XQ.W t *XvXv.Y R.~ Q  .G b.T.^ ) Q.t W T 7 u ~ T.4XT Y.b.Z Y t > E.^ e u *XL.Y U.: ` ^ =XY.T ^ [ ] I R.6X;XuXc.e F E.7X;XW.U.e ^ hXv.K.;Xp E.2Xl I.v.( 2X4X .L.VXi =X* t T S D L.Z *XT.Z W I ] D =XG.Q.;X",
"I ! D 9 y W a G G e ~ x.a F W t + + > ) p ^  .. > * ~ ^ F t ] Y 6 ( / ) b.R a x.x.u e C , ! y = ^ T 1 & F p e e - 7 T x.L.Y K.v.[ F t ^ ) ,  .F ; ~ W ` W > u D : $ .  .6 u - [ R : ; * : p y t 9 Q ^ / p Y I e 1  .y 5  .y = . y D D p t v.W E e i Y.Z & 6 v 3Xu : 7 > ; G T : A D Y F { ( * u Z A  .: 1 e ^ , * R _ e ! v. .) F A T ~ U.| y 4X6XT.9 * 6 ] L._ v.! a ; ! 9 Y.E.6 / D T   [ 7X_ K.b.[ i.; : ( T [ t t T p , i X   7 y ; e K.U.T ( T - 7XK.W | p T.4X( ! 7XU.O * K.` ` x.I v.-   + t > t ] R.i.x.Z F ) A ~ ( ' =X",
"2Xc.R v._ L.) { W.;X5XT.L.c.2X] y a 7 ~ W I c.[ y W =XT T.E.Q.=X6X;XhXQ.W.e 2X;X5XU.^ Z Z ^ T W Y.K.q.i E G W r p v ^ R.*XW > [ ] C x.U.2X) HX^  .Y.^ G.=X=X] Z hXQ p 9 ^ D ! G F p Z I A Y.G.' I ) 2X2X4X2X5X5X=X5X=XP.^ 2X4XR.W.( ^ =XE.c.5XT p U.2XL.] hX2XE.W.x.R L.v.'.T.W R.^ [ | *X;X5XW.Q Q F W | I Q A 9 D [ ^ F Y.vX4X;XK._ x./ i U.hXU./ Y 6X2Xc.R.Y.W 5X4X^ y A D T [ 7XvXK.e ( vX5XW.D y T hXU.D b.R.C Q.Q.L.Q.] U.T.P D F T.) R e { 2XhX) y 4X5XvXW.' 7XvX=X4XhX2XK.4X6XQ hXZXT.] ( 7 W 6X6Xi.R.=X[ v.W.HX` ) F G ",
"9XR.T.U.7X^ ] -X| R.' ` i.W y G.u  .^ a D D W.;X[ 7XW F ` R.T ) 2Xb.;XI.N.) x.Q.` E.;XP.-XL.) ;X~ D G W.c.x.*XW ~ x.v.v.Q.b.T c.' { W e > Z ' t  .D S u ) R.^ { [ ;XW.) v.W ( ) T.E Y *XHX^ Y.4XR.~ 7 6 0 u ' G.=X^ K.Q.) y P.Y.K.I K.L.Y.V.W.2XT.;X X2X=X4XQ.L.( T.;XhX5XE.G V._ E.P.F ] { =X;XU.~ L.C G.Y.Q ;X;XV.HX4XY.HX4Xc.HX*XG.E.Q G.*XW / =X2X5XcX6XQ.2XQ.K.vX2X[ Y.( A 4X4Xv.2XW.vX4X=XR.) _ p ( T R | y ZX2X8X[ vX5XvX6X;Xc.Q.T R ] R.L.: Q.2X] E.=XVXU.;XY Q p G W.v.F A Z ] 4X .HXR [ Z p W.( p ] V.W.{ W.`  .^ 2X( ",
"Y.{.7Xc.V.' Q F F ^ ` ( [ I ^ W T ( 4XA y ~ Y.~ W ( D ` ` { ( T I x.a W.W.*X_ 2X9 y ( ~ 4XU.T.L.c.v.x.W ~ ( i W T.=XZ ( ^ Q.T.c.V.F x.~ Q D c.Z K.] ^ I e a u t u p c.U.v ] R ) R E.E.| Q ] { ) p V._ ] ~ V.T ! x.t ) K.l u E.U.W.*X=X` W.4XY.L.W.L.T.5XW.i.P.) i.P.T.;X/ ^ I Y.Q ' L.^ R.K.' Q ) { ' _ ] ~ v.2X4XY.U.=XU.R.A ( { 6X*X=XHXvX7XHXQ F c.V.6XAXVX;X] Y.{ ^ =Xc.*XR.6XSX' v.7XK.p W.c.;X7X2X~ T G p 2XA t 9 4XQ.=XR.a e <XvX;XT c.hX4Xv.t ~ =XT.2XY.R.c.a I W.2Xu L.~ A : ) Q | ^ W.hXU.y U.2Xb.T.U.4XhX{ R.' K.U.=X",
"Y.} x.v.a v.~ G _ T a I._ ^ Q Z u U.G.2XS A W T D e D a L.] v.Z T ) ) L.Y [ _ Z W Y ) ] W.4X1XT / Q.T.W b._ D v T Y.D W ] =Xb.V.[ p W.V.V.~ { I *X] T W K.D Z 7Xv.u v.^ p V.U.p i G ' T *X;Xx.x.[ V.7 ( [ ;X~ x.u _ b.) ! *X' L.U.c.y p U.R.HXp W W.( ! E U.W.` L.L.v q.T ~ L.x.t Z ` F y ^ p F 2Xx.^ ) F Z ~ ) ! W ! ( x.L.D ` ) K.T x.~ 2XF P W Y.^ U.) W.v.I ^ c.U.R.c.D R.5X> 6 T t 6X~ ^ [ ) ;XL.v b.;Xc.T.U.o S Z [ ] ( 4Xl 7 =XW.;X/ P b.E.W W e U.Q e T 2X' L.Y ! P.Y.K. .Q 4X~ e U.hX;XL.4XR.4X;X3X6X) L.2X*X] 4X2X) Y.",
"b._ W 2XW.v.[ L.[ Z T V.I ! Z c.D G C ( ' W i ; { _ E.C W t t p ~ ` U.Z e c.T.p E.] Z ;X2XL.P.] ] 4X~ T P E - T T [ ;XR.T A W Z T ~ D V.U.=XI x.Z ~ p I ( I.2XW.q.T c.=XG D Z r q.y A D ;X) W.Z F D ( { Z Y.K.t ~ v.G G E.W.) K.] W.2XG A ) [ Q.E.T.[ x.L.~ p E.L.W.W i L.] L.! T ! A F ^  .~ T.Q p ^ u C ~ ` W T.U.c.I ` ~ ) T p t u _ y U.v.T ( ^ R.{ y a [ ;XW.c.u v.T.Q 9 L., u vX2XL.~ F ] / ~ x.W.*XW.W.] 7 9 c.2XW =XT.=XvXE.v ] U.;X/ L.x.D ;XT.u , C e 0 9 ' HX7 Z W.D W U.=X| ) U.7Xu ~ v.;XA i mX7XG.W W Q.v.Q 5XL.G ",
"P ;XL.5X=XL.T D ) ~ ~ ] C 9 y ` c.| : t A t S t - ~ E.W v.] ( ~ Q.( x.~ ] i._ P.c.u W 3XR e a c.U.F p R p T R.U.! u ;X9 : D C Z / Y.u [ _ x.~ Q.Z x.D ^ u G =XE v x.A ) K.~ A D ` ^ u y ( P.T.^ p Y =XD T F ~ R ) Q.K.{ Q.y v.Q.x.] =XU.[ v.W.{.R.] T.c.] u ! W.~ T c.D c.D y T T.U.Z t 4XT.] T t ( W Q ` ` [ ^ ( ' D Q L.L.{ / D F [ ^ Q ' ^ C F F R.7X{  .v.U.c.) I ~ ^ A U.* ! 4XY.7 C 6 t L.L.T.vX2XY.] p c.v Y.xXv. .I 6XR.=XF 1 Q.7Xv.R.=X;XT S vX5X^ 4X~  .u ' [ V.V.Y.* ^ U.R.vX4XD * G =XT =XT.) W.K.Q.7XT.T.' W T.b./ ",
"K.( ~ W.L.L.W Z ) ] I K.) | Y 7 F V.( Q V.t ` T 7 u e c.e ) ] T D q.p ] L./ c.4XW.P.2X3X) ] / G Q.R p T Q.G 2Xb.A L.W / t C G D ) G L.~ D b.v.^ =XK.) Z D Q W V.U.y K.P G ` K.F L.c.i ` { 4X;X~ V.^ ^  .U.T *X2Xc.;X( W T.Y R.P.c.) ~ K.;XE ^ T.HX=X) b.` ^ 2X) ~ T ) ( V.y u p D ) R [ T ! y D u Q T ;X] F W ~ D p T _ L.U.[ *XL.V.G.E.x.1 A { G.T.Y L.c.=X) ; t D W.W.D e ZXvX;Xb.I ) ' ~ ( _ L.U.Y.] ] v.R.*XVXcXK.A u } W.Q.( ) Y c.*X( { T [ 2X) y x.T.R.9 Q ' U.v.5XvX{ ) *X4XV.c.v.G i 2XT.4X4X5XW.[ Q.c.6X4XT.^ T.] HX[ ",
"R.v.( T.P.^ 4X=XW D u / ~ * ~ L.^ 9 T t p [ I _ A y | v.^ v T b.t v T Y F ) 5X;XU.2XlXmXHX;X=X/ b.6X] b.^ x.) ] | U.x.) c./ L D S 7 E.I.D A W.7 T ~ G u t D [ *XW W Q.G ; 6 p p F W D x.T ! R.Z { T.D v.Q t p { T.{ T.K.` [ D F T.( W Y G ~ ] T =XW Y ^ W 2Xy R T.U.{ u ` ) K.G.D e  .L.y y u y F ' t x.W ~ u x./ A W ! ` ~ ] R._ x.Y.K.G ] Q Q W.D T W K.=X' ; * t D ) R U.~ L.t Z a v.x.hXU.D ^ i.a G ~ D vX5XQ VX7 . ;X2XF ) D L.W / T y v.F T.T.~ ! D *XP.A V.R.T u R y ^ 2Xv.Z ( ^ V.b.c.HX] R.^ W T.4X*XG x.T T.L.U.;X] *X",
"D ` _ p W.T.b.c._ Z ) ~ Z D R.=Xu Y A ~ t u S F Q a Y ) 2X) ~ U.Z D W T T.T.'.I.I.q.P.E.R.F y [ ` 2XT.;XV.2X[ ~ U.` Y ( ] ~ W x.] ] ! { e F ` T ~ ] ! ~ p W vX5Xe { C D [ 9 e [ =Xy P / L.u [ T ^ W D =Xe W.v.I W.} ' { W u  .^ a R C T 1 Z F e t D T I W HX~ ] ] T [ y y c.^ T.U.F 6 9 Q V.t D ( ) T v.) T D u p p F a W ^ W T D i A 9 ( 2XY.Y.T L.4X=XV. .C Y W T.D e * HX: t y 9 _ =Xy ;X~ V.F b.! Y D D  .W.b.v.  Q.W.c.I t _ r 2X[ e F 2X;Xi x.G { HXU.hX;XU.* D ` 7 ~ T t i y a ^ L.T.c.G.* ~ Z p y T.p ` c.{ D R 9 t Z ] ",
"t r i Z U / T R D ' ! ] F ~ A >  .Y T ! R e ~ A T p / ` T W ) x.L.L._ R i.U.[ R E.;Xb.y 5Xb.y ( ) V.;X=X5X~ / S } U./ b.t F D ) U.i.Y Q { U.F [ T.F V.0 ) D G / ~ D [ W.E.K.W.] ' D ) c.I.W.b.x.) A Z R [ 4Xe a G.] p v T ! T ~ ^ ) W x.[ Y ' Y r ;XQ T { ~ T.~ F G.c.=XP.( ;XW.W ] ) y F Y 7 T ~ W c.Z R F p F p ( W e t ! a y Z  .9 G F ' K.=XT { ' Y T.9 : ! c.W.R.C . X _ c. .Z K.R.R V.P.L.~ Z Y 9 W T ; e *XZ =X4Xi o c.b.c._ 7XR.' L.W.E.Q a =XU.4XL.U.*XY D L.;X{ Q ; ~ x.W y F R u Q.T.( F 9 y Q F T.2XHXR : Y.` T ~ [ ",
"Z 6X*X( ] ) c.T.u p F Z W : 9 ' t 9 W F F Z T y R D K.U.u ) [ T c.| ] I.~ W.HXp 7 ) =XU.E Q.7XT.G ` U.K.K.[ R D T T I.x.L.[ ~ ` x.F ` ^ Q ( A ' ^ W L.B.R.P.x.Z x.pX/ K.E.2XK._ Y L./ c.a x.W.x.b.K.) Q I [ W ` T x.E.D ] ;Xv.E.4XT [ W V.=X_ L.K.~ ~ ( ( D I D W Y.Q ;XW HXT.W.W ! U.Q R D K.Q.Z ' p Z b.( p G./ ^ T ' D ~ Y Y.} A P.7X{ I Y./ V.' Y.V.R.vXQ.[ 2X2XW I.1X; Y.v.Z D G.U.2X( _ HX[ ' Q c.W t V.y / ) 6XR.T.! lXHX~ =X;XY ! Y # C { G.^ ` T.~ A ) c.Q ~ ~ A W.e c.( t v.v.;XW.D 2X=Xu ~ [ _ ] u c.P.b.u D ~ T.) ` ",
"^ T.2XW.;X=X~ Q a Q W ` ` y ) v.^ Y a ^ Q Y G a Y ' U.T ! ( p ] ` Q D ~ ^ x.L.x.~ b.) E.x.~ =XD W.^ p ) v.K.y ^ [ a [ Q L.[ ;XK.c.HXL.( ] L.T Y.[ 6XW.v.] U.4X^ Z *X) x.b.~ $ ~ E.T./ G T T.L._ R.G.U.Q ! ! =X] E.L.[ Y.*Xx.W.*X) W ] G.R.R.] b.c.R Q.W.K.) c.D W u ^ W =XR.D ( Y.( L.x.^ ] Y.T L.=X! ) W D ] ` ) D ( L.Y.| Q R.] K.K.e V.HX) R { Y.L.V.W 2XY.G.;XR.e 2X4XY.c._ [ Q.Y.*XR.c.T.^ y Y.E.b.Y R.c.W. X` HX .^ DX5XW.G.V.T.=XR.Q a I ) 2Xp Q [ K.a Q.S t R.* D =XP.=XL.) =X( 6X=X4X6Xc.~ 2XU.;X^ F A T.I [ p Q.c.T.U.",
"B.Y  .] v.^ ] T T.' / U.U.L.U.HXv.{ I Q i 9 S ' V.V.) ! G u : D F D _ Z ~ ~ T.E.4XE ) R | D T W 1XT x.b.T x.) p T ) W c.Q T ) c.' V.v._ _ Y.c.K.V.5XW.L.a ) Y 5XL.W T.Z T p T L.v e v ) F P / T Y.[ ~ G E.5XK.^ I Y Z u T.G c.G.[ R.K.Y K.x.W [ x.U.W Z F T.I.U.I u y W ;XZ D  .p ^ W {.Q.U.! E.{ Y C I 7 0 y Z u p T e y Q D a : ' W , v.x.Q V.G.! ^ Q F R.A ) HX, hXY.Z a i e e G p ~ p x.Z u Y.~ ^ u ] W.L.T. .W.7X[ { Y Z K.[ 9 2XvXQ D R.=XZ C ^ c.=Xc.~ ( [ ] ' Y.L.v.7XW.F / 6Xt =X' ^ W =XK.b.b.Y.Y.Y.;Xq.~ W.4X( c.6X5X",
"b.) R.U.^ x.V.[ *XL.[ t Q ~ F T F C ^ t T.Q D E.] W 7 / ~ e c.R ( [ 3XK.( ' F K.L.b.W.L.y T.c.U.E./ Q._ ` AXW.L.G ;X2Xv. .^ | V.] p I W.' ' Q x.v.) G p p E.W.vX~ L./ ` Z G R b.U.0.~ U.W [ 5X=X[ x.) T =X' x.L.D F p Y T.U.P.U.HXW.V.R L.) ) ) 6X<X! p p R L.*X=Xp u ;XY.D ] Q K.W I.E.2X[ ) 6XZ I t y C Y  .G t t W u L.D y F t D { ^ T ) ' U.F U [ ;XV.v.~ v.W [ 7XF V.T.L.T.~ U.p E ~ ) e ^ c.i ` e p P.e e i 4XE.HX,   p ] ~ ^ ;Xb.D F ^ W ( p Y.] V./ 2X' lX;XZ c.! u L.[ c.Y.[ =X=XG b.( b.R.y x.U.x.~ T / T.C.L.! W.L.T ",
"U.W c.W I 7XR.Q I I.Z T ` T Z 7 W Q R ^ ` ! u ~ D O ) a D E./ F /  .( ] ' ( / [ Y u T c.G c.E.W p L.[ ( c.6XQ.! ! U ^  .u =X' T E.~ ] } { ^ a Y Q t p W p U.*Xc.x.1XT W.R ~ E u x.L E T U D v.v.^ U.V.K.*Xb.E Q.{ T ^ ~ {.L.W =X=XHX=X5X2XW.( b.W.5XW.;X/ Q.K.v.W ^ T.I  .U.' S ( L.) { I T ~ | Z C t a | Z C S T y [ D } 7 p 7 Z : W ) F T x.] W | / ;X*XS =XW u vXY Z * p HX] ;X( ~ ! T ( F ~ p I.p ~ ^ Q i W D L.Y.[ u u i 4XL.( Y A v.L.[ _ c.( D F p W v.( t v.A # u V.p ] P.Y.W Y.{ Y.4XT.( T.L.P.) L.p ~ ] U.E.b./ ;X[ b.",
"u Y 9 C W.Q F ^ Y > 7 Z : 1 : D e 1 ,  .e p a & 1  .G y * y  .i y = * p  .: b.! / G 7  .P.D ~ y  .) 9  .Y X t p : D  .F G p u X t  .Q * ! t : A | T ~ ~ D F 5X=X6X=X5X5XT p 1 r v e y G r D C T  .Z I U.a ^ a ;XQ.c.Z L.Y.c.T.) v.` ~ R.G._ R ! 1 D 4X7 c.a t P F ( Q F ] i D T e : * 7 : e * 7 a =  .i t t u u y u 9 7 , i y i e ; + ) ~ y ^ D T c.y [ cX9 vX^ i Q     X | X  .; a ( ^ * + C t + ; e R ! 9  .> = t  .` ] v.=XVXi.~ *XY r e u T e p + i t  .F / t t W  .c.c.Y ] ) ( E.c.L.2X=X;X6Xv.) U.] P.~ T S Z ;XZ v.p I A ",
"T ] Q Q =XU.-Xv.Y.Q *XI R.x.D | t : 9 u G a 0 e y t ^ / ] 7  .p K.c.` p e Z ) D U.;X[ ) V.x.` b.b.) / =X} Y.C Y ( [ ^ 5XW 1 y x.[ 9 i v.u v.) D [ 2X` Y ;X{ y _ ( p 6XQ.i.) c.v T ) L.L.x.W.;XR.Y.L.K.V.) ( ) v.x.W._ W.G.W.c.[ ' R D T ^ ^ T 7 ) { P.T.W.;X XQ.x.c.! F R.a W.L.~ ] T ! [ T Z I ^ A Z u e W p y i I Q _ ) Y Y Z  .6 ! Y.;Xc.^ D D E ) p + L.W.: ( A ` W [ 4Xv.( 7 Q.c.lXp i ^ K.L.D y p ; R ] v.=X2X9 9 ( vXv.   .T E.] u R ` i y ~ 2X;Xv.2XVX4X;X=X=Xv.G.R.U.G.7Xv.u U.c.T Q.I.( T ~ ] U.' b.F [ E.^ v.v.=XU.U.",
"] Z A HX7 4X4XW.! t R e F T [ [ [ F =X_ u 9 A Z W B.L.p r L.E.F R.6X_ 9 Z } ` [ T [ P.E./ T x.) D T ` U.y A ~ 6 T D b.8 ` b.4X4Xc.5X3Xv.I.V.' T 9 e D Z ~ a y Z ; p c.p / / ;XU./ L.] F ^ ' F ^ ^ y T T Y.Y U.' i.] E.[ [ G.x.W [ W ;X~ i Y / ~ Y ] ) E T.U.u D D Q x.'  .G.=X] W ) y A T v.V.U.I D Y ` ^ Z p C W ] ^ W u D T 9 9 Z Y  .7 v.b.e y y E v 7 [ ~ Z ] Z ) ~ ! ] }  .u t W ] 6X5XY W 7XW.L.p ] ( W c.Y u 4XA y ' I : 7 C E i Z ^ ` p T ~ I A u ( U.D F ` Y.W.HX! Q E.7X^ U.;X] Z W y G p x.' D F a x.~ ^ D  .p t _ x.",
"b.Q F e p F D L.I p e Z T D ) W G ' V.Z I ~ G 7 / U.G T ! L.R.Z C c.=XU.! ~ T.6XW.D Z / D p x.Y P A ] Z e | HX| T V.p T ~ ) T.F ~ 2XhXc.W Z Y.[ G - ~ U.e T =XU.G ' p P i I.W.x.T U.T.| ^ W.( ~ v ` Z A W ] W Y a U.T.F _ C D 1 p I F ^  .D ( K.G R y e p A u y p ) a D Q ' D ( D G Z ^ i t ! R Z A D W F Y u Z A ! Z F Y ~ ] c.P.2XW.^ y Y ) G E v  .W 2XZ : U.i hXR.=X> C p t D t + : T T.W.e D i q.Y ` ~ G.Z Z V.7Xu C : { R.R.5XT i b.] L.~ Q.G : 7 Q ^ _ ) u ' Z D A ^ *Xb.W D U.Q ) ) p i L.p  .v.! ) ) ] C T.p F 5 , e T ",
"a y { D F T D c.T D K.' { ] Z F t ^ ^ U.( ~ 9 ! F ^ e y ~ y Z Z T Q V.W.T.P.] T T.v.F L.( u D Z ~ F _ D Z ] ' Z ` F { [ T p v / T ^ x.] W [ ) t [ F U.p D ) A ] HXT y ` 2XL.W T.c.~ F c.[ c.[ T ~ ] D Q } I T ( Q W u v.^ ; Z G HX=X> Z K.0 ] F e y T G 0 x.W D u T ) 9 Q W Z L.' e [ T.D E T A Z ~ W ^  .p T D Z W C e W ' ! c.L.P.~ =XA e I.;X! F x.[  .9 i.HXW.cXY.) A u A 9 y t i ~ ~ b.~ R.`  .! ] Y ] A e t } : y V.t Y c.^ y Y.{ x.Z y ) G i.i.x.HX6X~ T.C  .Z F / ^ L.A p K.7 7 y F D ] Y a * _ p R G U.D y U.L.! ) I D ",
"; 1 y v.) Q.I.p i W [ D T Y ( p ~ L.Z [ W G G c.Z W P.^ HX` ( K.9XA 9 | U.P.[ D S W.L./ { ~ y ~ ] Y.( Y.' c.K.] A Y.Q u R y W D c.) Y i ! A X u [ W.;X .( ) c.L.L.~ U.A 2X .~ b.E.^ ] T.b./ A u ' v.Y.W.v.Q ` U.c.W D Q.U.Q W.' U.=XT.' 7 7 ) T y G.e ^ L.R ] ) Y ) [ ( ) { v.Y.( v.{ c.` P.( S S D 7  .Q W G.( | Q ^ ) c.( T / G G *X[ x.c.L.v.*X*X` U.{ u { T.{ { ( 7 =X4XQ x.~ v.! T.' { * S W.^ Z { F L.Z Y t t ` 4X*X^ | G.Y T 4XW.F K.^ p b.6X;XT.*X;XF [ ;XZ y v.v.Y Z ( ( c.W _ A D u a e Q c.U.9 R v.W.E T ] ^ v.^ Y t ",
"y | . K.~ y W Q ' c.A a Y *X) D Y.c.T K.Q.F | ` T 2XW.Q p ! ` ^ [ ] F W { v F c._ T.Q ` Q K.W [ Y.v.p G.[ ) R.D ` [ W Q { HXc.=X4XQ.) v {.x.p I W 6X*X( L.7 7.i.L.=X[ Z   e Y.9 Y.Q _ L.( ^ ~ ) t ] =X[ i W [ L.K.y | Y Q V.I U.V.) L.I Y W.( ( T K.) ` ) D 5XK.U.W ( L.! u ) D 9 p Y R u S ` p | G.Z : ^ U.W ~ D ) Y.;XK.c.W.Q.( L.Q.P.x.] T.Y Q ` t ~ 2XR.Y.( HX9X| Y.{ W._ P.U.a C ` *   Q F ;X=X} V.Y.*XK.W ' vX=X4XA G.` G.=XT.T.4X| T.HX] 2X7X=X{ ^ b._ ~ c.2XV.V.Z ! U.W.Q.c.Y Q.T.P._ U./ K.v.G.T.E.] b.T.( W T ) a y 9 ",
"7 t G t 9 C e  .1 ~ c.E W W i T ^ F G Z Z t y ` e p p  .Z 7 F ` D C R I t 7 D Y P.E P T v x.! ] ] L.I t F e : : y  .t Q ^ T e L.( a / r c.L.L.c.R.] T x.W ) c.) ' ~ G C  .) c.] D c.G _ ^ Y Z V.` * t 7 t T 7 i c.W Z Z i e D D T 5  .p u y G u p a [ T y ( T.c.T Z u t 7 C i e  .: Z C Z Z u y a a ~ c.D 9 t u T Z p W ^ Y Z e i.A p G / W i ' G  .E Z Z ~ F 7 b.R * u D D i : D 9 A HXy + ' W.T R u : y Q y Z T.v.W.9 , E.! [ 1X[ ! W ` y F =Xx._ T.! / L.Q.v.T.2Xv.| ) ) T ~ L.u ! R c.~ ) 4X{ F F ( =XV.U.^ K.v.T L.A ] Z t ",
"t . c.1 7 u * y T G b.W 7 y ) v I u A 7 + y u Z D t u ~ F ~ ] p D ~ p Z e ! R D F ] i.G c.R t L.p Q ( D ! T ; e i Z X e / r y u : y D ` ] y K.! D ; x.G G ` ( G W ) V.W E.Q U ) - v x.^ Y ( ! ' ^ W C t y p G i p W ~ G p u ~ u t * G x.y : i Z W 7 Z ! Z / 6 p c.u y y Y p u : e D Z p F y t  .* D 7 6 t e D D A e  . .t u D i / v G L.y T D D T P.D ` - > 1 T 7  .t & p Z Z D D y y Z L.2Xv  .: y F u t S p ) y : t t i ^ ) c.T ^ U.D F ~ e A Z T ) ] I.=Xb.E.W x.c.E ^ T.D <  .R E.a u D ~ t F p R P u [ A  .T ] Z ) 6 y * R ",
"[ * + D i e l L ' W 6 / T R G / P.p y W i t Z p R D D R Z G Z F A y F W G Q.W T D ) ~ a D ( W G | A F i 7 p ; D G 6 / / 7 1 ~ v 0 x.p D ^ F F u v _ i D p p t D a ! D L.x.K.p / [ t Z Y W u W ^ Z D Z C T t A ] Y / D a ` 4XW ] ` Z ' e Z c.e D e T Q ) L.) u t W A y A F W W p y F p u F  .e p p t y a y R p y i p p e p p ) ) a E.c.y t [ p L.' ) P.I D ^ ^ a a e a T D T i.! p e * [ y 6 u e D / ] p F G F W C ^ I D [ A Y.T e G t ~ x.L.r Z [ ) u Z / Z ) R ) D ^ T.U.U.W T x.[ G T ' p I v T p u E C P.i.9 C Z $ I ) p 7 : ",
";Xx., i x.T P 7 T C  .e ^ 7 7 D  .y D G c.Q 9 9 7 7 p 6 A 9 ; p D W U.Y T K.u R p y v D G *X{ Z V.T a p Y G D T p : U U b.u _ 7 Z i v 9 e y 1 Z ! c.7 ;  .Z D i 7 1 y y x.] y D t t a ! =XA / ` W ^ ` W ^ A u ) [ ' ' D ~ c.W ! A F a ! / Y ~ / D W P.u ( y | ) : Z  .F W Z p T G p 7 6 D y e y ) Z : e a t * : y Z A I G Z u ~ | W ~ Z Z a | u u D _ ' 2Xt  .| ( Z  .Z T R )  .e R ^ Z t u I _ ` r 7 y ~ I T  .L.Q 6 / u e ~ u ~ p  .p ~ F W u Z Z : 7 W D 9 Z L.~ L.x.E./ ] [ ;Xb.~ G E.L.T.c.D K.V.x./ / x.v.` L.! P v.T Z W ",
"U.5Xv.G T y A  .i p D e 7 t i e D r u p W ' p 6 D u e u i ~ ~ y t T t 9 T p p ) _ _ ^ C i.] G L.^ { Q p c.r [ T D y e : y e : ^  ., : p Y 7 u , , u p D F y i 1 ) T U.~ 7 7 ~ 9 e ] G.V./ I D u ) b.) ) F 6 ! ' I i Z ] ^ ; Z L.S T Q C G p ! ! A F p t p 6 Q W Z Z u u u 7 t y y >  .p y y t ; a G y i y : : e e 9 p 9 p ^ a A D T p G Q a ) p y / t y i 7 9 a v _ 0 Z G 6 D t Z R 5Xp ; : T D ; > i 9 ( i i 0 W : % , ; y 7 Z Z ] D D D p !  .Z T D e W / Z t W.T.) ( Z t ! D L.;X! p G ~ ;XE.^ E.yXE.P _ y R.=X;XR.i.~ i.K.4X",
"- T / p e 6 e R F : v Z 9 1 i e Z W I A p W i p D p 9 9 i A u t u t D v.T * x.! W W t D ! E E c.y  .D T , 7 D I 6 T e Y D :  .] T R y D e G - , a , e U.( / y t x.9 R T ) c.p 7 E ^ W R G c.c.i b.Z I C ' Z  .Z ^ a  .A ~ ~ T Q A  .C A G F : - D ` A T D D D I ^ u C 7  .1 e p 7 p t e 7 t e y e : t 7 y Z R D y y p 7 p Y G p 6 t T  .Z u v x.) ! r 7 : y c.A p W 7 D D u 0 i i % W i.! r p 7 y a ( Z ! y W u * p ^ + > y t e = ] Z ! ~ G Z F c.F e Z ~ ! A W y y t e p 9 = ) HXK.: p T Z ~ 4X] @ g.W.u ) P.L.~ Y.P.=XT.P.) ) ",
"6 y e T L.- p D D  .u u t t : D t T 9 T y ; t e 9 7  .7 Z t p i T t i W y W Q i t p y G v E t D y 8 - u y ! =Xe 6 R.+ u ! p 7 e c.E 6 7 7 - 7 ~ v.8 * O T ^ 7 - I * y : G u / ^ Z a e e W K.^ Z t D S F I Z C p a T Y G.T.) Y e W 7 u ( T D 7 6 7 T T p Z Y y ~ Q S 9  .t 5 7 y t e  . . .7 : a i 9  .: y u F G e e : Z D p 9 : F D x.a : y p p C t 9 ; t Z p F 7 9 y e T D ; W t 7 e y 6 - ; r B t t E u  .p Y & Z ] a 7 Z a 6 T I Z y [ F A ~ a 9 u F ) t 9 p 6 ~ R G R y T ~ u y u D l D T Z / ) ; + / R.6Xv.y } / ] L.[ I _ ",
"p / ~ ] U.F T ! i.^ D y a R T.] T C A t Z W T ! P p 9 i F Y a G Y T A p ! U.] ( A T T c.G ! i | ) ) 0 ) W.^ ^ u ( ) K.T S E.L.9 p T Z t ^ D R ~ 1 T e  .Z t Y Z T c.) y 9 W U.[ i G.[ [ u u 7 ;XW.v.L.K.p Y [ W ~ ' W _ 9  .A v a Q ] ^ Y u [ A ^ ] c.D T Y { ` ~ u ( A t t a i I y D A y u T ~ ' F t 9 : t G : 7 p e | D v S e W t R G p ] W p t y T Z G T y y | D ` y Z 7 G Z 9 C y u W e ; u ! Z p D D  .e 1 ,  .t e ) ~ y W Z Y t C  .e S 7 ( 9 C t e ) t e ^ L.~ ) ] D / a 7 a ) ] D D e R ~ ! ) P.I.;X5Xb.T.] G./ L.v.b.^ ",
"/ ) G T G p u ~ L.] R D ~ D ( T T ' Y A F ~ Z T R y Z u G D t T Z W Y D W ( ^ [ ' ( ~ ~ T x.G ) ! D R R.^ D D D W / [ v.( L._ ) ` Y W ^ G Z y p 1 p a A Y D Y D ^ ) ( T Q F T ( F ` ] _ F ] W R.=X] U.U.W D W ^ ` ~ D t t Z A T D F ^ [ D Z T D W ] T.W Z ~ ~ W [ D ( F W S u T F ` D Z p D ` ~ W F A p D T p t u Z y I D / T p W W ) T ! ~ D Y ` ` / ! W D D W ~ T W Y Z p Z a y p Y ) ~ Z i Z G Z p ~ p u y ; - y W a D T D F y Y W T u y F D F u p t p W Z Y ~ ~ x.[ [ ^ p Y D p R F D T p T x._ T.P.P.W.L.c.L.L._ ^ ] U.b.) "
};
