/* XPM */
static char *_b5a2167734a466ca702bc90e7ef12b1tIOCrYa6kNu5FCLD[] = {
/* columns rows colors chars-per-pixel */
"216 233 77 1 ",
"  c white",
". c black",
"X c #FD364D",
"o c #CD2139",
"O c #DADADA",
"+ c #FFAEC1",
"@ c #FF3850",
"# c #FF364D",
"$ c #CA2038",
"% c #FD3048",
"& c #AEAEAE",
"* c #FFB2C5",
"= c #FC364D",
"- c #959595",
"; c #A7A7A7",
": c #9A9A9A",
"> c #EAEAEA",
", c gray77",
"< c #FD2D45",
"1 c #E1E1E1",
"2 c gray51",
"3 c #1B1B1B",
"4 c #898989",
"5 c #343434",
"6 c gray95",
"7 c gray63",
"8 c gray36",
"9 c #F9F9F9",
"0 c #8D8D8D",
"q c #555555",
"w c gray80",
"e c #D2D2D2",
"r c #797979",
"t c #686868",
"y c #F03048",
"u c #434343",
"i c gray13",
"p c #D5253D",
"a c #4B4B4B",
"s c #0E0E0E",
"d c #2C2C2C",
"f c #717171",
"g c gray71",
"h c #E22A42",
"j c gray11",
"k c #FFA7BA",
"l c #FE667A",
"z c #781925",
"x c #AF2535",
"c c #1D0608",
"v c #C72A3C",
"b c #410E15",
"n c #FD5E72",
"m c #FE7C91",
"M c #FE9BAE",
"N c #2C0A0E",
"B c #931F2D",
"V c #FD5267",
"C c #9E2131",
"Z c #FD8699",
"A c #BF283B",
"S c #741923",
"D c #67161F",
"F c #313131",
"G c #340C10",
"H c #A82432",
"J c #541219",
"K c #5D121C",
"L c #8C1E2B",
"P c #FE92A6",
"I c #FE475C",
"U c #FC7387",
"Y c #400E16",
"T c #FD566B",
"R c #190606",
"E c #2F090F",
"W c #000300",
/* pixels */
"                                                                                                                                                                                                                        ",
"                                                                                                                                                                                                                        ",
"                                                                                                                                                                                                                        ",
"                                                                                                                                                                                                                        ",
"                                                                                                                                                                                                                        ",
"                                                                                                                                                                                                                        ",
"                                                                                                                                                                                                                        ",
"                                                                                                                                                                                                                        ",
"                                                                                                                                                                                                                        ",
"                                                                                                                                                                                                                        ",
"                                                                                                                                                                                                                        ",
"                                                                                                                                                                                                                        ",
"                                                                                                                                                                                                                        ",
"                                                                                                                                                                                                                        ",
"                                                                                                                                                                                                                        ",
"                                                                                                                                                                                                                        ",
"                                                                                                                                                                                                                        ",
"                                                                                                                                                                                                                        ",
"                                                                                                                                                                                                                        ",
"                                                                                                                                                                                                                        ",
"                                                                                                                                                                                                                        ",
"                                                                                                                                                                                                                        ",
"                                                                                                                                                                                                                        ",
"                                                                                                                                                                                                                        ",
"                                                                                                                                                                                                                        ",
"                                                                                                                                                                                                                        ",
"                                                                                                                                                                                                                        ",
"                                                                                                                                                                                                                        ",
"                                                                                                                                                                                                                        ",
"                                                                                                                                                                                                                        ",
"                                                                                                                                                                                                                        ",
"                                                                                                                                                                                                                        ",
"                                                                                                                                                                                                                        ",
"                                                                                                                                                                                                                        ",
"                                                                                                                                                                                                                        ",
"                                                                                                9>1,;-0422240-7gO>6                                                                                                     ",
"                                                                                            1,28d.................jaf;e6                                                                                                ",
"                                                                                         ,2d...........................su:e                                                                                             ",
"                                                                                      wr....................................r,9                                                                                         ",
"                                                                                   6:5........................................32e                                                                                       ",
"                                                                                 62................cJSBBCCCCBzJN.................ug                                                                                     ",
"                                                                               64............NKCvh@@@@@@@@@@@@@@@yoxzb..............:9                                                                                  ",
"                                                                              &...........JCp=@@###%<<<<%%%%<<<<%%###@yvLb...........s:9                                                                                ",
"                                                                            1a.........cCy#@##XXX%VmZPMkkkkkkMPZmlV%<<%#@#hHG..........3&                                                                               ",
"                                                                           7.........Kv@@#XXXXXXXI***+++++++++******kZnI%%#@@hBc.........Fe                                                                             ",
"                                                                         68........Dp@@XXXXXXXXX%U*++++++++++++++++++**+MUI<%##=AJ.........r9                                                                           ",
"                                                                        1s.......Yp@#XXXXXXXXXXX#T***************++++++++*+Pn<%#@#vb........i,                                                                          ",
"                                                                       ,........x##XXXXXXXXXXXXXX<lPPmUlnTTnlUmZM++**++++++**kUX<##@vb........r                                                                         ",
"                                                                      ;.......Ky@#XXXXXXXXXXXXXXX#%<<<%%%%#%%%<<<%IlZM***+++++*kU@<##@xc.......u1                                                                       ",
"                                                                     7.......C@#XXXXXXXXXXXXXXXXXXXXXXXXXXXXXXXXXX#%%%IUM**+++++*kl<##@=z........,                                                                      ",
"                                                                    7.......p@#XXXXXXXXXXXXXXXXXXXXXXXXXXXXXXXXXXXXXXX#%<Imk*+++++*MI%X#@oN.......;                                                                     ",
"                                                                   ;......Gh@XXXXXXXXXXXXXXXXXXXXXXXXXXXXXXXXXXXXXXXXXXXX#<%lk*++++**U%XX#=z.......4                                                                    ",
"                                                                  ,......by#XXXXXXXXXXXXXXXXXXXXXXXXXXXXXXXXXXXXXXXXXXXXXXXX%%lk*++++*m%#XX@x.......f                                                                   ",
"                                                                 1......YX#XXXXXXXXXXXXXXXXXXXXXXXXXXXXXXXXXXXXXXXXXXXXXXXXXXX%%U+*+++k#XXXX@hc......t                                                                  ",
"                                                                6i.....b=@XXXXXXXXXXXXXXXXXXXXXXXXXXXXXXXXXXXXXXXXXXXXXXXXXXXXXX<IP***M%=XXXX#=J......f                                                                 ",
"                                                                t.....Ny#XXXXXXXXXXXXXXXXXXXXXXXXXXXXXXXXXXXXXXXXXXXXXXXXXXXXXXXX#<UMPIXXXXXXX#=D......2                                                                ",
"                                                               &......h#=%%%#XXXXXXXXXXXXXXXXXXXXXXXXXXXXXXXXXXXXXXXXXXXXXXXXXXXXXX%%%#XXXXXXXX#@z......7                                                               ",
"                                                              >......v@X<TMMV%XXXXXXXXXXXXXXXXXXXXXXXXXXXXXXXXXXXXXXXXXXXXXXXXXXXXXXXXXXXXXXXXXX#@z......w                                                              ",
"                                                              8.....B@#<l***kXXXXXXXXXXXXXXXXXXXXXXXXXXXXXXXXXXXXXXXXXXXXXXXXXXXXXXXXXXXXXXXXXXXXX@S.....i6                                                             ",
"                                                             ,.....b##<l*+++*I#XXXXXXXXXXXXXXXXXXXXXXXXXXXXXXXXXXXXXXXXXXXXXXXXXXXXXXXXXXXXXXXXXXX#@J.....r                                                             ",
"                                                             d.....h#%T*+++*P%XXXXXXXXXXXXXXXXXXXXXXXXXXXXXXXXXXXXXXXXXXXXXXXXXXXXXXXXXXXXXXXXXXXXX#=R.....e                                                            ",
"                                                            ;.....C@X%++++*P##XXXXXXXXXXXXXXXXXXXXXXXXXXXXXXXXXXXXXXXXXXXXXXXXXXXXXXXXXXXXXXXXXXXXXX#v.....u                                                            ",
"                                                            s....N==<m*++*Z%XXXXXXXXXXXXXXXXXXXXXXXXXXXXXXXXXXXXXXXXXXXXXXXXXXXXXXXXXXXXXXXXXXXXXXXXX@z.....w                                                           ",
"                                                           &.....A@#I+++*M%#XXXXXXXXXXXXXXXXXXXXXXXXXXXXXXXXXXXXXXXXXXXXXXXXXXXXXXXXXXXXXXXXXXXXXXXX=XyR....a                                                           ",
"                                                           u....b##%U*++*V%XXXXXXXXXXXXXXXXXXXXXXXXXXXXXXXXXXXXXXXXXXXXXXXXXXXXXXXXXXXXXXXXXXXXXX#%#XX#C.....O                                                          ",
"                                                          e.....x@X<P*+*M<XXXXXXXXXXXXXXXXXXXXXXXXXXXX#X===XXXXXXXXXXXXXXXXXXXXXXXXXXXXXXXXXXXXX%IUI<X#=.....0                                                          ",
"                                                          f....R##X%l***T#XXXXXXXXXXXXXXXXXXXXXXXXXX##@##XX######XXXXXXXXXXXXXXXXXXXXXXXXXXXXXX#V***n%X@z....5                                                          ",
"                                                         9.....B@XXX%nZn%XXXXXXXXXXXXXXXXXXXXXXXXXX=hhpppppphhhy=###X#XXXXXXXXXXXXXXXXXXXXXXXXX<Z*+*k%X#v.....6                                                         ",
"                                                         ,.....h#XXXX%<%XXXXXXXXXXXXXXXXXXXXXXXXXXXp$$ooooooo$$$$phy=#XXXXXXXXXXXXXXXXXXXXXXXXX%U*++*T%##.....g                                                         ",
"                                                         r....J#XXXXXXXXXXXXXXXXXXXXXXXXXXXXXXXXX#y$ooooooooooooooo$$py=#XXXXXXXXXXXXXXXXXXXXXX##k++*Z<X#K....:                                                         ",
"                                                         .....C@XXXXXXXXXXXXXXXXXXXXXXXXXXXXXXXXXXXo$o$$$$$$$oooooooo$$oh=#XXXXXXXXXXXXXXXXXXXX#<Z*++M<X@L....r                                                         ",
"                                                        1.....h#XXXXXXXXXXXXXXXXXXXXXXXXXXXXXXXXXX#ypphhhhhhhpp$$$oooooo$oh=#XXXXXXXXXXXXXXXXXXX%l*++k<X#C....q                                                         ",
"                                                        g....Ey#X#yh=#XXXXXXXXXXXXXXXXXXXXXXXXXXXX=############Xyhpo$ooooo$oy#XXXXXXXXXXXXXXXXXX%l*+++<X#C....a                                                         ",
"                                                        2....D@X#p$$pXXXXXXXXXXXXXXXXXXXXXXXXXXXXXXXX##@@@@@@##X##@=hp$ooooo$p=#XXXXXXXXXXXXXXXX<m*++k<X#C....q                                                         ",
"                                                        q....C@X=ooo$y#XXXXXXXXXXXXXXXXXXXXXXXXXXX##@hABSDSzHvh@###=##yp$ooooooy#XXXXXXXXXXXXXXX<M++*P<X@L....f                                                         ",
"                                                        5....v##y$oo$=#XXXXXXXXXXXXXXXXXXXXXXXXXX#@pJ..........czAX@##X#yp$oooo$y#XXXXXXXXXXXXX%l*++*l%X#D....-                                                         ",
"                                                       6s....p##y$oooXXXXXXXXXXXXXXXXXXXXXXXXXXX##L................Sv=@###hooooop#XXXXXXXXXXXXX<m*+++XX##.....g                                                         ",
"                                                       1.....h##y$oopXXXXXXXXXXXXXXXXXXXXXXXXXX##z...................GCy@@#=p$o$p#XXXXXXXXXXXXX#n***U<X#v.....>                                                         ",
"                                                       O.....=X#h$o$pXXXXXXXXXXXXXXXXXXXXXXXXXX@x.......................C=@#Xhop=#XXXXXXXXXXXXXX%nZl#X=@D....5                                                          ",
"                                                       O....R@X#hoo$h#XXXXXXXXXXXXXXXXXXXXXXXX#y......3f&,g-85............x#@####XXXXXXXXXXXXXXX=#<%XX#h.....-                                                          ",
"                                                       O....c@X#hoo$h#XXXXXXXXXXXXXXXXXXXXXXXX@H.....f9       1;q..........bp@#XXXXXXXXXXXXXXXXXXXXXXX#D.....1                                                          ",
"                                                       O....c@X#h$o$p#XXXXXXXXXXXXXXXXXXXXXXXX@b....a            >-..........L=XXXXXXXXXXXXXXXXXXXXXX@x.....f                                                           ",
"                                                       O....R@##h$oopXXXXXXXXXXXXXXXXXXXXXXXXX#.....,               gu.........A@#XXXXXXXXXXXXXXXXXX@p......>                                                           ",
"                                                       O.....=X#h$oop#XXXXXXXXXXXXXXXXXXXXXXXXy.....O                 ,u........Kp@#XXXXXXXXXXXXXXX@p......-                                                            ",
"                                                       1.....y#Xy$ooo=XXXXXXXXXXXXXXXXXXXXXXX#@.....2                   &.........Sh@##==XXXXXXX##@H......u                                                             ",
"                                                       >s....p##yooo$=#XXXXXXXXXXXXXXXXXXXXXXX@b.....;                   9r.........Jv=#@#####@@=vG......s>                                                             ",
"                                                        d....v#X=ooo$y#XXXXXXXXXXXXXXXXXXXXXXX#A......r6                   eu..........DBvppppxzN........e                                                              ",
"                                                        u....H@XXpoo$h@XXXXXXXXXXXXXXXXXXXXXXXX@K.......06                   ;..........................e                                                               ",
"                                                        f....S@X@hooop#XXXXXXXXXXXXXXXXXXXXXXXX#=b........8g9                 92......................a6                                                                ",
"                                                        &....b#X#y$ooo@XXXXXXXXXXXXXXXXXXXXXXXXX#=D..........t&>                >2..................s;                                                                  ",
"                                                        e.....h##=ooo$yXXXXXXXXXXXXXXXXXXXXXXXXXX##x............u:O               6;u.............d;6                                                                   ",
"                                                         .....A@X#pooop#XXXXXXXXXXXXXXXXXXXXXXXXXX#@=B.............i-1               6g4ai3ss3Ft;1                                                                      ",
"                                                         q....S@X#h$ooo=#XXXXXXXXXXXXXXXXXXXXXXXXXXX#@yCb.............u:>                  99                                                                           ",
"                                                         ;.....X#X=$oo$h#XXXXXXXXXXXXXXXXXXXXXXXXXXXXX#@Xoz..............8g                                                                                             ",
"                                                         >.....A@X#poooo=XXXXXXXXXXXXXXXXXXXXXXXXXXXXXXX##@#vzR.............0>                                                                                          ",
"                                                          q....J@#Xy$oo$h#XXXXXXXXXXXXXXXXXXXXXXXXXXXXXXXXX##@#vzN............te                                                                                        ",
"                                                          &.....h#X#pooo$=XXXXXXXXXXXXXXXXXXXXXXXXXXXXXXXXXXXX##@=vS............a,                                                                                      ",
"                                                          6s....z@X#y$ooop#XXXXXXXXXXXXXXXXXXXXXXXXXXXXXXXXXXXXXX##@=xJ...........5,                                                                                    ",
"                                                           2.....h#X#h$oo$h#XXXXXXXXXXXXXXXXXXXXXXXXXXXXXXXXXXXXXXXXX#@hBE..........uw                                                                                  ",
"                                                           1.....S@XXXoooooy#XXXXXXXXXXXXXXXXXXXXXXXXXXXXXXXXXXXXXXXXXX#@=vD..........t1                                                                                ",
"                                                            t.....p@X#y$oooo=#XXXXXXXXXXXXXXXXXXXXXXXXXXXXXXXXXXXXXXXXXXX##@hz..........4                                                                               ",
"                                                            >.....G@X##h$oooo=#XXXXXXXXXXXXXXXXXXXXXXXXXXXXXXXXXXXXXXXXXXXXX#@yBR........s,                                                                             ",
"                                                             2.....C@XXXp$oo$o=#XXXXXXXXXXXXXXXXXXXXXXXXXXXXXXXXXXXXXXXXXXXXXX#@yC.........r9                                                                           ",
"                                                             6s.....h#XX=o$ooooy#XXXXXXXXXXXXXXXXXXXXXXXXXXXXXXXXXXXXXXXXXXXXXXX@@yL........ie                                                                          ",
"                                                              &.....G=#X#=o$ooo$y#XXXXXXXXXXXXXXXXXXXXXXXXXXXXXXXXXXXXXXXXXXXXXXXX#@yD........:                                                                         ",
"                                                               q.....S@XXX=poooo$h=##XXXXXXXXXXXXXXXXXXXXXXXXXXXXXXXXXXXXXXX#%@<<#XX#@vG.......t9                                                                       ",
"                                                               6......C@XXX=p$ooo$oy#XXXXXXXXXXXXXXXXXXXXXXXXXXXXXXXXXXXXXX#IM+MmI<%X@#=L.......u6                                                                      ",
"                                                                ,......x@XX##p$oooo$py#XXXXXXXXXXXXXXXXXXXXXXXXXXXXXXXXXXXX<P*++**Ml%%X#@pN.......1                                                                     ",
"                                                                 0......A@XX##hoooooo$py=##XXXXXXXXXXXXXXXXXXXXXXXXXXXXXXXX<P*+++++*kl%%X#=D.......O                                                                    ",
"                                                                  q......A@XXX@yp$ooooo$ohyX@#XXXXXXXXXXXXXXXXXXXXXXXXXXXXX#T***+++++*MV<XX#C.......O                                                                   ",
"                                                                   5......x@X#X#@ho$oooooo$$py#XXXXXXXXXXXXXXXXXXXXXXXXXXXXX%@lP+*++++**m%##@A.......1                                                                  ",
"                                                                   6d......B@#XXX#=ho$oooooooo=XXXXXXXXXXXXXXXXXXXXXXXXXXXXXXX%<IUk*++++*MI%X@p......3>                                                                 ",
"                                                                    >3......S=#XXXX#=hp$$oooo$=#XXXXXXXXXXXXXXXXXXXXXXXXXXXXXXXX#<@U+*+++*kI%X@pW.....u                                                                 ",
"                                                                     6j......Eh@#XXXXX#yhpo$$pXXXXXXXXXXXXXXXXXXXXXXXXXXXXXXXXXXXXX%@P*+++*+V%XXhW.....t                                                                ",
"                                                                      6u.......H##XXXXX###=yyXXXXXXXXXXXXXXXXXXXXXXXXXXXXXXXXXXXXXXXX<l+*++++V%#@p......;                                                               ",
"                                                                       98.......Jh@XXXXXXX##XXXXXXXXXXXXXXXXXXXXXXXXXXXXXXXXXXXXXXXXXX<Vk*+++kI#X@A......1                                                              ",
"                                                                         2........L=##XXXXXXXXXXXXXXXXXXXXXXXXXXXXXXXXXXXXXXXXXXXXXXXXX%@k*++*k<XX@B.....u                                                              ",
"                                                                          ,........Rx=@#XXXXXXXXXXXXXXXXXXXXXXXXXXXXXXXXXXXXXXXXXXXXXXXX#@k*++*Z<X##J.....;                                                             ",
"                                                                           >a........GxX@#XXXXXXXXXXXXXXXXXXXXX#XXXXXXXXXXXXXXXXXXXXXXXXX%I++++*n%X#y......6                                                            ",
"                                                                             ;.........cCy###XXXXXXXXXXXXXXXX#=yX##XXXXXXXXXXXXXXXXXXXXXXX%T*+++k=#X@x.....r                                                            ",
"                                                                            9 18..........KAy@##XXXXXXXXXXXX#yo$oh=#XXXXXXXXXXXXXXXXXXXXXX#<m*++*m%XX#J.....1                                                           ",
"                                                                       6w4ta5d5a............RSv=@#XXXXXXXXXX#hooo$op=#XXXXXXXXXXXXXXXXXXXXXX#M*++*@XX#p.....r                                                           ",
"                                                                     w8........................Rzo@@##XXXXXX#h$oooo$p#XXXXXXXXXXXXXXXXXXXXXX%T*++*m<XX@D.....>                                                          ",
"                                                                   w5.............................sBh@@#XXXX#=p$oooopXXXXXXXXXXXXXXXXXXXXXXXX<P*+++=#X#h.....-                                                          ",
"                                                                  2..................................Jxy@@#XX#Xypo$$h#XXXXXXXXXXXXXXXXXXXXXXX#V*++*l%XX@K....d                                                          ",
"                                                                6u......................................Sp@@#XXX#=hy#XXXXXXXXXXXXXXXXXXXXXXXXX<M++*P<XX#v.....w                                                         ",
"                                                               63........JHoy##hALN........s25............NH=@@XX###XXXXXXXXXXXXXXXXXXXXXXXXXX%l*+++I#XX#E....r                                                         ",
"                                                              95.......Bh@@##X###XXAb.......u1O2j............Lh@#XXXXXXXXXXXXXXXXXXXXXXXXXXXXX#I+++*l%XX#B.....                                                         ",
"                                                              f......Dy@###XXXXXXX###x.......sO 9,t............zh@#XXXXXXXXXXXXXXXXXXXXXXXXXXXX%M*+*Z%=X#p.....O                                                        ",
"                                                             g......H@###==#XXXXXXXXX@yJ.......g   9&u...........zy@#XXXXXXXXXXXXXXXXXXXXXXXXXX<m*++M<XXX=Y....;                                                        ",
"                                                            93.....x@XX=h$$h#XXXXXXXXX##C.......4     O2...........CX#XXXXXXXXXXXXXXXXXXXXXXXXX%l*+++%XXX@S....8                                                        ",
"                                                            7.....L@##yo$oo$=XXXXXXXXXX#@A.......q6     6;d.........Yh@XXXXXXXXXXXXXXXXXXXXXXXX%V*++*@#XX#x....5                                                        ",
"                                                            s....G###y$oooo$=XXXXXXXXXXX#@hc.......w       wu.........x@#XXXXXXXXXXXXXXXXXXXXXX#I+++*V#XX#p.....>                                                       ",
"                                                           ,.....v@X=oooo$oh#XXXXXXXXXXXXX#yb.......r6       e8........C@XXXXXXXXXXXXXXXXXXXXXX#=k++*n%XX#y.....O                                                       ",
"                                                           r....b###pooo$py#XXXXXXXXXXXXXX=#=S.......s;        ,........x@XXXXXXXXXXXXXXXXXXXXX=<Z**+@XXXX@c....,                                                       ",
"                                                           5....H@Xy$oo$pX#XXXXXXXXXXXXXXXXX#@H........s:6      w........y#XXXXXXXXXXXXXXXXXXXXXX%UU@%XXXX@b....;                                                       ",
"                                                          1.....h@#p$ooo=XXXXXXXXXXXXXXXXXXXXX@oN.........q:e>>>0........H@XXXXXXXXXXXXXXXXXXXXXX#%%XXXXXX@K....-                                                       ",
"                                                          e.....@#@ooo$h#XXXXXXXXXXXXXXXXXXXXXX@yz.......................z@XXXXXXXXXXXXXXXXXXXXXXXXXXXXXXX@S....4                                                       ",
"                                                          &....b@X=$oooyXXXXXXXXXXXXXXXXXXXXXXXX#@vG.....................C@XXXXXXXXXXXXXXXXXXXXXXXXXXXXXXX@z....2                                                       ",
"                                                          -....S@#y$oooX#XXXXXXXXXXXXXXXXXXXXXXXXX@@xY...................h#XXXXXXXXXXXXXXXXXXXXXXXX##XXXXX@z....4                                                       ",
"                                                          0....L@Xy$oop##XXXXXXXXXXXXXXXXXXXXXXXXXXX@XvD................v@XXXXXXXXXXXXXXXXXXXXXXXX#==#XXXX@D....0                                                       ",
"                                                          0....z@#y$oooX#XXXXXXXXXXXXXXXXXXXXXXXXXXXX###=ALG.........NCy@XXXXXXXXXXXXXXXXXXXXXXXX#h$$h#XXX@J....:                                                       ",
"                                                          :....D@#=$oooyXXXXXXXXXXXXXXXXXXXXXXXXXXXXXXXX#@X@@ypvvvvp=@X#XXXXXXXXXXXXXXXXXXXXXXXX#=$oooXXXX@G....g                                                       ",
"                                                          &....Y@XXooo$h#XXXXXXXXXXXXXXXXXXXXXXXXXXXXXXXXXXXX#####@@#XXXXXXXXXXXXXXXXXXXXXXXXXXX#y$ooo=XXX#R....e                                                       ",
"                                                          e.....@#@hoooh#XXXXXXXXXXXXXXXXXXXXXXXXXXXXXXXXXXXXXXXXXXXXXXXXXXXXXXXXXXXXXXXXXXXXXXXXy$oooXXX#h.....1                                                       ",
"                                                          >.....p##y$$$y#XXXXXXXXXXXXXXXXXXXXXXXXXXXXXXXXXXXXXXXXXXXXXXXXXXXXXXXXXXXXXXXXXXXXXXX#h$oop#XX#v....i6                                                       ",
"                                                           5....H#X#yhy#XXXXXXXXXXXXXXXXXXXXXXXXXXXXXXXXXXXXXXXXXXXXXXXXXXXXXXXXXXXXXXXXXXXXXXXX#poo$h#XX#C....u                                                        ",
"                                                           f....J@XX###XXXXXXXXXXXXXXXXXXXXXXXXXXXXXXXXXXXXXXXXXXXXXXXXXXXXXXXXXXXXXXXXXXXXXXXXX=ooo$yXXX@K....r                                                        ",
"                                                           ,.....p#XXXXXXXXXXXXXXXXXXXXXXXXXXXXXXXXXXXXXXXXXXXXXXXXXXXXXXXXXXXXXXXXXXXXXXXXXXXXXy$oo$=#XXy.....,                                                        ",
"                                                            .....L#=XXXXXXXXXXXXXXXXXXXXXXXXXXXXXXXXXXXXXXXXXXXXXXXXXXXXXXXXXXXXXXXXXXXXXXXXXXX#pooop#XX@v.....6                                                        ",
"                                                            r.....y#XXXXXX=#X#XXXXXXXXXXXXXXXXXXXXXXXXXXXXXXXXXXXXXXXXXXXXXXXXXXXXXXXXXXXXXXXXXy$oo$h#XXXS....5                                                         ",
"                                                            1.....z@XXXXXXXyyXXXXXXXXXXXXXXXXXXXXXXXXXXXXXXXXXXXXXXXXXXXXXXXXXXXXXXXXXXXXXXXXXXooooo=XX#y.....;                                                         ",
"                                                             t.....h#XXXXXp$$p=#XXXXXXXXXXXXXXXXXXXXXXXXXXXXXXXXXXXXXXXXXXXXXXXXXXXXXXXXXXXX#yp$oo$h#XX@H.....>                                                         ",
"                                                             O.....J##XX==$oo$pX#XXXXXXXXXXXXXXXXXXXXXXXXXXXXXXXXXXXXXXXXXXXXXXXXXXXXXXXXXXXy$ooooo=XXX#c....8                                                          ",
"                                                              f.....H@XXX=oooo$p=XXXXXXXXXXXXXXXXXXXXXXXXXXXXXXXXXXXXXXXXXXXXXXXXXXXXXXXXXX#poooo$=#XXXx.....,                                                          ",
"                                                              6......h#XX#yoooo$py#XXXXXXXXXXXXXXXXXXXXXXXXXXXXXXXXXXXXXXXXXXXXXXXXXXXXXXXX#p$o$py#XX#=N....5                                                           ",
"                                                               ;.....NX#XX#yooooooy#XXXXXXXXXXXXXXXXXXXXXXXXXXXXXXXXXXXXXXXXXXXXXXXXXXXXXXX#=poh=XXX#@C.....&                                                           ",
"                                                                a.....K##XX#yo$ooo$hX#XXXXXXXXXXXXXXXXXXXXXXXXXXXXXXXXXXXXXXXXXXXXXXXXXXXXXX#X##XXXX#h.....i                                                            ",
"                                                                >......z@#XX#=poooo$py#XXXXXXXXXXXXXXXXXXXXXXXXXXXXXXXXXXXXXXXXXXXXXXXXXXXXXXXXXXXX#@J.....,                                                            ",
"                                                                 ,......L@=XXX=p$oooooh#XXXXXXXXXXXXXXXXXXXXXXXXXXXXXXXXXXXXXXXXXXXXXXXXXXXXXXXXXXX@H.....q                                                             ",
"                                                                  -......L@#XX=#h$oooo$py##XXXXXXXXXXXXXXXXXXXXXXXXXXXXXXXXXXXXXXXXXXXXXXXXXXXXXXX#o......1                                                             ",
"                                                                   r......S##XX##yo$oooo$py##XXXXXXXXXXXXXXXXXXXXXXXXXXXXXXXXXXXXXXXXXXXXXXXXXXXX#yR.....7                                                              ",
"                                                                    t......J=@XXXX=p$oooooopy##XXXXXXXXXXXXXXXXXXXXXXXXXXXXXXXXXXXXXXXXXXXXXXXXX#XG.....a                                                               ",
"                                                                     8......ch@#XX##yo$oooo$$py###XXXXXXXXXXXXXXXXXXXXXXXXXXXXX#####XXXXXXXXXXX#=J......6                                                               ",
"                                                                      t.......H#@XXXX#ho$ooooo$$hyX@##XXXXXXXXXXXXXXXXXXXXX###Xyhpp=#XXXXXXXXX@=J......e                                                                ",
"                                                                       2.......Kh@XXX##=ho$oooooo$ohyy=####XXXXX##XXXX####X=yhp$$o$pXXXXXXXXX@yY......g                                                                 ",
"                                                                        ;........C@##XX##=ho$ooooooo$oophyy=X########=yyhppo$ooooooo=XXXXXXX@pc......:                                                                  ",
"                                                                         ws.......Nv@#XXXX#Xypo$ooooo$oo$$$$$$oooooo$$$$$oooooooo$$h#XXXXX#@H.......-                                                                   ",
"                                                                          >8........J$@#XXXX##yhp$$ooooooooooooooooooooooooooo$$ohy##XXXX@yD.......7                                                                    ",
"                                                                            7.........Jv@X##XX##Xyhpo$$$oooooooooooooooooo$$$phyX#XXXXX#@H........g                                                                     ",
"                                                                             >q.........cxy@#XXXX##@@yyhpooo$o$$$$$$$ooopphy=##XXXXXX##vN.......se                                                                      ",
"                                                                               gi..........Svy@##XXXX#X###==yyyyyyyyyy=X####XXXXXX#@=Ab........q>                                                                       ",
"                                                                                97...........cSv=@@###=XXXX#XXX###X##X#XXXXXX###@@hBE.........-                                                                         ",
"                                                                                  90s............bCvyX@@####XXXXXXXXXXXX####@#=pCY..........a1                                                                          ",
"                                                                                    67d..............bzCvhh=@@@@@@@@@@@@=yhALDR...........i&                                                                            ",
"                                                                                      9,8..................EbJKSzzzzSDJbG................79                                                                             ",
"                                                                                         >75..........................................F;                                                                                ",
"                                                                                            O7q....................................3fe                                                                                  ",
"                                                                                               >,4u.............................d2w6                                                                                    ",
"                                                                                                    e&2us..................sq-g6                                                                                        ",
"                                                                                                         6Ow,&:02rr24-&,wO6                                                                                             ",
"                                                                                                                                                                                                                        ",
"                                                                                                                                                                                                                        ",
"                                                                                                                                                                                                                        ",
"                                                                                                                                                                                                                        ",
"                                                                                                                                                                                                                        ",
"                                                                                                                                                                                                                        ",
"                                                                                                                                                                                                                        ",
"                                                                                                                                                                                                                        ",
"                                                                                                                                                                                                                        ",
"                                                                                                                                                                                                                        ",
"                                                                                                                                                                                                                        ",
"                                                                                                                                                                                                                        ",
"                                                                                                                                                                                                                        ",
"                                                                                                                                                                                                                        ",
"                                                                                                                                                                                                                        ",
"                                                                                                                                                                                                                        ",
"                                                                                                                                                                                                                        ",
"                                                                                                                                                                                                                        ",
"                                                                                                                                                                                                                        ",
"                                                                                                                                                                                                                        ",
"                                                                                                                                                                                                                        ",
"                                                                                                                                                                                                                        ",
"                                                                                                                                                                                                                        ",
"                                                                                                                                                                                                                        ",
"                                                                                                                                                                                                                        ",
"                                                                                                                                                                                                                        ",
"                                                                                                                                                                                                                        ",
"                                                                                                                                                                                                                        ",
"                                                                                                                                                                                                                        ",
"                                                                                                                                                                                                                        ",
"                                                                                                                                                                                                                        ",
"                                                                                                                                                                                                                        ",
"                                                                                                                                                                                                                        ",
"                                                                                                                                                                                                                        ",
"OOOOOOOOOOOOOOOOOOOOOOOOOOOOOOOOOOOOOOOOOOOOOOOOOOOOOOOOOOOOOOOOOOOOOOOOOOOOOOOOOOOOOOOOOOOOOOOOOOOOOOOOOOOOOOOOOOOOOOOOOOOOOOOOOOOOOOOOOOOOOOOOOOOOOOOOOOOOOOOOOOOOOOOOOOOOOOOOOOOOOOOOOOOOOOOOOOOOOOOOOOOOOOOOOOOOOOOO",
"........................................................................................................................................................................................................................",
"........................................................................................................................................................................................................................",
"........................................................................................................................................................................................................................",
"........................................................................................................................................................................................................................",
"........................................................................................................................................................................................................................",
".....d7..5:........F........i&,q.d.........50...........................................................................................................................................................................",
"......>..;2.5...5..1i.sd.ss.,fu>swu.sd...5.ug.Fs..........................................................................................................................................i.............................",
"......;2.15,7g3O&,t94te,78>7g&u.t>-8egg.e&wa&tg..................................................................................................0u.;.s.3.8a.i..5&&ur.j..i.7.s..3.ss.s.3.32;;q.&q07f;-:;q:;a-&q4;f......",
"......5wug&g7w;f.8.O.>..1t&..rgO.,.wi.,:2.qq1e....................................................................................................7tt;;t7-770:rer-qtef:-4:t7-F.;7a&7::,7rta&4q8:q-22s:--q:0t-.&:jg......",
".......,gq;r.f-4.r.1.Os.1t:.e..OF,.,u.e0-.f8wgt...................................................................................................;:q7f&jFra:.&-554r4;.-;.uw7.s7.r8tgs;.;4.q.:&;4&i;s&-5&-5;-.;t8&......",
".......46.iwe7.,w&.wgueert:.t1O&.,gFee4.,wgug.O3..................................................................................................80.-0i:4u0t:ar37:F7u:r8:qrttt2:i:0fj4.02.4:u.qa2-tsr-:u-:u27Ff:a......",
"........................................................................................................................................................................................dq..............................",
"........................................................................................................................................................................................................................",
"........................................................................................................................................................................................................................",
"........................................................................................................................................................................................................................",
"........................................................................................................................................................................................................................",
"........................................................................................................................................................................................................................"
};
