/* XPM */
static char *_32a23e4786e4375dd756d02e270af1akmnCbCe4gMD2AY5y[] = {
/* columns rows colors chars-per-pixel */
"96 144 256 2 ",
"   c black",
".  c white",
"X  c #600818",
"o  c #ED2D53",
"O  c #CE2F52",
"+  c #480818",
"@  c #B03151",
"#  c #EE4E75",
"$  c #F47090",
"%  c #AD0D38",
"&  c #8C1033",
"*  c #72132F",
"=  c #8F2F4C",
"-  c #D34D74",
";  c #EE0D53",
":  c #B1516F",
">  c #380818",
",  c #EE3172",
"<  c #D16E8F",
"1  c #CE0F53",
"2  c #ED518B",
"3  c #570F2C",
"4  c #D13372",
"5  c #B00D52",
"6  c #F58EBB",
"7  c #F20A73",
"8  c #F1348B",
"9  c #D34C8A",
"0  c #910E4D",
"q  c #E8187E",
"w  c #E5B4CC",
"e  c #D20C6F",
"r  c #F81888",
"t  c #280818",
"y  c #F80888",
"u  c #B32E73",
"i  c #D4589A",
"p  c #F16BB1",
"a  c #B50F6C",
"s  c #CE368A",
"d  c #F555AD",
"f  c #AD6E90",
"g  c #CB91B1",
"h  c #E80888",
"j  c #F81B98",
"k  c #F80898",
"l  c #8C4F74",
"z  c #D80C8A",
"x  c #F828A8",
"c  c #6F164D",
"v  c #932F6D",
"b  c #E80898",
"n  c #E5189B",
"m  c #D074B0",
"M  c #F508A9",
"N  c #B53C8C",
"B  c #36122A",
"V  c #88136D",
"C  c #B08EAA",
"Z  c #180818",
"A  c #EED5EE",
"S  c #F8E8F8",
"D  c #C8C7C8",
"F  c #DAC8DE",
"G  c #7B7595",
"H  c #181528",
"J  c #B6B3C8",
"K  c #080818",
"L  c #E8E8F8",
"P  c #C4C8DC",
"I  c #CDD7EE",
"U  c #3C4347",
"Y  c #081818",
"T  c #C3D9D9",
"R  c #E7F8F8",
"E  c #D4EBEA",
"W  c #96ACAA",
"Q  c #B5CDC9",
"!  c #78968D",
"~  c #0D2818",
"^  c #D0E9D5",
"/  c #081808",
"(  c #B4CCB4",
")  c #C8D8C8",
"_  c #E8F8E8",
"`  c #97A893",
"'  c #C8EBB8",
"]  c #2C461C",
"[  c #ADD86D",
"{  c #91928F",
"}  c #B1B2AF",
"|  c #7B7E74",
" . c #181808",
".. c #D8D8C8",
"X. c #F8F8E8",
"o. c #CFC88B",
"O. c #F8EC90",
"+. c #F5EBB4",
"@. c #E4D9A2",
"#. c #B1AC95",
"$. c #F0EBD4",
"%. c #C8A611",
"&. c #F8CA16",
"*. c #D1CBB4",
"=. c #D6AF2F",
"-. c #B18D2A",
";. c #D0B053",
":. c #F4CF66",
">. c #4F4C44",
",. c #F5AF11",
"<. c #956A10",
"1. c #F4B02E",
"2. c #E8D8B8",
"3. c #D39011",
"4. c #E4B866",
"5. c #362913",
"6. c #AF8C52",
"7. c #E5BC78",
"8. c #EC940F",
"9. c #B3710D",
"0. c #946C33",
"q. c #CFAA72",
"w. c #F8D8A8",
"e. c #D28D30",
"r. c #F3AF4F",
"t. c #F6CB92",
"y. c #ED952E",
"u. c #F8B868",
"i. c #E8BD88",
"p. c #653908",
"a. c #CD7511",
"s. c #281908",
"d. c #DD9848",
"f. c #F8BB78",
"g. c #AA8F70",
"h. c #784108",
"j. c #B16C28",
"k. c #E8A868",
"l. c #E8C8A8",
"z. c #F8D8B8",
"x. c #D1AF90",
"c. c #914D14",
"v. c #F89848",
"b. c #D18C53",
"n. c #926E50",
"m. c #E87318",
"M. c #B26C38",
"N. c #E89858",
"B. c #F8A868",
"V. c #E8A878",
"C. c #F8B888",
"Z. c #6B625B",
"A. c #683918",
"S. c #E88846",
"D. c #F89858",
"F. c #E8B898",
"G. c #F8C8A8",
"H. c #AE4F15",
"J. c #734E36",
"K. c #D0936D",
"L. c #CC5814",
"P. c #783C18",
"I. c #532B13",
"U. c #A85828",
"Y. c #CF6E35",
"T. c #924E28",
"R. c #F88845",
"E. c #C87848",
"W. c #B1714D",
"Q. c #E89868",
"!. c #F8A878",
"~. c #682808",
"^. c #381808",
"/. c #B85828",
"(. c #D87848",
"). c #E88858",
"_. c #F89868",
"`. c #E8A888",
"'. c #F8B898",
"]. c #E96F37",
"[. c #A85838",
"{. c #F88858",
"}. c #915238",
"|. c #C87858",
" X c #E89878",
".X c #F8A888",
"XX c #E8C6B8",
"oX c #7F2808",
"OX c #8F3413",
"+X c #EC7548",
"@X c #CDB6AD",
"#X c #EFD8D0",
"$X c #481808",
"%X c #A84828",
"&X c #B85838",
"*X c #C86848",
"=X c #D87858",
"-X c #E88868",
";X c #F89878",
":X c #F8C8B9",
">X c #AA3513",
",X c #BB4828",
"<X c #CD5733",
"1X c #D86848",
"2X c #F88868",
"3X c #AE968F",
"4X c #581808",
"5X c #682818",
"6X c #ED7658",
"7X c #51332C",
"8X c #F7B8A9",
"9X c #91756E",
"0X c #782818",
"qX c #F8A898",
"wX c #342F2E",
"eX c #A84838",
"rX c #E38878",
"tX c #E8A89D",
"yX c #CD968C",
"uX c #BB4838",
"iX c #C8685A",
"pX c #F88878",
"aX c #F04834",
"sX c #8F352B",
"dX c #D8685C",
"fX c #6D160D",
"gX c #CB3326",
"hX c #AF544C",
"jX c #93524C",
"kX c #D0776F",
"lX c #F2938A",
"zX c #B81308",
"xX c #8E150C",
"cX c #CD544E",
"vX c #72302C",
"bX c #AE716D",
"nX c #AE342F",
"mX c #580808",
"MX c #480808",
"NX c #380808",
"BX c #280808",
"VX c #581818",
"CX c #F15250",
"ZX c #481818",
"AX c #180808",
"SX c #381818",
"DX c #F3716F",
"FX c #281818",
"GX c #DCC8C8",
"HX c #F8E8E8",
"JX c #F8F8F8",
"KX c gray91",
"LX c #D8D8D8",
"PX c #181818",
"IX c gray3",
"UX c black",
/* pixels */
"( D P D Q D T ( Q P ) P P T T P R R $.3X>.Z.>.0.7XSXAXwX. R ! | { >.U wXFXH wXPX~ 5.7XZXFXwXB BXwX^.p.W.M.vXB ~  .SXI.0.K s.jXyXQ.V.b.K.rXiX[.n.J.P.5XbXG.D Q F w D D *.Q D D J ( J ( } } } } } ",
"T P D #XF P P I T D LXD ..T Q X.JXJX. JX. X.. S >.AXIXD . . JXHXJXX.X.GX   .SXt AX5X7XAX .4X/ Z s.5.}.b.h. .^.SXFX .T.W.IXAXAXI.9XK.F.x.o.q.6.6.n.6.J.$X}.@XGX..^ ^ ( ) D LXGXLX#X^ E KXLXLXLXLX",
"F t.%.8.f.y.3.w t.8.-.y.8.u.1.3.E.8.8.6.HXr.8.t.3X8.W.+.8.F.,.K.,.,.:.:.BX=.8.j.8.8.j. .3 r 3 FXvXe q uX$X+ s.1 * 7XO O AXZ   * & BX* J.6.kX, # 1 hX0.6.J.[.#.p q m R ^ ^ ^ ^ E E < m E E E ..GX",
"( F j.3.<.,.3.} w.,.0.e.8.<.8.3.|.1.9.n.JX1.8.-.w.,.r.f.,.3.8.j.,.a.j.8.BX1.3.h.v.,.H.AX5 k a p.@ y 5 5 1 5 1 a 0 7 7 5 e 5 FX; 7 0 5 1 c.7 y 1 e q cXr o U.cX1 5 e < 7 w 7 8 w r 7 e 8 4 w T ^ ",
"I l.&.a.K.8.8.n.2.3.n.r.y.E.1.3.K.:.3.g.JXr.8.y.y.8.,.r.a.,.m.E.,.0.f 1.h.,.m.<.m.,.,.~.e h r P.o 7 ; e e e 7 1 7 7 e 7 y ; ] 7 e e e 7 n.$ e , 7 e 1 y h sX@ ; y 7 e a a 1 e e a e e z 1 f _ GX",
"D *.0.0.g.;.<.G KX0.( *.;.n.<.9.n.r.-.g.HX:.9.J.6.J.c.<.n.6.g.6.-.#.JXt.<.9.9.<.a.9.p.vX0 & % sX(.1 5 & * e % & sXa 5 * 5 xX~.5X5 & 1 & ~.uX5 1 5 5 : 4 % p.bX, 5 5 N e : q % l e a a e 5 l ^ LX",
"*.P P D P F P LXP Q P I @XJ.[.J.>.U >.Z.. R R . JXwX7XT.J.= >.W X.R . . AXNXNX= bXJ.$X&XT.U.-.W.h.4X+ MXNXAX$X&XT. .  t BX>.I.AXBXAXBXAXAX  AXBX+ J.6.l.q.q.K.M.p.p.K.#.R GX@XKX) } Q T #.LXLX) ",
"D ..) D T Q Q D *.E ..F sXJ.Y.%X~.J.jXT.:X. JXJX#X/ }.dXj.E.Z Z.. JXJXJXSX}.o.8X*.F.[./.0.E.E.U.yXl.#.D n.Z.0.H.~.s.9XS $.JXHXKXJX#.BXAXZ 7X} JX$.2.W.OXK.qX2.F.iXn.' JXJXR R JXKX#X#X^ E ..LXLX",
"D D D D KXKXKXJXJXJX_ JXn.T.H.T.J.[.b.}.GXJXJXJX) $Xb.E.K.J.P.W.. JXX.JX}.. . JXJXJXJXXXW.y.M.XXR JXX.X.. JXJX*.BX}.JX. JX. JXJXJXJX7X^.@XJX. . . . . jXT./.M.K.#X. JXJX. S . JXJX. KX) ..LXLXGX",
"D D ) KXJXJX. R JX. JXJXX.F.c.T.}.M.(.0.GX. X.. #.5Xb.K.*XW.K.bXR JXJX_ g.. JXJXL R JXX.XX(.x.JX. JXS . JXJX. KXNXjXX.. JXJXJX. . X.#.#XJX. JXJXJXJXJXHXK.kXbXXX. _ JXR JXJXJX. . JX. JXLXGXLXLX",
"D D R . JXJXJXJXJXJXX.JX. X.3XA.0.b.E.}.#XJXJX. Z.T.b.b.|.x.}.9XJXJXJXL yX. JXX.JXR $.. } U.X.JXJX. . R R X.. JX7X|.$.JX_ JX_ L JXJXJX. JX. . JX. R . X.x.@XJXJXJXJXJX. R JX. R . JXJXJXJXD LXD ",
"J R JX. . . KX. JXJX. JXR . KX~.M.).M.c.XX. R JX9XW.Q.K..Xg.~.J.. R . . V.HXJXJXJXR JXJX{ W.k.#XJX. JX. JXJX. X.n.|.0.3X{ :X. . JXR JXJX. JXKX. L . . JX>.3XX.. JX. . . >.>.} _ JXJXR R . } LXLX",
"D X.. JXJXKX>.| J } ..X.R JX. J.N.b.T.c.*.R JX. Z.|.i.C. Xn.P.W.JX. JXKXb.q.@X#X. R . JX7X|.S.}.7X7X9X#X. JX. _ A.E.U.5XNXP.HX. JXJXR . JXZ.| JX. R . . Z.@XX.. JXR R ` }.P.~.J...R R JX. ( } LX",
"D JXJXJX. . | W Z.5.7X9X. R . Z.b.Y.[.W.z.. R . | K.'.`.W.n.[.q.. . X.LXN.F.n.Z.JX. JXX.J.Q.k.N.b.U.n.LXJXJXJXJXJ.Y.H.%X%X&XHX. JX. . . Z.AX#X. . JXJXJXD KX. JX. *.^.NXt.v.j.T.x.. . JX. KX{ KX",
") KX. JXJX. Z.LXx.6.W.g.. JX. | (.M.0.E.G.. JXJX*.yXw.q.W.6.|.K.JX. . . k.w.'.q.X.JXJX. GX!.k.b.(.).'.JXJX_ . JXA.*XH.,XY.6XHXR . X.. GXBXF.z.JX. JX. X.JXJX. JXS J.MX[.W.b.b.P.3X. . JXJXJX{ LX",
"D LXE . . ) H D M.M.|.yXJXR JXZ.E.Y.|.N.F.JXJXJX) jXw.bXK.g.W.q.R R JXJXk.z.k.`.X.R JXR *.M.b.K.`.Q.Q.$.. R . R I.b././.].).. R X.JXE FXg.G.8XGXKX. JX>.D . R JX. KXKXX.HX@XXXX.. R JXX.. . | D ",
"Q ) { U >.  | *.g.*.X.. . JX. { [.M.Q.b.l.. JX. | n.C.|.q.|.g.yXX.JX. JXi.t.Q.i.. R JX. 5.T.k.t.V.k.!.X.. JX. { P.).Y.,X6X XX.. . . 5.}.z.G.G.`.n.Z.BXI.$.. . . . JX. JXJXJX. JX. . . JXJX. >.) ",
"D ( LX} J ..X.X.JXJXJX. R JX. J.U.b.B.(.l.. . JX) g.`.K.x.K.g.F.JXJXR JXG.t.Q.G.. R . JXZ.b.'.t.k.B.K.HX. R JX| [.(.<X1X2X.XJXS . JXZ.G.:XG.i.G.8Xx.kXtXX.JXJXR . JX. . JX. JX. R R . . . R U KX",
"D D LX. . . R . JXR . . R . R J.E.b.B.b.z.. R JXQ n.K.x.yXK.x.l.. JXJX. `.7.f.w.. R JX. #.V.G.C.B.B.K.HX. JX. ` kX+XY.+X.X'.HX. . R n.w.8X'.G.'.qXG.8X'.X.. JX_ . . R R JXJX. . R JXJXHXJX>.Z.KX",
"D D LX. . . R . JXR . . R . R J.E.b.B.b.z.. R JXQ n.K.x.yXK.x.l.. JXJX. `.7.f.w.. R JX. #.V.G.C.B.B.K.HX. JX. ` kX+XY.+X.X'.HX. . R n.w.8X'.G.'.qXG.8X'.X.. JX_ . . R R JXJX. . R JXJXHXJX>.Z.KX",
"} LX. . JXJX. JXR . JX*.JX. . 7XE.u.!.K.2.JXR . T J.yX`.q.`.F.XXX.JXR . i.i.G.G.JXR X.. { 6.z.C.f.S.F.JX. X.. #.[.<X+X2X.X'.X.. . JXZ.G.8X8XG.C..X'.C.qX$.. JX. JX#.Z.9XZ.PXB >.Z.7XBXI.AXwXLXLX",
"D . . JX. . T U >.J.s.s.JXJXR A.b.!.k.k.2.. JX. ^ J..Xi.K.F.'.z.JXJXJX. K.w.G.w.X.. . . Z.yXz.C.B.K.$.JXJXJXJX} c.+X{.;X'.8X. R JXL J.'.'.8XC.C.'..X.X.Xz.. S JXJX9X5XOXBX  IXBX[.W.6.n.>.#.KX) ",
"LXJX. . JX>.IXJ.W.n.6.x.. . R }.B.u.).k.z.. X.. #.A.'.K.g.l.G.XX. JX. JXK.+.G.2.JX. X.. Z.x.w.C.Q.:XX.JX. JX. #.0X2X2X.X'.G.JXJX. LXJ.G.8X8X'.C.'.'.C..Xl.R . JXJX*.iX6XvXAX .MXOX.X$.X.JXHXD LX",
"LX. R JX#.s.n.q.b.W.l.X.JX. LX5. X7.Q.K.*.JXJXJX#.jX.X6.g.XXl.XX. JXJX. i.w.l.z.X.. X.. } F.t.C.tXX.. X.JXJXJX{ sX{.2XqX8XG.. R . LXZ.G.'.8XC.C.'.qXC..X`.#X. R . HXyX-X>XNX .AX$Xz.JX. . X.| LX",
"^ JX. R JX*.0.E.M.q.$.. JX. ..| X.$.$.2.JXJXR . ) g.8XXXX.X.HXX.JXJXX.. G.+.z.$.KXJXX.. . $.C.!.$.. . X.JXR . *.K..X;XqX8X:XJXJX. . @XC.qXqX.X.XqX'..X.X`.qXX.JX. . _ X.L.MX  t @XJXJXJXJXKX>.$.",
") R . JXJXJX) LX$._ JXJX. _ JX. S X.JXR . JXR R JX. . JXR . R _ . JX. _ . JX. X.S JXJXR JXJXJXJX. . JXJXJXJXJX. X.JX#X#XJX. X.JXJXJXJXJXX.X.X.:X.X.X.X.X.XlX:XX.. R . JXX.@X#.LXJX. R JXJX{ 5.$.",
"( R . JX. JX. . . R R . JXR . _ F ) ( ) S } @XGX..E E ^ ) KX^ I LX^ Q T D ^ . JX_ ` . . JXJXJXR . R . . JXJX. JXJX. . JX. JX. . JX. . . . JXJX$.yXC..X'..XlXG.X.R E F LXLX. KXKXLXD LX. JXBX^.2.",
"^ f d d A JX6 p p JX. . Z.X.. JX. JXJXJXR _ JX. w p 6 A JXJX. JX6 6 #XR JXJXR R ' 7XHXS . . JX. JX. JXW . X.JXJXJX_ LXJXJX. . JX. . . . . R . #.J.'.'.!..X;X XyX*.HXJXR KXJXL L L . HX9Xs.J.I.yX",
"Q p 7 y 0 R 8 k 7 l R >.A.x.@X^ w j k p LX. KXE 6 y k c T D } @Xk y a T LXJXLX} 7X9X, x i E . R . KX5.^.g.g.GX. JX|   } D LXLXKX. JXJX_ _ L @XBXK..X!..X.X.X.X XhXJ.9XJXJX. JX. . `  .5.6.V.0.n.",
") p y k 0 Z.h k h ZXI.p.t.B.n.7XvXh M & ] I.FX] 5 k y * ] ] J.}.7 k 0 ] >.J.^.>.n.#X7 y 5 ] >.5.>.BXJ.G.|.T.5XJ.5.s.XX#XFXJ.7X>.J.7X5.5.I.5.$XW.`.C.!..X;X;X!.;X;X2X*XbX9X>.>.Z.^.BXn.|.i.|.E.}.",
"' p y M 0 g.q M k P.r.u.r.f.@.O.!.7 M & e.t.7.C.2 y y & +.w.t.C.W.J.7X@.:.t.z.$.+.$.7 y % o.z.x.x. X'.;X<X{..X'.x.G.z.#Xz.z.:XG.8X`.`.'.'.C.'.C.C.!.;X!.!.;X;X_.;X2X_._.P.sXP.MXNX[.b.E.K.b.E.0.",
"^ m y M 0 [ r M y J.;.f.qX'.@.t.$ y y c W.C._.4.# y k & @.f.C.o.w.X.+.O.'.z.X.+.+.#X7 y 0 } w.G.`.K.C.(.1X{.;X'.'.z.:X:X:XG.G.8X'.'.'..X.XC.!..X!.!..X;X;X!.;X;X2XQ._.{.2X6X*XfX4XP.M.E.|.E.|.6.",
"' p 7 M * [ , k y P.f.$ y ; qX_.y k y k q yXq.V.- k k c @.C.C.qXr y # t.q k q qXG., k k h 7 K.G.K..XQ.&X{.2X.X'.8X:X:XG.G.G.G.'.'.'.'..X.X.X.X!.C..X!.!..X!.Q.;X;XpXpX-XS.(.*X~.4XoXW.E.W.|.M.W.",
"' p k h a $ n y y T.$ r % M k 9 ; M k 7 1 vXB.q.# y M 0 i.t.C.!.k k 5 kXk 7 k y $ e M 7 y y VXtXlX.X<X].6X;X'.'.G.G.G.8X:X:X8X8X8X'.C..XC..X.X.X.X!..X;X;X;X_._._.2X_._.-X(.*XsXNXvX[.6.E.W.W.W.",
"' p y k y q y y y J., y jXk y @ iXk k 5 vXjX;.K., y k & o.t.C.V.y k & kX5 >.# ; & kXy y e 7XvX|.'.(.<X6X;X.X8X:X:X:X:Xz.:X:X8XG.'.'.'.C..X.X.X!.!.;X!.;X!.;X;X_._.;X2X-X2X(.Y.T.BX5X%Xb.M.E.M.0.",
"^ i y k k 7 k k h }.7 k g.j y a g.y k 0 q.!.K.;.# y b = t.t.7. Xy y 5 : e o.w.vXJ.w.7 M 5 o.K.!.b./.Y.-X.X8X8X:X:Xz.:X:XG.:XG.G.G.'.'..X!.C..X.X;X!.;X;X;X;X_._.2X_.;X_.).+X<XU.BX5XOXY.M.M.W.[.",
"*.p y y a & h y y = y k q.j k e 0.7 M 0 q.{.b.b.2 y y & i.f.k.B.7 k 0 yXy r lX$.' +.y y 5 0._.!.H.<X+X;X.X.X.X;XpX-X-X;X'.'.8X'.'.'.C.C.C..X!.;X!.;X;X;X_._._.;X_.2X_.2XS.+X1X&XMXI.0XM.E.M.W.}.",
"( p k k c n., k y sXh M ;.r y e jXk k 0 6.E.|.;.2 y y & 7.k.k.b.y M 0 o.y 7 7 $ +.+.k y 0 0.C./.,X1X{._.;XdX<X<X<X<X,X<X2XrX;XqXqX'..X.X!..X!.;X;X_.;XB.;X_.;X;X_.2X-X-X).1XuXeXMX$XI.[.E.T.W.}.",
"' $ b k & 6., k y = y k q.r k e jXn y % K.b.|.k.# y k & q._.E.<Xk M 0 [ - 7 y y kXX.y y a K.-X>X<X+X{.6X1X<X<X&X*X&XOXfXfX>XuX1X6X-X.X.X!.;X;X;X_.;X_.;X_._._._._.2X{.-X1XuXP.ZXBXs.$XsXM.c.W.T.",
"( i k k * 6.; k 7 sXy k q.j y 5 n.k M % W.6.|.4.2 y k & K.).Y..Xy k 5 o.:XpX7 k 5 o.y k 0 6.OX,X1X6X1X*X*X-XqXqX8X8X`.kXoXxXfXxXOX>X1X2X;X_._._.;X_._._._.2X_._.2X).).6XeX5XBX  NXBX^.OXM.oXW.}.",
"*.$ y k c 6.r M h jXj k o.h k & *Xy M % 6.6.b.i.2 y k 0 M./.N.8X7 y 5 - - ' d y ; | y y e 5.>X,X<X<XU.K.`.8X#X:X:Xz.G.G..X-X&X&X%X>X%XuX6X2X2X_._._._._._._.2X).).6X=XY.$XAX  AXvX$X$XfXM.~.[.0.",
"*.2 k k 0 3X; k y }.rXy r y b MX$ 7 k M k hXE.C.# y k y k k y hXk k % bXy $ r 7 c bXr y h 7 & cX,X&XlX:X:X:X:X:X8X8XqX'..X!..X;X2X6X1X*X1X6X{.2X2X_._._.;X_.2X-X+X(.<XsXAXAXMXoX[.5XVX$XT.P.P.[.",
"*.d z y & g.o k k sX+., M h X h.V., y k h * b.;X# y y y k k 7 5Xk k 0 XX7 7 k a > g.8 7 M k fX,X1X_.8X8XG.G.'.8X'..X;X;X;X2X{.2X-X-X).6X(.{.{.2X_.2X;X_._.{.).+X1X,X~.NXAX+ sX&XeXfXVX0X5XT.~.[.",
"( @XZ.c J.g.hXVXvX0.O.V.7X3 n.k.b.;X@ * X $XK.7.W.& * vXvX* 3 [.cX* VXl.: & 3 J.q.4._.% & 3 mX&X).;XC.8XqX.X!._._.2X{.6X6X{.+X].(.+X+X).{.6X2X2X_.B.;X;X_.{.+X].<XsXNXAXt FXZX$X$XNXVX~.4XJ.$X}.",
"#.*.@Xx.x.q.q.F.k.Q.C.f.f.-Xw.z.K.4.f.j.M.Q.N.9.E.N.b.d.d.d.e.K.f.t.w.w.w.*.+.7.k.N.j.b.iX~.%X=X-X_..XlX.X;X_.1X&X%XOXOXsXnXuX1X+X].].+X6X2X_.;X!.!.!._._.).].<XOXNXZ IX  IXIX  IXIXI.P.MXP.5XP.",
"@X@X@Xx.#.XX*.#XtX Xt.x.'.-XX.} g.q.B.).Q.Q.W.).).).b.b.).).-X.Xi.t.i.G.z.+..Xb.Q.sXT.;X=X>X&X1X).2X2XpX6X&X0X0X4XMX$X$XNXBX$X0XeX1X].1X+X2X;X!..X.X!.;X_.{.1Xc.$X      BXIX      AX$XT.^.4XA.A.",
"@Xx.x.x.K.HX3XD I ( *.*.3XW.X.#Xf ..XX*.....$.A *...KX..*.XXLX:X_ ` x.w.z.`.hX X0.VX%XlX*X&X,X(.6X=XdX*XsXmXVXJ.J.7X7XZ   / AXNXfXuX*XY.+X_.;X.X.X.X.X!.;X{.*X5XBXY IXBXg.VXAXIX  IX4XOX$XMXA.I.",
"#.@X@Xo.q.$.} $.@X*...w c._.GX) HXLXJ D LX@X( P D @XD J D LXJ } *.bX@.w.-X<XK.T.H.fX*X XE.eX,X*X*X1X=XT.MX7XJ.B t     FXZ.SXBXNX4XOX&X1X{._.!..XC.'.C.!.;XD.*XNX  Z   BXtXJ.AX    IXVXOXI.$X5XvX",
"*.@X*.x. X@XLX( 9XT T C 6.C.KX$.9X) @X#.( 3X} ( #.#.*.} #...} C *.x.z.8XE.6.}.MX[.4XjX'.e.T.%XM.E.E.*XvXBXPXAXIXZ.| IXs.$.qXeXfXmX0XeX+X2X!.!..X'.'.'..X!.v.*XBXIXZ BXJ. X}.^.IX  AX5XOX5X4X$XP.",
"@X@X*.l.i.i.x.3Xi.q.K.q.V.V.k.j.<.6.g.n.U.U.U.U.j.M.j.0.q.6.M.q.K.t..Xq.6.}.vXP.K.+ kXk.S.%X[.*X1X(.[.NXAXPXs.AXFXIXAX7XHX:XrXeX>X>X-X.X`.'.qXC.C.'.'.'..XB.E.BXBX+ VXhXjX5XZXAXIXt ~.H.~.$X~.J.",
"@X@X@Xq.q.`.F.l.V.i.V.V.M.Q.k.|.hXz.*.x.6.Q.|.E.|.|.(.C.tXg.C.@.z.x.x.w.#.g @X| 3X3XXXV.M.&X&X1X*X1X&XfX4XvX}.jXjXvX5XhX'.iX&X,X<X6X'.8X8XG.'.C.C.G.G.'.'.B.b.$XNXVXMX4XNXNX$XBXIXs.4X,XfX$X~.5X",
"@X@Xx.q.K.b.K.K.b.Q.K. XW.Q.Q.|.K.:XHX3Xl.x.GX#X*.*.@XD } KX..*.} #X*...3XJXLX5.( KXGXK.Q.<X*X-X2X;X!.-X|.=XiXrX-XkXuXeXoXsX>X,X1X-X.X'.G.:XG.'.'.G.G.G.G.!.Q.0X~.sXT.eXT.sX~.^.AXSX4XH.~.NX~.I.",
"@X@Xx.q.K.N.b.K.b.k.Q.Q.E.4.K.6.6.yX3XJX$.} I I n.yX. { #X@XR 9X#.LX} ..#.X.HX| ) D #.K.).1X|.!.'.G.G.'.C.'.'.'.`. XkX=X=X6X(.6X).;X.X8X:X:XG.'.'.G.:XG.G.!.!.U.oX[.&X*XhXT.fX4XAXZX~.OX5XNX4XI.",
"@Xx.q.b.b.E.W.b.N.Q.k.|.0.K.q.b.0.+.$.} #...Q P g.@XKX! $.g.KX9X$.#X@X@Xl.#.#.*.2.#.#XV.k.].(.C.8XG.XXG.8X'.'.F..X.X.X;X=X1X1X6X X.X'.G.z.:XG.'.8XG.G.:XG..XC.(.>X/.,X,X%XOXOXU.NX$X~.OX4XNX$X7X",
"@Xx.q.K.b.E.E.b.N.b.Q.M.c.E.b.T.[.}.n.J.6.6.g.6.b.t.b.6.6.W.0.M.n.J.I.J.n.5XvXvXvXn.T.K.N.(.+X.X'.:X:X:X:X8Xt.!.!.).6X<X<X(.-X.X'.G.G.:XG.:XG.G.'.8XG.G.G.'..X_.%X<X(.(.(.1X+X=X4XMXVX0X$XNX$XI.",
"@Xx.q.K.b.E.E.b.N.b.Q.M.c.E.b.T.[.}.n.J.6.6.g.6.b.t.b.6.6.W.0.M.n.J.I.J.n.5XvXvXvXn.T.K.N.(.+X.X'.:X:X:X:X8Xt.!.!.).6X<X<X(.-X.X'.G.G.:XG.:XG.G.'.8XG.G.G.'..X_.%X<X(.(.(.1X+X=X4XMXVX0X$XNX$XI.",
"#.x.K.b.E.M.W.b.K.V..XE.OX|.K.}.T.hX0X*XS.k.q.b.K.V.S.(.W.W.D.M.%X0X4X}.5XT.sXfXoX*X/.!.{.].6X;X'.8X:X:XG.8X'..X;X2X{.).;X.X.X.X'.8XG.:Xz.:XG.'.'.8X:XG.G.'..X;X/.&X(.(.).{.{.).vXNX4X~.$XNX$XSX",
"x.x.b.(.E.W.6.M.q.C.V.[.P.K.K.[.[.T.T.M.N.). X[.|.M.|.M.|.V.).Y.sXoX0XA.T.}.vXP.fX%X%X;X=XE.6X;X'.:Xz.G.G.G.8X'.'..X.X'.'.qX'.G.G.G.8X:X:X:XG.G.'.8X8XG.G.G.'..X&X&X*X(.).+X+X(.eX$XMXVXVXBX$XSX",
"x.K.Q.E.W.E.3.(.`.u.r.jX<.k.V.W.jXM.J.|.k.b.r.d.M.E.[.< b.K.Q.M.P.4Xp.U.P.}.}.>Xc.sXiX6X(.].+X2XqX8X:X:X:X:XG.8X'..X.X!..XC.'.G.G.:X:XG.:Xw.G.G.G.'.8X8X:XG.'.'.=X>X1X6X).{.6X+X&XMXNX5XI.BX^.ZX",
"x.b.q.E.W.d.1.e.`.r.1.P.r.6. X0.}.[.fX*XN.Q.=X,.e.}.K.W.j.b.b.M.sXVXsX}.sXvX* S.&.T.hXS.].+X6X2X.X8X:X:X:X:X:XG.8X'..X.X.XC.'.G.8X8X8XG.G.:XG.G.G.G.8XG.:XG.8X'.;X&X/.+X).6XS.+X&X4XBX4X4XNX$XI.",
"x.6.b.M.W.E.1.3.b.,.1.P.a.n.f.[.J.U.P.kXb.W.Y.&.9.W.b.[.T.Y.rX&XsX5XsXsX5XT.~.m.&.h.eX+X1X+X+X_..X'.:X:X:X:X:X:XG.'.'.'..X.X'.'.'.'.8X'.G.G.G.G.G.8XG.G.8X:XG.'.C.=XH.1XS.6X6X(.&X5XBX4XZX^.^.VX",
"K.b.W.M.M.c.=.8.y.,.1.%X9.e.u.1.a.OXe.1.,.y.(.1.H.Y.y.c.e.1.1.Y.j.1.1.,.oXE.1.8.&.h.eX+X1X6X{.2X.X8X8X:X:X:X:X:X:X8X'.'.C.qX'.'.'.'.'.C.C.8XG.G.8X'.G.8XG.G.G.8X'.;X/.,X=X6X).(.*XvXBX$XZX^.NXI.",
"g.6.W.M.M.h.y.,.3.a.1.m.9.1.<.j.&.j.&.a.M.1.e.,.3.r.c.U.1.H.3.1.a.&.9.y.H.&.9.a.,.OX%XY.1X].6X_..X'.8X:X:X:X:X:X:XG.8X'..XqX'.C.C..X!.;X!.8XG.'.'.'.G.G.8X:X8XG.'.C.*X%X(.6X6X1X&XvXBX$XZXs.BX5X",
"K.E.M.[.c.P.e.,.1.c.a.,.9.1.y.1.,.a.,.1.,.1.9.,.1.1.H.a.&.y.1.,.9.,.oXY.a.,.0XL.&.h.sX<X].R.{.2X.X8X8X8X:X:X:X:X:X:X8X'.C..X.X.X.X;X6X{..X'.8XG.'.'.8XG.G.:XG.:X'.'._.%XY.6X(.Y.eX7Xs.ZX^.NXNX5X",
"K.M.[.U.c.hXr.1.1.5Xj.&.U.,.9.sX<.U.1.W.[.M.Y.,.e.,.3.9.,.H.H.H.9.&.c.3.Y.&.T.a.,.h.nXY.Y.+X{._.C.'.8X8X:XG.:X:X:X:X8X'..X.X!.!._.6X+X;X'.G.8X'.'.G.'.8XG.:X:XG.G.C..X1X&X1X1X/.sXVXBX$XZX^.$X5X",
"yX<.}.U.U.K.B.,.&.~.M.&.}.1.1.r.,.sX,.,.:.,.E.&.9.y.1.a.1.y.8.e.e.&.c.y.H.,.3.8.&.OXsX1XdX{.6X_..X'.8X8X8X:XG.:X:X8X8X'..X!.!._.+X<X1XC.t.8X'.'.G.'.8XG.G.:X:X8XG.C..X-X%X<X<X%XOXNXBX^.NXZXI.5X",
"K.}.U.0.E.f.N.E.<.~.c.M.iXD.a.9.p.BXA.-.9.h.<.Y.U.e.a.h.M.3.3.0XM.-.~.9.oXa.9.9.a.oX>X1X+X{.6X_..X'.'.8XG.G.'.'.8X8X'..X.X_.2X2X<XH.{.;X;XC.G.:X:X8XG.8X'.:XG.G.'..X!.Q.>X/.&XOXVXAXPXBX$XP.5XP.",
"b.}.W.b.f.k.N.E.}.P.M.e.y.v.n.ZXSXI.5XsX X XE.E.|. XE.sXvXsXP.b.Y.fX* 5XvXOXOXT.Y.%XOX1X].R.{.;X.X'.'.'.'.'.8X'.'.'.qX.X;X_.2X<X>X1X!.;X).C.C.G.G.G.8X'.'.qX8XG.!.;X;X(.%X%XOX0X+ AXAXAXI.}.4XP.",
"W.6.E.K.V.!.d.Y.U.>Xy.&.y.,.e.7XB ZX0XW.:.E.).b.Q.;X=XhX0XsXM.1.3.fXvX0X0X%XeX&X).cXxX<X{.{.2X;XC..X'.qX'.'.'.'..X.X'.;X_.2X].>X,X_.C.!.6X+X{._.!..XB._.2X;X_.;X_.;X2XOXsXOX0X$XBXAXBXAXp.W.~.U.",
"b.|.E.k.N.).Y.U.M.>X8.,.M.1.,.> 7Xj.Y.|.W.E.r.S.Q.N.S.M.c.H.Y.&.3.c.oXeXH.U.%X<X2XiXxX<X2X_.2X!..XC..X.X.XC..XqX.X.X;X_.{.+X>X>X+X!.C.'.!.aXaX<X,X,X%XOXOX].R.{.+X*X0XNX0X5X$Xs.AXNXSXAXp.W.p.[.",
"W.j.K.Q.Q.E.U.U.U.sXy.,.y.1.p.4X&.8.1.y.b.1.y.,.1.y.,.9.1.,.e.,.&.e.,.y.,.U.nX<X{.6XoX<XD.D._.!..X.XC..X.X.X.X.X;X;X2X_.+X>XxX<X!.C..X'.qX.X).,XxXxXmXBXBXoX&X&X0XNXAXAXVXVXSXIXAX$XZXBXP.6.P.U.",
"E.E.!.b.E.j.OX/.h.sXy.&.,.,.5Xa.&.OX1.,.U.9./.,.e.3.,.%X1.8.OX1.3.3 3.,.,.3 /.Y.D.).>X<X_._.;X!.C..X.X.X!..X;X;X;X_.2X2X,XxX/._..XC.'.`.'.t.C.D.{.1X%XfX4XNXNXAX  IXAXFXVXSXAX  ^.4XI.NXA.b.T.0.",
"Q.k.N.b.U.c.OXM.H.&X1.1.eX1.,.y.1.y.3.e.M.r.3.&.a.3.,.U.1.3.OX&.a.3 c.&.9.vXH.Y.v.).>X<X;X;X;X!.C..X.X.X;X;X;X_.2X2X{.6X>X>X6X.X.X'.G.G.8Xt.'.f.B.R.].Y.*XsXVXAXPXH IXBXVXFX  AXI.~.P.A.$XW.W.M.",
"N.N.(.U.c.OXM.M.U.[.8.,.m.&.=.a.&.h.U.Y.1.,.}.1.3.e.1.j.1.8.h.,.3.T.X ,.c.h.hX6X!.2X%X&XB._.;X!..X.X!.;X;X_.2X2X2X6X+X<XoX=X.X.XG.G.l.z.8X:X:X'.C.f.!.!.;XD.<XoX^. ./ ^.VXAX  BX5X0XT.[.NXJ.W.M.",
").E.j.c.%XU.U.U.c.E.:.,.&.r.h.~.1.&.r.<.y.,.,.,.3.e.,.8.1.3.p.1.&.e.NX3.fXsX&X).;X_.>X1X;X_.!.!.!.!.!.;X;X_.2X{.6X6X*XoX].!.t.G.'.:X#X:X#X2.z.G.G.;X;X;X;X{.nXMXZ PXt X B AXIXA.c.%Xp.} A.NXW.q.",
"[.U.W.j.H.H.%XU.b..X(.H.~.s.SXSXP.j.h.T.M.j.<.M.j.q.e.OXM.c.I.c.9.c.c.&.mX%X<X(.B._.OX*X!.B.!.!.!.!.;X_.;X_.{.6X{.1XoXoX2X.XC.G.z.z.z.z.:X8XlXDX6XCXCXaX,XxXfX> Z IXNX0XSXAXAXsXU.U.T.2.g.BXP.V.",
"W.0.M.M.U.OXj.b.N.).E.[.SXZ wXI.hXP.[.K.(.E.F.'.!.G.K.Y.|.[.sXvXsX<X1.%.* oX<XR.D.D.OX(.;X!.!.!.!.;X_.;X_.;X_.{.+XOX>X*X2X!..X.X.X;XpXDXaXaXgXaXaXgXgX>XxXfXNXZ   AX~.OXZ AXBX}.Y.U.n.*.#X7XP.b.",
"W.[.0.T.j.E.K.|.-.b.E.J. .BX4Xc.sXfXY.e.M.E..Xf.!.C.B.Y.H./.0X~.0X&XOX+ mX0X,X+X_.{.>X=X!.!.!.!.!.B.;X;X!._.2X_.Y./.%XfX>X<X<XzXzXgXzXzX,XgXxXgX<X%XoXxXfXMXAXK IX^.OXOXAXAX$XU.Y./.6.x.$.3Xp.Y.",
"M.U.M.b.b.E.K.x.l.W.:XZ.Z.Z.}.bXvXjXT.g.8Xg.`.w.@XtX X6.n.E.w f @X6.jXZ.fXC hX X;X2X>X1X.X!.!.!.!.!.!.!.;X!.!._.Y.1X%XmX&X'..X-XqXz.`.kX$.w.rX8Xz.8XyX`.F.}.SXZ PX~.OXOXAXNX4XU.(.M.K.yX..#Xn.M.",
"j.M.M.U.c.0.x.XX#.5.3XZ.} LX#.) ` ..n.@XGXW #.*.( g.6.D ` W.E ..} ` D } 3X*.} x.K.-X>X6X!.!.!.!.!.!.;X!.!.!.!._.{.(.;XrX%X@X#X:X2.$.$.z.X.X.#XX.HX$.#X#X#X|.$XNXNX~.OXvXBX^.A.%Xb.M.b.V.D #X@X0.",
"b.M.T.M.(.b.yXg.bXAXZ.Z.n.bXg.g.Z.g.P.6.n.` g.g.3X6.b.yX| [.9X9X9Xg.9Xn.{ n.3Xg.W.(.OX6X!.!.!.!.!.!.B.!.!.!.!.!.+X(.!.'.=XrXDXrX:X$.qX8X$.X.:Xz.$.$.:X8XtXxXfX0XfX5X5X^.^.4XP.c.b.E.E.V.*.#XXX#.",
"T.T.T.%Xj.E.n.NXAXZ AXBX4XoXU.|.|.h.,X/./.M.(.E.(.(.+Xj.c.%X4X4X>XOXsXoXBX~.T.*XY.+X>X(.!.!.!.!.!.B.;X!.!.!..X!.S.).C.qX8XlXDXCXCX].aXCX).(.1X-X X=XuX>XxXeXCXcXfX0X5XAX^.I.sXOXb.N.b.Q.*.GXLX..",
"M.M.|.K.[.I.AXBX> ^.Z.J.5.K.-X:Xg.n.3XyXW.V.'.*.(.b.K.(.l.} }.hXW.}.W.jXjXX %X<X).Y.>X(._._._.!.!.!.!.!.!.!.!.B.+X{.!.C.C.8X:X:X8XlX$ DXCXCXCXaXaXaXaXCX# CXCXuX$X5XFXt $X~.P.c.&XN.b.k.F.*.*.LX",
"U.T.P.I.mXBXs.5.SX5.{ ` 3X@Xw Q 9X#.GX} #.D } W jXXX@X6.GXQ } g.@X#.@X( 3X7XOX&X*X,X>XY._._._.;X!.!.!.!..X.X!._.).{.!.C.C.'..XlXlXqX:X:X8X$ DXCXCXCXCXCXCX6X<X& ^.5XBXZ $X5XT.%XU.E.b.V.F.2.*.GX",
"~.~.~.4XfXZXZXZX .wXg.Z.9Xn.{ #.n.|.W.9X3X9X| bX[.g.| W.x.{ 9XJ.#.9X9Xn.3X$XoX%X*X%X%X<X6X_._._._.;X;X!.!.!.!._.{._.!.C.C.t.C.;XDXDX# # # DXCXCXCXCXCXCXcXcXsXmX^.VXAXZ ^.5XP.M./.M.N.k.F.l...GX",
"vXvXoXoX3 VX^.FXt I.h.MXU.e.b.k.E.L.U.T.W.N./.H.H.T.}.H./.T.fX$X$X4X0XOXT.%X0XsX&XOX%XY.1X{.{.2X_._._.!.!.!._._._.;Xf.C.C.'.'.'..X2X+XCXaXCXCXaXCXaXgXuXnX0XMXBX4XZXAXFX$X5XP.[.E.M.E.Q.F.*...LX",
"P.sXh.4X5.5Xp.s.$XsXOX5XM.B.N.d.Y.e.j.M.-X+XH.M.H.c.[.%X/.T.0XvX5X~.sX&XOX&XiX*X%XoX,X<X<X1X+X{.{.2X_._._._.;X_._.B.!.C.C.C.C.C.C.C.!.{.+XaXaXgXgXnX>XxXfXmXMXNX5XZXAXs.^.4XP.M.E.j.M.).F.F.*.GX",
"c.h.~.^.5.h.OXZXp.jXvXA.d.r.M.;.N.W.0.b.-XE.c.hXU.U.eXU.U.T.vXvX5X5XOXeXOXOXE.-X%XOX/.>X/.(.1X+X).{.{._._._._._._.!.!.f.C.f.f.!.!.;X;X;X2X+X].,XH.>XOXxXoX0X4X~.T.SXZ ^.I.4XP.[.E.M./.M.C.l.l.XX",
"c.c.& c & T.nX0 h.M.I.0.CXdXe.DX- 1Xb.e.b.*XuXO &XM.U.T.U.OX7XvXVXA.sXOX%X,XU.E.Y.E.*XH.,X/.Y.Y.(.+X).{.2X_._._._.B.!.C.C.u.!.f..X!.;X;XQ.{.+X(.1X&X/.[./.U.sXOXU.BXt ^.I.I.~.T.M.E.U.%Xb.t.l.XX",
"J.n.j b 7 jXo h P.6.4Xb.M h |.j y 5 =Xr.-.<XuXy @ M.0.T.U.OX5.5XA.~.h.U.j././.H.(.B.N.)./.U./.Y.(.(.(.+X{.{._._._.!.!.f..X'..XC.C.!.!._.D.2X{.6X(.+X+X+X+X(.dXY.Y.AXSXZX$XP.~.h.M.Y.H.H.U.i.l.l.",
"}.<.y z M 0., z O iX<.b.y 7 hXk k e d.# 4 cX1X7 sXkX}.eX@ @ ZX7XO O c.@ =XcX/.cX# N._.DX$ cXo gXcX(.(.S.+X6X).2X;X!.C..X.XC.C..XC..X!.!..X!._._._.!.!.;X;X{.].(.jXAXZX$X^.5X}.0Xc.M.M.OXc.M.C.C.",
"}.<.y z M 0., z O iX<.b.y 7 hXk k e d.# 4 cX1X7 sXkX}.eX@ @ ZX7XO O c.@ =XcX/.cX# N._.DX$ cXo gXcX(.(.S.+X6X).2X;X!.C..X.XC.C..XC..X!.!..X!._._._.!.!.;X;X{.].(.jXAXZX$X^.5X}.0Xc.M.M.OXc.M.C.C.",
"U.@ h & y cXr b a k dXf.h 7 e ; b e <X5 h 7 , M e h * q h 7 a 1 y 7 r ; 8 e e ; 7 8 8 y ; 1 h z 1 nX&X+X(.R.6X{.{._.!.!.C..XC.C.C.C.'.C.C.C..X!.!.!..X!.!.).S.).7XBX^.$XI.NX5XT.T.T.U.c.>Xc.b.V.",
"0.@ k 1 k nXq e eXM hX:.e 1 k % y a - e z 7 @ M 7 y 5Xy e 7 7 y a - y 1 e 0 h e e q e b vX# h y @ fX4XP.cXdX+X+X{.{._.!.!.C.C.'.C.'.'.'.'.'.C..X!.!.!.;X;XQ.(.W.$XBX5.$XZX^.4XP.0.c.c.c.>Xc.c.N.",
"6., y 1 k e y e cXk vXe.e 4 M @ h 1 , e 5 y * y e 7 & y u 5 0 y @ dXk nX7 = r ; 5 a 5 7 kX'.# q 7 CXc.MXNX5X%XY.+X{.{._.'.C.'.'.'.'.'.'.'.'.'.C..X!.;X!.Q.6XQ.T.^.AX^.^.A.NX5Xn.K.K.6.0.T.H.c.M.",
"*Xh a [.r e e h 7 e }.:.1 # b - j e e y h y & k 0 h e 7 q 7 u ; y M 5 W.e 3X2 h r e cXq W.DX7 j a uX{.<X~.IXAXZXT.Y.{._..X.XC.C.C.'.C.C.'.'.'..X!.!.!.!.;X{.&XP.J.I.^.$XP.p.4XP.q.:X@X@XK.T.H.j.",
"0.nXvX-.iXsXeXiX- jX4.t.sXW.& ~ * BXZ 0 * * & = vX@ X 0X@ & 7XK.O 0 }.o.vXo.z.4 % J.*X% *Xt.CX5 & =Xr.(.1XOXFX  IX> vX&XD..X.X.X.XC.'.C.C.C.C..X!._.;X_.-X<X0X5X}.n.4XI.[.T.p.$XA.g.@X*...K.sXM.",
"0.c.h.,X[.c.*X<.0.c.h.P.BXBX    IXBX7Xh.I.h.U.j.H.sXp.U.C.;.j.K.o.:.:.C.:.f.t.Q._.k.t.'.4.f.7.i.!.!.B.{.+X1XT.4XBXIXK ^./.2X;X!.;X!..X;X!..X!._.).(.).(./.4X9Xn.p.6.}.5XP.6.W.p.$XJ.n.#.( $.g.W.",
"* P.c.H.sXfX|.g.4XX 3 MX^.mXwX3XJ.jXn.oXbXM.W.(./.%Xh.bXt.Q.>XC.l.f.C.'.u.:Xz.D.R.D.f.'..X!.C.B.B.!.;XpX2X+X].>X~.BXAXK PXxX<X6X).2X;X;X!.;X_.).Y././.>XoX9X_ ) n.W.6.J.A.W.q.g.0.0.g.x.GXQ *.|.",
"6.n.c.P.OX0XXX{ { 3X3X{ *.9XZ...{ #.tXn.XX9X} w @X#.J...@X@XW.@X@X@X2.@X@X} @X@XXXtX*.yXC.!.!.!.!.B._._.D.).].Y.%XfXNX .AX  AXs.vXW.<X<XaX<X,XOXfX5XJ.9X#.KX) #X( #.#.6.h.U.g.2.D } @X) T ..) D ",
"|.}.~.OXoX5Xg.>.n.9X#.#.3X| 5.Q #.{ 3XZ.@X#.} } ` @X[.XX#.#.[.F.*.W J } D { D { 3XbX( #.8Xi.!.!.!.!._._._.).S.1X/.OX$XBXZ H IX  | 2.#.g.}.J.J.n.9X@X*.LXE ) LX#X^ ^ ( @.7XU.6.*.E E LX^ #XT LX..",
"sXP.p.P.P.fXfXmX0X~.sX4XAXAXAX$X$XA.U.T.M.|.q.0.p.P.Y. XK.W./.K.E.K.b.E.x.| l.n.[.W.W.6.V.t.C.C.!.!.B._._.{.{.+X1X%X5X^.FXt AXIXD R ^ ^ E E KX^ KXLXT ) ) P 8 9 p 8 d 8 7 1 # - 8 s 8 m f ) ) LX",
"0.A.T.OXsX5X5XyXW.4X$XNXJ.SXZ.n.}.[.[.Y._.k.).eXOX}.S.t.`.K._.D.u.u.f.N.k.N.t.t.(.(.*XV.!.f.C.f.!.B._._._.{.).S.1X<XOX$XPXAXIX>.LXLXD T T ) ) ) ) ..) ....F 1 1 e e e 5 5 O 7 1 e l i 1 9X^ ) D ",
"K.~.T.sXsX$XZ.LX#.{ 3X{ #.wX@XI D 3X} *.XXGX@X#.yX@Xg.$.{ } 3X@X2.#.*.#.*.2.x.l.bX@XXXq..XC.C.C.!.!.B._.D.{.).S.(.<X%X~.Z  .  { $.) ) ) D ) ) ) D ) ) ) ) w 7 7 e e q e e 9 e e e u 6 e ) LXT D ",
"P.T.W.}.A.I.9X3X| #.{ { 3X5.yX` } 3Xg.3X#.g.} ` | #.6.l.n.@X3XW W #.#.x.` ` |.#X#.} } g. X!.f.C.!.!.B._._.).(.(.].<X%X0X .IXPX) E D LXD ) ) ) ) ) D ) T T ^ bXl 3XC 3X{ C W W.bXl bXD bXT ..) LX",
"#.K.}.fX0X}.n.I.5XI.^.s.^.MXsXh.h.M.E.b.M.P.[.A.P.W.Y.).6X Xb.E.E.E.W.|.E.j.(.Q.jXg.n.b._.!.!.!.!.!._._.D.{.(.(.Y./.%X0XAXAXZ.A LXD ) Q D LXD D GXLXF ) D ) R 6 s g 2 d 9 g # < 8 d p s } E ) ) ",
"VXmXmX}.W.g.}.P.T.4X^.NX$XP.}.H.E.N.d.E.U.[.P.sX<X-Xy.).D.;Xv.].R.L.m.+X{.Y.S.Y.(.CX)._.!.k.!.!.!.!.B._._.).S.(.Y.<X%XfX .  { _ Q Q ) ) ) ) T D ) D ) ) Q ..T p 7 i 7 5 a g e 9 h 1 u h g ^ ) D ",
"Z.9X#.3X` g.0.sX0X~.5X5XP.W.Y.iX(.=X/.sXT.0X5XsXE.).).).D.D.E.DXY.L.6X{.N.L.9.=X*XiXS.).!.lX!.!._._.;XB.v.-X).(.Y./.%X5XAXPXLX..D ..D D D D Q LXD ) ) D ) D ^ 6 7 5 5 C e 8 1 e e a d 7 @ KXQ LX",
"LX) @X#.#.3X{ Z.VXfXVX4XT.sX/.j.E.hX}.vXP.* vX&X_.2X)._._.1X).Y.Y.1X_.!.rX&X/.*X*X*X=Xd.Q._..XB._._._.D.v.).+X(.Y./.T.~.  >.KX) ) D ) ) T ) D ) D T D D LX^ E w : f f _ l l g < f m C l 3XT T GX",
"Q Q J } ( Q @X{ l X 4XP.sXsXU.%XP.I.7XZX$XOX/.R.D.2XS.1X,XuXL.<X(.2XB.C.).H.&X/.&XY.iX-X-X_.pX!.;XD._._.v.S.(.(././.sX4XAX{ E ) D ) D D ) D ) ) ) D Q ^ LX! W KXR E R E R R R ^ T ) T R E T D T ",
"Q ( P D T Q 4.g.q.c.H.1.oXY.r.,.e.~.AX7X}.&XDX,.r.(.1.Y./.6X8.E.{.1.N.G.(.%X&X<X&XE.Y.kX). X,.y.1.1.v.dX).6X(.Y./.%XsX~.AXQ LXQ T T ) Q Q Q Q D ) D ) LX! >.Z.{ ! ! ! 3XW | ` Q U W Z.| W LX) T ",
"D Q Q D P ( ,.W.r.H.e.&.9XV.1.9.=.1.VXvX*Xe.;X,.3.j.1.H.B.D.&.&XD.,.M.F.Y./.1X*X*X=XY.=X(.-X8.a.,.8.H.<Xv.=X(.Y.,X%XOXZXwXLXT Q ) ) Q Q ) ) D ) T D T LX| >.>.>.Z.>.U >.U >.wX} U { wX>.>.KXT Q ",
"( ( Q P P *.3.E.&.-.d.8.F -.&.~.h.1.U.3.v.1.D.r.c.d.9.M..XB.,.a.r.,.j.r.8.y.y.S.y.S.).y.kX-XkX).,.H.Y.y.1.y.Y.<X,X%X5X$XZ.E ) D T T ) T T T T D ) T D T T Z.| | ( | ` W W { Z.E Z.| | U W LXT D ",
"Q Q Q Q Q ( 6.n.6.| N.,.G OX&.5X<.&.a.,.j.y.v.E.U.V.c.`..XD.,.,.1.,.9.,.m.1.8.8.8.8.e.9.*X(.rXD.,.9.v.3.L.,.M./.,XOX4X^.3XE ) T Q D T Q D ) D Q D T D ) LXI E LXLX..E T E JXR Q E R J ( R T D LX",
"( Q J Q ( P T T I I u.,.vXL.&.h.[.&.9.,.&X1.3.|.8XV.f..XqXr.,.9.j.,.a.y.N.8.a.,.8.,.8.H.8.1.&XS.,.9.8.3.&X,.U.%X%XOX4XBX..T D D D T T ) Q T Q LXQ D ) T D T D ) ) D KX>.>.#.W Z.W | | | W LXQ T ",
"Q Q D Q Q Q Q Q P Q :.,.vXa.&.3.1.y.<.v.e.1.9.|.f.u.!..X'.r.,.a.t.&.j.,.v.,.j.&.a.8.,.c.j.c.}.N.,.9.R.8.m.,.c.U.%X0X$XAXLXT ) T Q ) D T ) D ) Q ) ) Q D ) D D Q P ) D U U >.>.>.] | Z.  ! ^ ) T ",
"Q Q J Q Q ( Q Q Q T 7.9.}.9.3.%.-.p.-.1.%.-.c.!.u.!..X.XrXD.y.}.1X8.}.6X%.A.@ y.T.d.9.*XV.M.E.e.,.h.].,.8.9.OX%XOX0X$XAXL ) Q ) T Q T D T Q ) D Q ) T Q ) ) F ) P ) L { | G | ! { G G { ! LX) P ",
"J Q Q Q J J J Q Q P l fX= = vX@ eX=XlXDXcX}.- $ - # s s u 4 u v 8 O = q 0 0 u nX@ 4 = i kX(.iX|.0.T.6X/.c.P.U.%XsX0XNXAXKXT D T D ) Q T D ) Q ) T D ) D T ( ) ( T T Q L } E ^ ^ F T ^ E T T Q ) ",
"Q Q Q Q Q J Q Q F C V c a u N s u u u 4 s s s a q s s 8 d 9 8 , , 4 , DX2 o 1 4 1 e e e 1 @ cX,X6XQ.1XdX*X*XuXeXsXfXNXAXE Q T ) Q T T D T Q ) Q D ) Q ) Q T T T Q I T P I T ) LXF T ) D T T P ) ",
"Q Q Q Q Q Q Q T GXl m f f m g 3XC g J < XXw C C m g J yXtX3XyX6 < tX- A I i < 6 - bXi f 9 9 f hX< @X3XXXx.D %X%XOX5XNXBXT T D T D ) D T Q ) P ) T Q ) P ) P P *.*.*.LX*.T ) T P Q o.I ) ) Q P ) ",
"( Q Q Q Q Q Q I Q } Q ( W P W W Q J { N I Q ( D W ) J J } } J } Q ! cXP W 3X( ) ( ( ( } ( ( D : u } ( } g.Q eX[.sX0X$XBXT Q ) Q T Q T D ) ) ) D ) ) Q ) Q ..@X3.r.,.N.9.#.E P I L =.g.I ..P P ) ",
"Q Q D Q Q Q P C l l C c l f l l f : l 9 f 9Xl f l f bX9Xf : 9XbX} } 4 f bXf f 9XbXbXbXjX3Xf #.v N 3X9Xf 9X#.M.M.T.P.fX^.E ) P ) D T ) Q T D T Q ) P ) D T D #X8.y.8.y.3.8.V.4.=.C.e.9.r.#.LXT Q ",
"Q D D P Q T w v a N = N N N s 8 s 9 : 9 2 s 2 8 9 # 4 8 2 , , , : v O , - , , O 8 8 , 2 e 4 V % % & 5 5 5 @ [.[.T.T.0XZXE Q ) Q T Q D T ) Q ) D T ) ) Q T T T ,.3.e.,.g.e.3.3.e.%.} r.,.g.D P ) ",
"! ! { ! W C N u N N N N N N 9 8 9 s i 9 9 9 9 2 - - 2 - 2 2 - 2 2 # 2 # # , # # - # 2 s 4 gX>XuX*X<XcXnX1 5 1 5 : sX0XfXE ) Q T ) Q T *.Q T GXD ) D P *.P P LXr.9.k.3.x.e.3.8.,.j.P F.,.-.GXF ) ",
"W } } W Q G v v N N N N N N N 9 N 9 9 9 9 2 9 < - 8 i - - 2 # - # # - # 9 # 8 # # 2 4 5 O kXB.;Xf.N.2X).Y.*X= @ a u 4X~.Q E I Q D T T I I Q D ) Q T T F ' P T *.| l.g.Q } { *.6.{ KXo.-.| T ) D ",
"{ W ! W C l V V v N N N N N - u 9 i i 9 9 9 2 k 7 8 q # 2 - , - # # - # # 8 8 - 9 1 @ , 2 lXlX2 -XB.2X2XD.# CXiX@ 4 0 0X}.' I D F P ( XX@.) I Q ) P I ..( I T Q KX..I I LX#XI ) ..) I T I T ) I ",
"! W { J l V 0 u V N u N N s 4 s 8 9 4 s 9 9 4 z 7 7 0 : i 2 - < , # - 4 2 7 e v q O kX2 r uX$ 7 eXf..XB.u., 5 E.v.(.- nXfX| I E P F i.8.8.M.) L r.E.I 7.M.T LXI LXF ^ I 8.=.q.I I I P I #XT ) ( ",
"! W { J l V 0 u V N u N N s 4 s 8 9 4 s 9 9 4 z 7 7 0 : i 2 - < , # - 4 2 7 e v q O kX2 r uX$ 7 eXf..XB.u., 5 E.v.(.- nXfX| I E P F i.8.8.M.) L r.E.I 7.M.T LXI LXF ^ I 8.=.q.I I I P I #XT ) ( ",
"W ( } J l = v u u N s s s 4 u u - - N 4 9 9 , y a v u q 8 q s r r 8 8 r 8 q 7 5 r $ t.$ 7 O $ 7 @ pX2 # !.# @ iXDXDXdX).@ 0Xg.E T Q Q d.a.#.8.7.4.3.d.y.6.1.u.7.k.k.%.x.8.;.W l.=.7.t.4.g.LXD I ",
". R KXD A A A A P L LXP T A S HXA A :X9 , 9 , y y , , r 7 5 7 e 7 h e e e e z e 7 iX:.$ h q r 7 jX4 a y 4 , ; 4 y e % ).6X<X%Xg ^ T E :.a.C.9.%.3.8.3.;.3.8.a.3.3.3.<.D B.,.r.1.3.e.N.,.9XT GXD ",
". LX{ U { } } ! | } { | ! ( X.E GX) A - 4 # 8 y a & 5 7 a u 7 h 7 e e 7 q h e 4 7 jX:.# y % e 7 : # a y 5 q 7 z 7 = kX!.=XR.a.hXK.) E r.e.r.3.8.m.8.8.1.a.3.8.3.y.a.;.E 1.r.a.8.3.6.r.8.o.T LXP ",
". KX{ >.` W } ` Z.*.{ Z.{ @XJX` | W X.u , 2 , k a 9 2 y a 2 7 a 0 5 4 q y 7 ; - y : O.$ k hX$ 7 0 y 5 7 1 , e u ; |.C.k.pX2X{.].H.[.yXi.9Xo.-.6.K.6.q.E.6.g.g.e.3.3.3.J d.-.| 2.-.W.6.g.6.LXP ) ",
". KX{ >.W } } ` | D { | { D JX| Z.{ JX4 - , - 7 0 - 2 7 0 9 , y 7 5 h h 0 a 5 - 1 O z.DX; v p 1 a y e 7 5 e 1 4 1 iX'.!._._.).+X].<X%XW.l.E E ^ T T A T T E LX..#.g.| D T P ^ I I E I LXI LX) ..",
"JXLXW >.` W } W | J { | { ( JX| | { JXO - 2 # u @ 2 2 4 v 2 2 4 0 v 9 5 bXlX:  XhXg.t.qXhXbX'.hXiX$ jX: hXkXjXkXhXkXC.!.;X_._.{.+X].1XeX}.yX..1.} I GXI I I ^ L LXKXA E I I I I LXLX;.,.o.LXP ) ",
". KX` >.} #.} 3X| D ` Z.| D . | | { . 4 , # 9 , 2 2 - 8 2 8 2 # 2 # , O t.t.8XG.G.F.'.C.w.'.C.w.t.w.t.t.w.C.t.G.8X'..X'.;X;X;X2X{.+X+X+X<XnX|.8.g.I u.=.t.7.;.l.4.F.l.r.f.u.7.8XB.t.6.3.0.GXI ) ",
". KXC U C W } } | } { | | D JX| | { . 4 - 4 # 6 < 2 6 2 # 2 # # # d i - G.C.'.'.G.G.'.8X8X'.'.G.G.G.G.:X'.'.'.G.qX'.qXC..X.X;X_.2X{.+X+X].<X,X8.3XHX8.3.e.8.y.v.3.b.8.3.,.m.8.%.8.6.A 3.{ LXLX..",
"JXKX` U ` #.} ` | D ` Z.{ } JX| | { JX4 # 2 2 Q ` 2 E Q @X@Xw GXC s R } *.w @X#X@X*.3X@X@X2.@X2.#.XXD @X*.@X*.#.@X*.XXx.!.!._.;X_._.{.+X+XY.m.,.;.t.,.a.E.r.,.y.r.,.,.N.3.e.%.b.1.=.o.e.P KXD LX",
"JXKX{ U ` } } W Z.D { Z.| J . | | { . 4 - # 2 } 3X2 #.} } | C Q 9X4 } @XW 3X#.` #.} } } #.` } 3X` w ..yXW D { #.} { } 3XC.C.!.;X;X_._.{.{.1X1Xa.9.0.x.-.g.;.9.6.%.0.6.%.6.-.b.6.=.n.x.9.( LXLXLX",
"JXLX{ >.{ W } W | J { | { ( JX| Z.{ JX4 # 9 2 # 4 2 - - - - - s 5 DXF.`.yXtXyXtXyXyXtXtXyX@XyXtXtX8XyXyX@XyXg.tXx.g.yXg..XC..X;X!.;X2X2X{.{.cXL.nX& @XKXLXA Q L T T S D A F F A D T ) I ..LX) ) ",
"_ ^ Q } ) LX) } J ( ( D { D KX{ { W . 4 9 # 2 # - 2 2 2 - 2 2 q 9 w.C.C.'.t.C.G.t.t.8XG.t.8X:XG.G.G.z.z.:Xl.F.G.t.'.G.F.C.qX.X.X;X_._.{.+X+XR.].<XzX}.) KX) #XKXA HXLXLXKXL ^ S LX_ ^ HXA ..LXLX",
"KXS . JXL R L _ R LX^ KX. . X.. . . HX- # 2 9 2 2 2 2 2 2 d 2 a qXt.i.'.'.'.G.8XG.'.G.G.G.G.G.G.:X:X:X:X:X:XG.G.8X8X'.'..X.XC.'.n.vX.XI.J.T.T.*X%X%XfX7X) | #.{ D | D | { } } #...} D | Z.LXLXGX",
"a a u u u u u u s s - s s 4 9 - # - 2 4 2 2 2 2 2 2 $ 2 2 2 4 DXqXt.C.'.'.'.'.G.'.G.'.G.8XG.G.:XG.:X:X:X:X:X:XG.G.G.8X'.'.qX8X.X7XBX X}.I.7XI.4XI.^.$XAXU Z.U >.U >.LXZ.U wXU U wX>. .Z.>.KX..LX",
"a a a a a u s a u s 4 4 4 4 4 4 9 , - # 9 # 2 2 # < # 2 2 9 4 '.'.'.'.8X'.G.G.'.G.8XG.'.G.G.8XG.8X:X:X:X:X:X:X:X:XG.G.8X'.'.'.!.g.bX-X[.}.*X&X[.OX[.fXMXJ.` { #.>.FXD 3X{ { Z.Z.#.| { D | LX..D ",
"u u 4 u u s s u s u u - 4 - 4 - - - - 9 2 2 - 2 2 2 - $ # 4 2 t.C.C.8X8X'.8X'.'.G.'.G.G.G.8XG.8X:X:X:X:X:X:X:X:X:XG.G.8X'.C..X!..X.XD.!._.{.+X+X].aX,XOXP.KXKXLXD } LXLX$.KXD LXKXKXKXLXLXD ..LX"
};
